;FLAVOR:Marlin
;TIME:4299
;Filament used: 1.07176m
;Layer height: 0.1
;MINX:71.639
;MINY:80.085
;MINZ:0.1
;MAXX:127.954
;MAXY:135.762
;MAXZ:8.5
;Generated with Cura_SteamEngine 4.6.0
M140 S75
M105
M190 S75
M104 S195
M105
M109 S195
M82 ;absolute extrusion mode
G28 ;Home
G1 Z15.0 F6000 ;Move the platform
G92 E0
G1 F200 E3
G92 E0


G0 X0 Y15 F9000 ; Go to front
G0 Z0.15 ; Drop to bed
G92 E0 ; zero the extruded length
G1 X40 E25 F500 ; Extrude 25mm of filament in a 4cm line
G92 E0 ; zero the extruded length
G1 E-1 F500 ; Retract a little
G1 X80 F4000 ; Quickly wipe away from the filament line
G1 Z0.3 ; Raise and begin printing.
G92 E0
G92 E0
G1 F1500 E-6
;LAYER_COUNT:85
;LAYER:0
M107
M204 S1000
G0 F2400 X89.64 Y82.722 Z0.1
;TYPE:SKIRT
G1 F1500 E0
G1 F2400 X89.866 Y82.418 E0.0063
G1 X90.151 Y82.167 E0.01262
G1 X90.481 Y81.982 E0.01891
G1 X90.912 Y81.858 E0.02636
G1 X91.154 Y81.82 E0.03044
G1 X91.532 Y81.801 E0.03673
G1 X91.906 Y81.861 E0.04303
G1 X92.259 Y81.999 E0.04934
G1 X92.461 Y82.132 E0.05336
G1 X93.956 Y82.179 E0.07823
G1 X94.854 Y82.179 E0.09317
G1 X95.132 Y81.372 E0.10736
G1 X95.292 Y81.028 E0.11367
G1 X95.521 Y80.726 E0.11997
G1 X95.679 Y80.577 E0.12358
G1 X95.765 Y80.505 E0.12545
G1 X96.079 Y80.294 E0.13174
G1 X96.431 Y80.153 E0.13805
G1 X96.804 Y80.089 E0.14434
G1 X97.025 Y80.088 E0.14801
G1 X97.282 Y80.103 E0.1523
G1 X97.656 Y80.165 E0.1586
G1 X98.16 Y80.392 E0.16779
G1 X98.226 Y80.435 E0.1691
G1 X98.52 Y80.674 E0.1754
G1 X98.744 Y80.965 E0.18151
G1 X98.977 Y81.03 E0.18553
G1 X99.152 Y81.031 E0.18844
G1 X99.353 Y81.038 E0.19179
G1 X99.686 Y81.019 E0.19734
G1 X99.869 Y81.018 E0.20038
G1 X100.288 Y81.037 E0.20735
G1 X100.722 Y81.032 E0.21457
G1 X100.883 Y81.019 E0.21726
G1 X101.094 Y80.731 E0.2232
G1 X101.377 Y80.479 E0.2295
G1 X101.706 Y80.292 E0.23579
G1 X101.913 Y80.217 E0.23945
G1 X102.115 Y80.157 E0.24296
G1 X102.488 Y80.087 E0.24927
G1 X102.723 Y80.085 E0.25318
G1 X102.836 Y80.091 E0.25506
G1 X103.211 Y80.15 E0.26137
G1 X103.564 Y80.287 E0.26767
G1 X103.773 Y80.413 E0.27173
G1 X103.863 Y80.476 E0.27355
G1 X104.149 Y80.725 E0.27986
G1 X104.377 Y81.028 E0.28617
G1 X104.482 Y81.233 E0.29
G1 X104.532 Y81.348 E0.29208
G1 X104.617 Y81.59 E0.29635
G1 X104.76 Y82.11 E0.30532
G1 X105.51 Y82.164 E0.31782
G1 X106.381 Y82.164 E0.3323
G1 X106.875 Y82.146 E0.34053
G1 X107.224 Y82.122 E0.34634
G1 X107.404 Y82.002 E0.34994
G1 X107.756 Y81.863 E0.35623
G1 X108.13 Y81.801 E0.36254
G1 X108.464 Y81.812 E0.3681
G1 X108.7 Y81.842 E0.37205
G1 X109.069 Y81.929 E0.37836
G1 X109.411 Y82.092 E0.38466
G1 X109.712 Y82.322 E0.39096
G1 X109.958 Y82.611 E0.39727
G1 X110.184 Y83.069 E0.40576
G1 X110.231 Y83.213 E0.40828
G1 X110.27 Y83.351 E0.41067
G1 X110.605 Y84.743 E0.43448
G1 X110.654 Y85.119 E0.44078
G1 X110.624 Y85.496 E0.44707
G1 X110.515 Y85.859 E0.45337
G1 X110.383 Y86.115 E0.45816
G1 X109.89 Y86.907 E0.47368
G1 X109.727 Y87.13 E0.47827
G1 X109.61 Y87.266 E0.48126
G1 X109.386 Y87.484 E0.48645
G1 X109.036 Y87.771 E0.49398
G1 X108.769 Y87.952 E0.49935
G1 X108.276 Y88.226 E0.50873
G1 X108.203 Y88.273 E0.51017
G1 X107.877 Y88.446 E0.51631
G1 X107.204 Y88.833 E0.52922
G1 X106.868 Y89.002 E0.53547
G1 X106.449 Y89.229 E0.5434
G1 X106.213 Y89.364 E0.54792
G1 X106 Y89.473 E0.5519
G1 X105.987 Y89.48 E0.55214
G1 X105.766 Y89.591 E0.55626
G1 X105.709 Y89.95 E0.5623
G1 X105.622 Y90.741 E0.57553
G1 X105.611 Y92.356 E0.60239
G1 X105.646 Y94.7 E0.64138
G1 X105.673 Y94.893 E0.64462
G1 X105.69 Y95.113 E0.64829
G1 X105.696 Y95.522 E0.65509
G1 X105.696 Y95.567 E0.65584
G1 X105.686 Y96.394 E0.66959
G1 X105.637 Y97.454 E0.68724
G1 X105.623 Y97.936 E0.69526
G1 X105.616 Y99.713 E0.72481
G1 X105.54 Y100.175 E0.7326
G1 X105.489 Y100.345 E0.73555
G1 X105.47 Y102.268 E0.76753
G1 X105.479 Y102.986 E0.77947
G1 X105.475 Y103.376 E0.78596
G1 X105.481 Y103.852 E0.79387
G1 X105.493 Y104.225 E0.80008
G1 X105.494 Y104.244 E0.8004
G1 X105.514 Y105.15 E0.81547
G1 X105.56 Y105.258 E0.81742
G1 X105.645 Y105.411 E0.82033
G1 X105.799 Y105.701 E0.82579
G1 X106.106 Y106.315 E0.83721
G1 X106.351 Y106.315 E0.84128
G1 X107.098 Y104.932 E0.86742
G1 X107.323 Y104.608 E0.87398
G1 X107.488 Y104.418 E0.87817
G1 X107.765 Y104.159 E0.88447
G1 X107.99 Y104.015 E0.88891
G1 X108.245 Y103.877 E0.89374
G1 X108.773 Y103.69 E0.90305
G1 X108.843 Y103.677 E0.90424
G1 X109.265 Y103.649 E0.91127
G1 X109.497 Y103.661 E0.91513
G1 X109.871 Y103.721 E0.92143
G1 X110.082 Y103.791 E0.92513
G1 X110.269 Y103.867 E0.92848
G1 X110.741 Y104.15 E0.93764
G1 X110.859 Y104.248 E0.94019
G1 X111.177 Y104.591 E0.94797
G1 X111.314 Y104.784 E0.9519
G1 X111.508 Y105.135 E0.95857
G1 X112.097 Y106.553 E0.98411
G1 X112.303 Y106.318 E0.9893
G1 X112.581 Y106.061 E0.9956
G1 X112.869 Y105.886 E1.0012
G1 X112.945 Y105.849 E1.00261
G1 X113.301 Y105.72 E1.00891
G1 X113.807 Y105.669 E1.01736
G1 X114.05 Y105.679 E1.02141
G1 X114.425 Y105.734 E1.02771
G1 X114.766 Y105.86 E1.03376
G1 X114.852 Y105.902 E1.03535
G1 X115.173 Y106.103 E1.04165
G1 X115.382 Y106.304 E1.04647
G1 X115.533 Y106.179 E1.04973
G1 X115.869 Y106.004 E1.05603
G1 X116.234 Y105.903 E1.06233
G1 X116.528 Y105.879 E1.06723
G1 X117.277 Y105.88 E1.07969
G1 X117.862 Y105.898 E1.08942
G1 X118.007 Y105.697 E1.09354
G1 X118.287 Y105.442 E1.09984
G1 X118.615 Y105.251 E1.10615
G1 X118.975 Y105.134 E1.11245
G1 X119.298 Y105.095 E1.11786
G1 X120.327 Y105.068 E1.13498
G1 X121.414 Y105.104 E1.15306
G1 X121.789 Y105.156 E1.15936
G1 X122.145 Y105.286 E1.16566
G1 X122.466 Y105.488 E1.17197
G1 X122.738 Y105.752 E1.17827
G1 X122.771 Y105.802 E1.17927
G1 X123.119 Y105.865 E1.18515
G1 X123.334 Y105.657 E1.19013
G1 X123.656 Y105.457 E1.19643
G1 X124.012 Y105.329 E1.20272
G1 X124.336 Y105.28 E1.20817
G1 X125.028 Y105.24 E1.2197
G1 X125.407 Y105.258 E1.22601
G1 X125.773 Y105.355 E1.2323
G1 X126.111 Y105.526 E1.2386
G1 X126.378 Y105.738 E1.24427
G1 X126.501 Y105.856 E1.24711
G1 X126.745 Y106.146 E1.25341
G1 X126.924 Y106.48 E1.25971
G1 X127.028 Y106.844 E1.26601
G1 X127.055 Y107.138 E1.27092
G1 X127.068 Y108.497 E1.29352
G1 X127.292 Y108.769 E1.29938
G1 X127.465 Y109.106 E1.30568
G1 X127.577 Y109.563 E1.3135
G1 X127.604 Y109.81 E1.31764
G1 X127.614 Y110.05 E1.32163
G1 X127.611 Y110.173 E1.32368
G1 X127.61 Y110.212 E1.32433
G1 X127.57 Y111.075 E1.33869
G1 X127.533 Y112.455 E1.36165
G1 X127.547 Y112.469 E1.36198
G1 X127.755 Y112.786 E1.36829
G1 X127.892 Y113.139 E1.37458
G1 X127.954 Y113.623 E1.3827
G1 X127.937 Y115.769 E1.41839
G1 X127.937 Y115.778 E1.41854
G1 X127.91 Y117.889 E1.45364
G1 X127.865 Y118.265 E1.45994
G1 X127.743 Y118.624 E1.46625
G1 X127.548 Y118.949 E1.47255
G1 X127.289 Y119.226 E1.47886
G1 X126.978 Y119.443 E1.48516
G1 X126.629 Y119.59 E1.49146
G1 X126.257 Y119.66 E1.49776
G1 X125.878 Y119.651 E1.50406
G1 X125.509 Y119.563 E1.51037
G1 X125.224 Y119.433 E1.51558
G1 X123.727 Y118.587 E1.54417
G1 X123.53 Y118.702 E1.54797
G1 X123.289 Y118.862 E1.55278
G1 X122.997 Y119.036 E1.55843
G1 X122.505 Y119.38 E1.56842
G1 X122.365 Y119.468 E1.57117
G1 X122.249 Y119.534 E1.57338
G1 X122.048 Y119.662 E1.57735
G1 X121.867 Y119.771 E1.58086
G1 X121.572 Y119.988 E1.58695
G1 X121.425 Y120.085 E1.58988
G1 X120.643 Y120.55 E1.60501
G1 X120.427 Y120.722 E1.6096
G1 X120.279 Y120.827 E1.61262
G1 X119.088 Y121.592 E1.63616
G1 X119.053 Y121.614 E1.63685
G1 X118.62 Y121.878 E1.64528
G1 X117.357 Y122.696 E1.67031
G1 X117.322 Y122.734 E1.67116
G1 X117.083 Y122.912 E1.67612
G1 X116.327 Y123.381 E1.69092
G1 X115.996 Y123.541 E1.69703
G1 X115.905 Y123.574 E1.69864
G1 X115.354 Y124.015 E1.71038
G1 X115.198 Y124.126 E1.71356
G1 X113.651 Y125.113 E1.74408
G1 X113.422 Y125.237 E1.74841
G1 X113.172 Y125.35 E1.75297
G1 X110.764 Y126.588 E1.798
G1 X110.633 Y126.639 E1.80034
G1 X109.76 Y127.141 E1.81708
G1 X109.784 Y127.271 E1.81928
G1 X109.773 Y127.649 E1.82557
G1 X109.684 Y128.018 E1.83188
G1 X109.519 Y128.359 E1.83818
G1 X109.287 Y128.658 E1.84448
G1 X109.108 Y128.821 E1.8485
G1 X108.082 Y129.635 E1.87028
G1 X107.921 Y129.749 E1.87356
G1 X107.576 Y129.966 E1.88034
G1 X107.37 Y130.077 E1.88423
G1 X106.607 Y130.428 E1.8982
G1 X106.584 Y130.556 E1.90036
G1 X106.441 Y130.907 E1.90666
G1 X106.134 Y131.322 E1.91525
G1 X106.025 Y131.432 E1.91782
G1 X106.065 Y131.632 E1.92122
G1 X106.059 Y132.011 E1.92752
G1 X105.974 Y132.381 E1.93383
G1 X105.814 Y132.724 E1.94013
G1 X105.691 Y132.902 E1.94373
G1 X105.234 Y133.488 E1.95608
G1 X104.971 Y133.761 E1.96239
G1 X104.657 Y133.972 E1.96868
G1 X104.305 Y134.113 E1.97499
G1 X104.069 Y134.163 E1.979
G1 X102.607 Y134.371 E2.00356
G1 X102.037 Y135.085 E2.01875
G1 X101.771 Y135.355 E2.02505
G1 X101.454 Y135.563 E2.03136
G1 X101.101 Y135.7 E2.03765
G1 X100.631 Y135.762 E2.04554
G1 X99.001 Y135.762 E2.07265
G1 X98.624 Y135.722 E2.07895
G1 X98.264 Y135.604 E2.08525
G1 X97.937 Y135.414 E2.09154
G1 X97.568 Y135.051 E2.10015
G1 X97.02 Y134.33 E2.11521
G1 X96.941 Y134.336 E2.11653
G1 X96.4 Y134.292 E2.12555
G1 X95.915 Y134.177 E2.13384
G1 X95.602 Y134.127 E2.13911
G1 X95.236 Y134.028 E2.14542
G1 X94.899 Y133.855 E2.15172
G1 X94.611 Y133.619 E2.15791
G1 X94.096 Y133.101 E2.17006
G1 X93.858 Y132.806 E2.17636
G1 X93.688 Y132.467 E2.18267
G1 X93.592 Y132.101 E2.18896
G1 X93.575 Y131.722 E2.19527
G1 X93.621 Y131.416 E2.20041
G1 X93.526 Y131.318 E2.20268
G1 X93.293 Y131.019 E2.20899
G1 X93.127 Y130.679 E2.21528
G1 X93.089 Y130.496 E2.21839
G1 X92.231 Y130.098 E2.23412
G1 X91.943 Y129.931 E2.23965
G1 X91.668 Y129.735 E2.24527
G1 X91.652 Y129.723 E2.2456
G1 X91.013 Y129.256 E2.25876
G1 X90.714 Y129.06 E2.26471
G1 X90.55 Y128.939 E2.2681
G1 X90.532 Y128.924 E2.26849
G1 X90.268 Y128.652 E2.27479
G1 X90.067 Y128.331 E2.28109
G1 X89.937 Y127.975 E2.28739
G1 X89.885 Y127.599 E2.29371
G1 X89.913 Y127.221 E2.30001
G1 X89.933 Y127.162 E2.30105
G1 X89.187 Y126.729 E2.31539
G1 X89.002 Y126.65 E2.31874
G1 X88.77 Y126.536 E2.32303
G1 X87.913 Y126.084 E2.33915
G1 X85.978 Y125.102 E2.37523
G1 X85.712 Y124.923 E2.38056
G1 X85.481 Y124.737 E2.3855
G1 X84.863 Y124.384 E2.39733
G1 X84.68 Y124.265 E2.40096
G1 X84.481 Y124.117 E2.40509
G1 X82.578 Y122.914 E2.44253
G1 X82.386 Y122.761 E2.44661
G1 X81.769 Y122.348 E2.45896
G1 X80.826 Y121.757 E2.47747
G1 X79.425 Y120.847 E2.50525
G1 X79.406 Y120.834 E2.50563
G1 X78.676 Y120.347 E2.52022
G1 X78.558 Y120.264 E2.52262
G1 X78.29 Y120.116 E2.52771
G1 X78.105 Y119.998 E2.53136
G1 X77.777 Y119.76 E2.5381
G1 X77.599 Y119.655 E2.54154
G1 X77.479 Y119.577 E2.54392
G1 X77.445 Y119.553 E2.54461
G1 X77.339 Y119.494 E2.54663
G1 X77.154 Y119.376 E2.55028
G1 X76.807 Y119.123 E2.55742
G1 X76.292 Y118.812 E2.56742
G1 X76.156 Y118.721 E2.57015
G1 X76.019 Y118.621 E2.57297
G1 X75.737 Y118.804 E2.57856
G1 X75.399 Y118.976 E2.58486
G1 X75.033 Y119.073 E2.59116
G1 X74.655 Y119.091 E2.59745
G1 X74.281 Y119.03 E2.60376
G1 X73.938 Y118.897 E2.60987
G1 X72.665 Y118.247 E2.63364
G1 X72.348 Y118.04 E2.63994
G1 X72.081 Y117.771 E2.64624
G1 X71.876 Y117.453 E2.65254
G1 X71.742 Y117.098 E2.65885
G1 X71.684 Y116.648 E2.66639
G1 X71.682 Y115.866 E2.6794
G1 X71.639 Y113.601 E2.71707
G1 X71.672 Y113.224 E2.72336
G1 X71.783 Y112.861 E2.72968
G1 X71.968 Y112.53 E2.73598
G1 X72.109 Y112.369 E2.73954
G1 X72.102 Y111.458 E2.75469
G1 X72.094 Y111.355 E2.75641
G1 X72.074 Y110.482 E2.77093
G1 X72.066 Y110.368 E2.77283
G1 X72.062 Y110.215 E2.77538
G1 X72.069 Y109.767 E2.78283
G1 X72.115 Y109.391 E2.78913
G1 X72.239 Y109.032 E2.79544
G1 X72.434 Y108.708 E2.80173
G1 X72.602 Y108.542 E2.80566
G1 X72.612 Y107.134 E2.82908
G1 X72.655 Y106.757 E2.83539
G1 X72.775 Y106.398 E2.84168
G1 X72.968 Y106.072 E2.84798
G1 X73.185 Y105.83 E2.85339
G1 X73.301 Y105.722 E2.85602
G1 X73.604 Y105.494 E2.86233
G1 X73.948 Y105.335 E2.86863
G1 X74.318 Y105.251 E2.87494
G1 X74.636 Y105.242 E2.88023
G1 X75.321 Y105.283 E2.89164
G1 X75.694 Y105.346 E2.89793
G1 X76.047 Y105.485 E2.90424
G1 X76.362 Y105.695 E2.91054
G1 X76.576 Y105.904 E2.91551
G1 X76.739 Y106.092 E2.91965
G1 X76.797 Y105.976 E2.92181
G1 X77.035 Y105.681 E2.92811
G1 X77.329 Y105.443 E2.9344
G1 X77.667 Y105.271 E2.94071
G1 X78.138 Y105.16 E2.94876
G1 X78.971 Y105.08 E2.96267
G1 X79.138 Y105.072 E2.96545
G1 X80.308 Y105.069 E2.98491
G1 X80.685 Y105.108 E2.99121
G1 X81.046 Y105.225 E2.99752
G1 X81.374 Y105.415 E3.00383
G1 X81.655 Y105.669 E3.01013
G1 X81.808 Y105.882 E3.01449
G1 X82.286 Y105.924 E3.02247
G1 X83.006 Y105.878 E3.03447
G1 X83.384 Y105.893 E3.04076
G1 X83.751 Y105.988 E3.04706
G1 X84.09 Y106.157 E3.05336
G1 X84.283 Y106.302 E3.05738
G1 X84.506 Y106.087 E3.06253
G1 X84.806 Y105.898 E3.06842
G1 X84.87 Y105.866 E3.06961
G1 X85.225 Y105.733 E3.07592
G1 X85.64 Y105.676 E3.08288
G1 X85.897 Y105.671 E3.08716
G1 X86.275 Y105.704 E3.09347
G1 X86.688 Y105.837 E3.10068
G1 X86.768 Y105.874 E3.10215
G1 X87.093 Y106.069 E3.10845
G1 X87.36 Y106.315 E3.11449
G1 X87.527 Y106.503 E3.11867
G1 X87.999 Y105.617 E3.13537
G1 X88.113 Y105.268 E3.14147
G1 X88.352 Y104.791 E3.15035
G1 X88.503 Y104.577 E3.1547
G1 X88.753 Y104.292 E3.16101
G1 X89.005 Y104.098 E3.16629
G1 X89.229 Y103.955 E3.17071
G1 X89.569 Y103.786 E3.17703
G1 X89.91 Y103.695 E3.1829
G1 X90.021 Y103.677 E3.18477
G1 X90.285 Y103.654 E3.18917
G1 X90.513 Y103.651 E3.19297
G1 X90.891 Y103.686 E3.19928
G1 X91.274 Y103.809 E3.20597
G1 X91.517 Y103.918 E3.2104
G1 X91.844 Y104.108 E3.21669
G1 X92.019 Y104.255 E3.22049
G1 X92.098 Y104.33 E3.2223
G1 X92.277 Y104.526 E3.22671
G1 X92.406 Y104.691 E3.2302
G1 X92.66 Y105.133 E3.23868
G1 X92.905 Y105.748 E3.24968
G1 X93.272 Y106.407 E3.26223
G1 X93.512 Y106.407 E3.26622
G1 X93.863 Y105.713 E3.27915
G1 X93.874 Y105.693 E3.27953
G1 X94.152 Y105.158 E3.28956
G1 X94.188 Y103.589 E3.31566
G1 X94.186 Y103.015 E3.3252
G1 X94.186 Y102.999 E3.32547
G1 X94.194 Y101.531 E3.34988
G1 X94.179 Y100.477 E3.36741
G1 X94.144 Y100.36 E3.36944
G1 X94.067 Y99.877 E3.37758
G1 X93.998 Y96.711 E3.43024
G1 X93.975 Y96.245 E3.438
G1 X93.976 Y96.045 E3.44133
G1 X93.96 Y95.515 E3.45014
G1 X93.962 Y94.986 E3.45894
G1 X93.985 Y94.709 E3.46356
G1 X94.023 Y94.472 E3.46756
G1 X94.055 Y92.326 E3.50325
G1 X94.025 Y90.576 E3.53236
G1 X93.953 Y89.921 E3.54331
G1 X93.898 Y89.577 E3.54911
G1 X93.378 Y89.322 E3.55874
G1 X92.87 Y89.049 E3.56833
G1 X92.708 Y88.938 E3.57159
G1 X92.603 Y88.895 E3.57348
G1 X92.605 Y88.889 E3.57359
G1 X92.411 Y88.803 E3.57712
G1 X91.172 Y88.112 E3.60071
G1 X91.142 Y88.095 E3.60128
G1 X90.801 Y87.896 E3.60785
G1 X90.589 Y87.751 E3.61212
G1 X90.342 Y87.555 E3.61736
G1 X90.136 Y87.364 E3.62203
G1 X89.986 Y87.201 E3.62572
G1 X89.774 Y86.918 E3.6316
G1 X89.639 Y86.695 E3.63593
G1 X89.401 Y86.278 E3.64392
G1 X89.249 Y85.931 E3.65022
G1 X89.172 Y85.56 E3.65652
G1 X89.167 Y85.282 E3.66114
G1 X89.18 Y85.107 E3.66406
G1 X89.363 Y83.546 E3.6902
G1 X89.443 Y83.187 E3.69632
G1 X89.483 Y83.067 E3.69842
G1 X89.64 Y82.722 E3.70472
G0 X90.006 Y82.891
G1 X90.216 Y82.632 E3.71027
G1 X90.481 Y82.429 E3.71582
G1 X90.788 Y82.295 E3.72139
G1 X90.974 Y82.253 E3.72456
G1 X91.216 Y82.215 E3.72863
G1 X91.55 Y82.203 E3.73419
G1 X91.877 Y82.27 E3.73974
G1 X92.179 Y82.413 E3.7453
G1 X92.32 Y82.527 E3.74832
G1 X93.943 Y82.579 E3.77532
G1 X95.14 Y82.579 E3.79523
G1 X95.51 Y81.502 E3.81416
G1 X95.656 Y81.201 E3.81973
G1 X95.935 Y80.884 E3.82675
G1 X96.021 Y80.812 E3.82862
G1 X96.301 Y80.629 E3.83418
G1 X96.616 Y80.518 E3.83973
G1 X97.002 Y80.487 E3.84617
G1 X97.259 Y80.502 E3.85045
G1 X97.587 Y80.561 E3.856
G1 X97.941 Y80.727 E3.8625
G1 X98.007 Y80.77 E3.86381
G1 X98.263 Y80.984 E3.86936
G1 X98.451 Y81.235 E3.87457
G1 X98.495 Y81.311 E3.87603
G1 X98.922 Y81.43 E3.8834
G1 X99.094 Y81.43 E3.88627
G1 X99.351 Y81.438 E3.89054
G1 X99.708 Y81.418 E3.89649
G1 X99.851 Y81.417 E3.89887
G1 X100.292 Y81.437 E3.90621
G1 X100.745 Y81.432 E3.91374
G1 X101.121 Y81.401 E3.92001
G1 X101.216 Y81.238 E3.92315
G1 X101.417 Y80.971 E3.92871
G1 X101.676 Y80.76 E3.93427
G1 X102.027 Y80.6 E3.94068
G1 X102.229 Y80.54 E3.94419
G1 X102.702 Y80.484 E3.95211
G1 X102.815 Y80.49 E3.95399
G1 X103.144 Y80.547 E3.95954
G1 X103.544 Y80.741 E3.96693
G1 X103.634 Y80.804 E3.96876
G1 X103.883 Y81.027 E3.97432
G1 X104.115 Y81.393 E3.98153
G1 X104.165 Y81.508 E3.98361
G1 X104.231 Y81.696 E3.98692
G1 X104.449 Y82.489 E4.0006
