;FLAVOR:Marlin
;TIME:3661
;Filament used: 0.900325m
;Layer height: 0.1
;MINX:64.861
;MINY:92.371
;MINZ:0.1
;MAXX:121.408
;MAXY:146.779
;MAXZ:8.3
;Generated with Cura_SteamEngine 4.6.0
M140 S75
M105
M190 S75
M104 S195
M105
M109 S195
M82 ;absolute extrusion mode
G28 ;Home
G1 Z15.0 F6000 ;Move the platform
G92 E0
G1 F200 E3
G92 E0


G0 X0 Y15 F9000 ; Go to front
G0 Z0.15 ; Drop to bed
G92 E0 ; zero the extruded length
G1 X40 E25 F500 ; Extrude 25mm of filament in a 4cm line
G92 E0 ; zero the extruded length
G1 E-1 F500 ; Retract a little
G1 X80 F4000 ; Quickly wipe away from the filament line
G1 Z0.3 ; Raise and begin printing.
G92 E0
G92 E0
G1 F1500 E-6
;LAYER_COUNT:83
;LAYER:0
M107
M204 S1000
G0 F2400 X82.509 Y94.923 Z0.1
;TYPE:SKIRT
G1 F1500 E0
G1 F2400 X82.789 Y94.668 E0.0063
G1 X83.116 Y94.476 E0.0126
G1 X83.418 Y94.371 E0.01792
G1 X83.669 Y94.308 E0.02222
G1 X84.044 Y94.255 E0.02852
G1 X84.422 Y94.282 E0.03483
G1 X84.786 Y94.387 E0.04113
G1 X85.12 Y94.566 E0.04743
G1 X85.149 Y94.591 E0.04806
G1 X87.625 Y94.509 E0.08926
G1 X87.727 Y94.094 E0.09637
G1 X87.934 Y93.594 E0.10537
G1 X88.039 Y93.42 E0.10875
G1 X88.268 Y93.118 E0.11505
G1 X88.555 Y92.871 E0.12135
G1 X89.051 Y92.63 E0.13052
G1 X89.155 Y92.598 E0.13233
G1 X89.527 Y92.525 E0.13863
G1 X89.905 Y92.532 E0.14492
G1 X90.262 Y92.613 E0.15101
G1 X90.442 Y92.674 E0.15417
G1 X90.786 Y92.833 E0.16047
G1 X91.215 Y93.189 E0.16974
G1 X91.338 Y93.328 E0.17283
G1 X91.6 Y93.349 E0.1772
G1 X92.183 Y93.347 E0.1869
G1 X92.318 Y93.322 E0.18918
G1 X92.459 Y93.298 E0.19156
G1 X92.554 Y93.168 E0.19423
G1 X92.809 Y92.888 E0.20053
G1 X93.117 Y92.667 E0.20684
G1 X93.379 Y92.544 E0.21165
G1 X93.551 Y92.48 E0.2147
G1 X93.918 Y92.386 E0.221
G1 X94.297 Y92.371 E0.22731
G1 X94.518 Y92.399 E0.23101
G1 X94.643 Y92.423 E0.23313
G1 X95.006 Y92.534 E0.23944
G1 X95.337 Y92.717 E0.24573
G1 X95.623 Y92.966 E0.25204
G1 X95.747 Y93.116 E0.25528
G1 X95.858 Y93.265 E0.25837
G1 X96.052 Y93.591 E0.26468
G1 X96.131 Y93.796 E0.26833
G1 X96.288 Y94.292 E0.27698
G1 X98.863 Y94.08 E0.31995
G1 X98.879 Y94.07 E0.32026
G1 X99.216 Y93.897 E0.32656
G1 X99.582 Y93.798 E0.33287
G1 X99.96 Y93.779 E0.33916
G1 X100.209 Y93.809 E0.34333
G1 X100.47 Y93.86 E0.34775
G1 X100.832 Y93.972 E0.35406
G1 X101.163 Y94.157 E0.36036
G1 X101.448 Y94.407 E0.36667
G1 X101.674 Y94.711 E0.37297
G1 X101.832 Y95.055 E0.37926
G1 X101.887 Y95.257 E0.38274
G1 X101.985 Y95.724 E0.39068
G1 X101.992 Y95.76 E0.39129
G1 X102.226 Y97.001 E0.41229
G1 X102.256 Y97.379 E0.4186
G1 X102.207 Y97.755 E0.4249
G1 X101.995 Y98.27 E0.43416
G1 X101.669 Y98.806 E0.4446
G1 X101.509 Y99.029 E0.44916
G1 X101.304 Y99.273 E0.45446
G1 X100.94 Y99.602 E0.46262
G1 X100.767 Y99.72 E0.4661
G1 X100.738 Y99.74 E0.46669
G1 X99.588 Y100.486 E0.48948
G1 X99.455 Y100.56 E0.49202
G1 X99.24 Y100.705 E0.49633
G1 X98.949 Y100.871 E0.5019
G1 X97.773 Y101.627 E0.52515
G1 X97.69 Y102.502 E0.53977
G1 X97.625 Y103.605 E0.55814
G1 X97.644 Y103.656 E0.55905
G1 X97.756 Y104.171 E0.56781
G1 X97.964 Y107.231 E0.61882
G1 X98.033 Y107.575 E0.62465
G1 X98.066 Y107.838 E0.62906
G1 X98.095 Y108.467 E0.63953
G1 X98.095 Y108.979 E0.64804
G1 X98.154 Y110.996 E0.6816
G1 X98.126 Y111.371 E0.68785
G1 X98.092 Y111.557 E0.691
G1 X98.184 Y113.412 E0.72189
G1 X98.19 Y113.575 E0.7246
G1 X98.182 Y113.816 E0.72861
G1 X98.159 Y114.048 E0.73249
G1 X98.322 Y115.792 E0.76161
G1 X98.324 Y115.81 E0.76192
G1 X98.44 Y117.194 E0.78501
G1 X98.826 Y118.038 E0.80045
G1 X99.062 Y118.42 E0.80791
G1 X99.128 Y118.539 E0.81018
G1 X100.237 Y119.841 E0.83862
G1 X100.997 Y120.025 E0.85162
G1 X101.165 Y120.066 E0.8545
G1 X101.569 Y120.218 E0.86168
G1 X101.749 Y120.312 E0.86505
G1 X102.107 Y120.451 E0.87144
G1 X102.335 Y120.521 E0.87541
G1 X102.601 Y120.623 E0.88015
G1 X102.772 Y120.673 E0.88311
G1 X103.058 Y120.784 E0.88821
G1 X103.075 Y120.788 E0.8885
G1 X103.294 Y120.854 E0.8923
G1 X103.539 Y120.944 E0.89664
G1 X104.464 Y121.136 E0.91236
G1 X104.54 Y121.11 E0.91369
G1 X104.942 Y121.065 E0.92042
G1 X104.989 Y121.065 E0.9212
G1 X105.166 Y121.074 E0.92415
G1 X105.368 Y121.094 E0.92752
G1 X105.739 Y121.171 E0.93382
G1 X106.086 Y121.323 E0.94012
G1 X106.281 Y121.453 E0.94402
G1 X106.363 Y121.515 E0.94573
G1 X106.7 Y121.429 E0.95151
G1 X106.936 Y121.394 E0.95548
G1 X107.143 Y121.32 E0.95914
G1 X107.513 Y121.23 E0.96547
G1 X107.71 Y121.204 E0.96878
G1 X107.859 Y121.148 E0.97142
G1 X108.26 Y121.048 E0.9783
G1 X108.462 Y121.022 E0.98168
G1 X108.657 Y120.952 E0.98513
G1 X108.988 Y120.868 E0.99081
G1 X109.241 Y120.829 E0.99506
G1 X109.465 Y120.751 E0.99901
G1 X109.797 Y120.67 E1.00469
G1 X110.015 Y120.638 E1.00836
G1 X110.19 Y120.574 E1.01145
G1 X110.546 Y120.483 E1.01757
G1 X110.792 Y120.447 E1.0217
G1 X111.018 Y120.368 E1.02568
G1 X111.363 Y120.285 E1.03158
G1 X111.562 Y120.257 E1.03492
G1 X111.732 Y120.194 E1.03794
G1 X112.116 Y120.098 E1.04452
G1 X112.322 Y120.07 E1.04798
G1 X112.501 Y120.003 E1.05116
G1 X112.874 Y119.908 E1.05756
G1 X113.066 Y119.88 E1.06079
G1 X113.281 Y119.804 E1.06458
G1 X113.634 Y119.717 E1.07062
G1 X113.875 Y119.683 E1.07467
G1 X114.058 Y119.619 E1.0779
G1 X114.402 Y119.535 E1.08378
G1 X114.583 Y119.509 E1.08683
G1 X114.919 Y119.387 E1.09277
G1 X114.388 Y117.266 E1.12913
G1 X114.335 Y116.891 E1.13543
G1 X114.362 Y116.513 E1.14173
G1 X114.467 Y116.149 E1.14803
G1 X114.647 Y115.815 E1.15434
G1 X114.892 Y115.526 E1.16064
G1 X115.192 Y115.295 E1.16694
G1 X115.534 Y115.132 E1.17324
G1 X115.937 Y115.04 E1.18011
G1 X119.246 Y114.675 E1.23548
G1 X119.625 Y114.673 E1.24178
G1 X119.995 Y114.751 E1.24807
G1 X120.342 Y114.905 E1.25438
G1 X120.648 Y115.127 E1.26067
G1 X120.902 Y115.409 E1.26698
G1 X121.09 Y115.738 E1.27328
G1 X121.206 Y116.099 E1.27959
G1 X121.24 Y116.364 E1.28403
G1 X121.408 Y119.383 E1.33431
G1 X121.389 Y119.761 E1.34061
G1 X121.292 Y120.128 E1.34692
G1 X121.119 Y120.465 E1.35322
G1 X120.88 Y120.759 E1.35952
G1 X120.747 Y120.866 E1.36236
G1 X120.79 Y121.798 E1.37788
G1 X120.784 Y122.309 E1.38637
G1 X120.815 Y123.003 E1.39793
G1 X121.028 Y123.304 E1.40406
G1 X121.178 Y123.653 E1.41038
G1 X121.256 Y124.094 E1.41782
G1 X121.339 Y125.752 E1.44543
G1 X121.34 Y125.771 E1.44575
G1 X121.404 Y127.388 E1.47266
G1 X121.379 Y127.766 E1.47896
G1 X121.275 Y128.13 E1.48525
G1 X121.097 Y128.465 E1.49156
G1 X120.854 Y128.755 E1.49786
G1 X120.541 Y128.997 E1.50443
G1 X119.437 Y129.669 E1.52593
G1 X119.094 Y129.83 E1.53223
G1 X118.725 Y129.917 E1.53853
G1 X118.346 Y129.924 E1.54484
G1 X117.974 Y129.852 E1.55114
G1 X117.637 Y129.71 E1.55722
G1 X117.311 Y129.532 E1.5634
G1 X117.019 Y129.771 E1.56967
G1 X116.896 Y129.863 E1.57223
G1 X116.42 Y130.189 E1.58182
G1 X116.01 Y130.521 E1.59059
G1 X115.881 Y130.616 E1.59326
G1 X115.4 Y130.94 E1.6029
G1 X114.835 Y131.376 E1.61477
G1 X114.661 Y131.496 E1.61829
G1 X113.07 Y132.701 E1.65148
G1 X112.255 Y133.243 E1.66775
G1 X111.861 Y133.568 E1.67625
G1 X111.666 Y133.75 E1.68068
G1 X111.449 Y133.923 E1.6853
G1 X110.091 Y134.845 E1.7126
G1 X109.814 Y135.077 E1.71861
G1 X109.679 Y135.179 E1.72142
G1 X109.032 Y135.624 E1.73448
G1 X108.799 Y135.817 E1.73951
G1 X108.644 Y135.931 E1.74271
G1 X107.992 Y136.363 E1.75572
G1 X107.733 Y136.59 E1.76144
G1 X107.395 Y136.824 E1.76828
G1 X106.982 Y137.045 E1.77607
G1 X105.715 Y137.79 E1.80051
G1 X105.539 Y137.88 E1.8038
G1 X104.774 Y138.357 E1.81879
G1 X104.598 Y138.454 E1.82213
G1 X104.361 Y138.571 E1.82653
G1 X103.845 Y138.907 E1.83677
G1 X103.654 Y139.048 E1.84072
G1 X103.505 Y139.147 E1.84369
G1 X102.982 Y139.458 E1.85381
G1 X102.84 Y139.531 E1.85647
G1 X101.799 Y140.224 E1.87726
G1 X101.547 Y140.444 E1.88283
G1 X101.216 Y140.628 E1.88913
G1 X100.907 Y140.727 E1.89452
G1 X100.746 Y140.763 E1.89726
G1 X100.83 Y140.9 E1.89994
G1 X100.955 Y141.258 E1.90624
G1 X101.003 Y141.676 E1.91324
G1 X101.002 Y142.075 E1.91988
G1 X100.961 Y142.451 E1.92617
G1 X100.842 Y142.811 E1.93247
G1 X100.548 Y143.265 E1.94147
G1 X100.515 Y143.303 E1.9423
G1 X100.563 Y143.453 E1.94492
G1 X100.602 Y143.83 E1.95123
G1 X100.561 Y144.207 E1.95753
G1 X100.442 Y144.566 E1.96382
G1 X100.207 Y144.95 E1.97131
G1 X99.658 Y145.635 E1.98591
G1 X99.391 Y145.904 E1.99221
G1 X99.074 Y146.111 E1.99851
G1 X98.69 Y146.255 E2.00533
G1 X97.819 Y146.473 E2.02026
G1 X97.382 Y146.527 E2.02758
G1 X96.3 Y146.527 E2.04557
G1 X95.923 Y146.487 E2.05188
G1 X95.719 Y146.42 E2.05545
G1 X95.694 Y146.42 E2.05587
G1 X95.317 Y146.38 E2.06217
G1 X94.957 Y146.262 E2.06847
G1 X94.63 Y146.072 E2.07476
G1 X94.308 Y145.769 E2.08211
G1 X93.829 Y145.191 E2.0946
G1 X93.477 Y145.671 E2.1045
G1 X93.222 Y145.952 E2.11081
G1 X92.913 Y146.172 E2.11711
G1 X92.715 Y146.269 E2.12078
G1 X92.068 Y146.537 E2.13243
G1 X91.584 Y146.662 E2.14074
G1 X90.598 Y146.775 E2.15724
G1 X90.219 Y146.779 E2.16355
G1 X89.98 Y146.739 E2.16758
G1 X89.715 Y146.677 E2.1721
G1 X89.165 Y146.614 E2.18131
G1 X88.796 Y146.532 E2.1876
G1 X88.451 Y146.374 E2.19391
G1 X88.061 Y146.062 E2.20221
G1 X87.427 Y145.391 E2.21756
G1 X87.197 Y145.09 E2.22386
G1 X87.035 Y144.747 E2.23017
G1 X86.949 Y144.378 E2.23647
G1 X86.942 Y143.999 E2.24278
G1 X86.998 Y143.758 E2.24689
G1 X86.98 Y143.741 E2.2473
G1 X86.737 Y143.45 E2.25361
G1 X86.559 Y143.116 E2.2599
G1 X86.499 Y142.867 E2.26416
G1 X85.738 Y142.523 E2.27805
G1 X85.494 Y142.389 E2.28268
G1 X84.005 Y141.415 E2.31227
G1 X83.711 Y141.176 E2.31857
G1 X83.474 Y140.88 E2.32488
G1 X83.305 Y140.541 E2.33117
G1 X83.21 Y140.174 E2.33748
G1 X83.194 Y139.796 E2.34377
G1 X83.231 Y139.578 E2.34745
G1 X82.504 Y139.173 E2.36129
G1 X82.259 Y139.026 E2.36604
G1 X81.449 Y138.664 E2.38079
G1 X79.727 Y137.859 E2.41241
G1 X79.599 Y137.793 E2.4148
G1 X79.307 Y137.627 E2.42039
G1 X79.149 Y137.525 E2.42351
G1 X78.898 Y137.345 E2.42865
G1 X78.278 Y136.982 E2.4406
G1 X78.143 Y136.895 E2.44327
G1 X77.864 Y136.696 E2.44897
G1 X77.8 Y136.732 E2.45019
G1 X77.438 Y136.844 E2.45649
G1 X77.061 Y136.878 E2.46279
G1 X76.539 Y136.792 E2.47158
G1 X74.638 Y136.181 E2.50479
G1 X74.292 Y136.027 E2.51109
G1 X73.985 Y135.805 E2.51739
G1 X73.731 Y135.523 E2.5237
G1 X73.543 Y135.195 E2.52999
G1 X73.403 Y134.692 E2.53867
G1 X73.302 Y133.886 E2.55218
G1 X71.803 Y132.904 E2.58198
G1 X71.329 Y132.66 E2.59085
G1 X71.117 Y132.532 E2.59496
G1 X70.213 Y131.897 E2.61334
G1 X69.686 Y131.594 E2.62345
G1 X69.544 Y131.503 E2.62625
G1 X69.27 Y131.309 E2.63183
G1 X68.956 Y131.517 E2.6381
G1 X68.62 Y131.692 E2.6444
G1 X68.254 Y131.793 E2.65071
G1 X67.876 Y131.815 E2.65701
G1 X67.502 Y131.757 E2.6633
G1 X67.156 Y131.627 E2.66945
G1 X65.954 Y131.026 E2.6918
G1 X65.635 Y130.822 E2.69809
G1 X65.365 Y130.555 E2.70441
G1 X65.158 Y130.238 E2.71071
G1 X65.021 Y129.885 E2.717
G1 X64.96 Y129.478 E2.72385
G1 X64.932 Y128.66 E2.73746
G1 X64.932 Y128.651 E2.73761
G1 X64.861 Y126.231 E2.77787
G1 X64.89 Y125.853 E2.78417
G1 X64.997 Y125.489 E2.79048
G1 X65.178 Y125.157 E2.79677
G1 X65.3 Y125.015 E2.79989
G1 X65.205 Y123.823 E2.81977
G1 X65.192 Y123.252 E2.82927
G1 X65.169 Y122.859 E2.83582
G1 X65.166 Y122.601 E2.84011
G1 X65.207 Y122.196 E2.84688
G1 X65.231 Y122.086 E2.84875
G1 X65.351 Y121.727 E2.85504
G1 X65.543 Y121.4 E2.86135
G1 X65.687 Y121.257 E2.86473
G1 X65.675 Y119.885 E2.88754
G1 X65.712 Y119.508 E2.89384
G1 X65.826 Y119.147 E2.90014
G1 X66.014 Y118.818 E2.90644
G1 X66.218 Y118.581 E2.91164
G1 X66.341 Y118.461 E2.9145
G1 X66.639 Y118.226 E2.92081
G1 X66.979 Y118.059 E2.92711
G1 X67.346 Y117.967 E2.9334
G1 X67.681 Y117.951 E2.93898
G1 X68.372 Y117.983 E2.95048
G1 X68.747 Y118.04 E2.95679
G1 X69.101 Y118.175 E2.96309
G1 X69.419 Y118.38 E2.96938
G1 X69.637 Y118.588 E2.97439
G1 X69.745 Y118.71 E2.9771
G1 X69.965 Y119.018 E2.9834
G1 X70.115 Y119.366 E2.9897
G1 X70.189 Y119.738 E2.99601
G1 X70.196 Y119.963 E2.99975
G1 X70.188 Y120.194 E3.00359
G1 X70.185 Y120.578 E3.00998
G1 X70.19 Y120.929 E3.01582
G1 X70.586 Y120.959 E3.02242
G1 X70.931 Y121.02 E3.02825
G1 X71.164 Y121.085 E3.03227
G1 X71.359 Y121.101 E3.03553
G1 X71.687 Y121.159 E3.04106
G1 X71.878 Y121.211 E3.04436
G1 X72.102 Y121.222 E3.04809
G1 X72.504 Y121.287 E3.05486
G1 X72.743 Y121.354 E3.05899
G1 X72.962 Y121.368 E3.06264
G1 X73.342 Y121.433 E3.06905
G1 X73.466 Y121.468 E3.07119
G1 X73.647 Y121.48 E3.07421
G1 X74.026 Y121.545 E3.0806
G1 X74.285 Y121.619 E3.08508
G1 X74.527 Y121.636 E3.08911
G1 X74.897 Y121.702 E3.09536
G1 X75.079 Y121.754 E3.09851
G1 X75.285 Y121.764 E3.10194
G1 X75.674 Y121.826 E3.10849
G1 X75.783 Y121.856 E3.11037
G1 X76.028 Y121.874 E3.11446
G1 X76.365 Y121.931 E3.12014
G1 X76.574 Y121.988 E3.12375
G1 X76.79 Y122.003 E3.12735
G1 X77.158 Y122.068 E3.13356
G1 X77.384 Y122.133 E3.13747
G1 X77.58 Y122.148 E3.14074
G1 X77.887 Y122.199 E3.14592
G1 X78.113 Y122.257 E3.1498
G1 X78.381 Y122.28 E3.15427
G1 X78.672 Y122.329 E3.15918
G1 X78.973 Y122.406 E3.16434
G1 X79.161 Y122.419 E3.16748
G1 X79.535 Y122.485 E3.17379
G1 X79.56 Y122.492 E3.17423
G1 X79.652 Y122.412 E3.17625
G1 X79.962 Y122.194 E3.18255
G1 X80.49 Y122.002 E3.1919
G1 X80.711 Y121.959 E3.19564
G1 X81.089 Y121.926 E3.20195
G1 X81.397 Y121.977 E3.20714
G1 X82.308 Y121.716 E3.2229
G1 X82.536 Y121.612 E3.22707
G1 X82.746 Y121.531 E3.23081
G1 X82.768 Y121.524 E3.2312
G1 X83.057 Y121.391 E3.23649
G1 X83.261 Y121.312 E3.24013
G1 X83.272 Y121.309 E3.24032
G1 X83.497 Y121.201 E3.24447
G1 X83.577 Y121.171 E3.24589
G1 X83.954 Y121.002 E3.25276
G1 X84.169 Y120.928 E3.25654
G1 X84.456 Y120.796 E3.26179
G1 X84.593 Y120.744 E3.26423
G1 X84.939 Y120.582 E3.27058
G1 X85.145 Y120.501 E3.27426
G1 X85.466 Y120.397 E3.27988
G1 X85.568 Y120.349 E3.28175
G1 X86.414 Y119.178 E3.30578
G1 X87.175 Y117.567 E3.3354
G1 X87.175 Y115.456 E3.37051
G1 X87.16 Y114.54 E3.38575
G1 X87.159 Y114.393 E3.38819
G1 X87.136 Y113.654 E3.40049
G1 X87.136 Y112.942 E3.41233
G1 X87.116 Y112.11 E3.42617
G1 X87.054 Y111.93 E3.42933
G1 X86.958 Y111.417 E3.43801
G1 X86.836 Y108.282 E3.49019
G1 X86.834 Y107.971 E3.49536
G1 X86.849 Y107.728 E3.49941
G1 X86.886 Y107.445 E3.50415
G1 X86.885 Y106.132 E3.52599
G1 X86.897 Y105.915 E3.5296
G1 X86.869 Y104.529 E3.55266
G1 X86.902 Y104.151 E3.55897
G1 X86.992 Y103.856 E3.5641
G1 X86.671 Y102.013 E3.59521
G1 X86.173 Y101.751 E3.60457
G1 X86.01 Y101.661 E3.60766
G1 X85.185 Y101.235 E3.6231
G1 X84.948 Y101.099 E3.62765
G1 X84.599 Y100.93 E3.6341
G1 X83.712 Y100.45 E3.65087
G1 X83.715 Y100.444 E3.65098
G1 X83.633 Y100.405 E3.65249
G1 X83.326 Y100.218 E3.65847
G1 X82.941 Y99.904 E3.66673
G1 X82.705 Y99.649 E3.67251
G1 X82.561 Y99.472 E3.6763
G1 X82.217 Y98.99 E3.68615
G1 X82.03 Y98.66 E3.69246
G1 X81.917 Y98.298 E3.69876
G1 X81.893 Y97.742 E3.70802
G1 X81.92 Y97.503 E3.71202
G1 X82.064 Y95.951 E3.73794
G1 X82.138 Y95.58 E3.74423
G1 X82.289 Y95.232 E3.75054
G1 X82.509 Y94.923 E3.75685
G0 X82.891 Y95.103
G1 X83.158 Y94.903 E3.7624
G1 X83.515 Y94.759 E3.7688
G1 X83.766 Y94.696 E3.7731
G1 X84.098 Y94.654 E3.77867
G1 X84.43 Y94.692 E3.78422
G1 X84.743 Y94.807 E3.78977
G1 X85.02 Y94.993 E3.79532
G1 X85.022 Y94.995 E3.79536
G1 X87.941 Y94.899 E3.84393
G1 X88.116 Y94.189 E3.85609
G1 X88.276 Y93.801 E3.86307
G1 X88.381 Y93.627 E3.86645
G1 X88.587 Y93.363 E3.87202
G1 X88.849 Y93.156 E3.87758
G1 X89.168 Y93.012 E3.8834
G1 X89.272 Y92.98 E3.88521
G1 X89.601 Y92.92 E3.89077
G1 X89.934 Y92.941 E3.89632
G1 X90.133 Y92.992 E3.89973
G1 X90.313 Y93.053 E3.90289
G1 X90.615 Y93.197 E3.90846
G1 X90.915 Y93.454 E3.91503
G1 X91.145 Y93.715 E3.92081
G1 X91.583 Y93.749 E3.92812
G1 X92.221 Y93.746 E3.93873
G1 X92.389 Y93.716 E3.94157
G1 X92.414 Y93.711 E3.94199
G1 X92.685 Y93.667 E3.94656
G1 X92.877 Y93.405 E3.95196
G1 X93.105 Y93.16 E3.95752
G1 X93.519 Y92.919 E3.96549
G1 X93.691 Y92.855 E3.96854
G1 X94.016 Y92.777 E3.9741
G1 X94.443 Y92.792 E3.9812
G1 X94.568 Y92.816 E3.98332
G1 X94.886 Y92.918 E3.98888
G1 X95.171 Y93.092 E3.99443
G1 X95.427 Y93.355 E4.00053
G1 X95.538 Y93.504 E4.00362
G1 X95.749 Y93.917 E4.01133
G1 X96.003 Y94.717 E4.02529
G1 X98.995 Y94.471 E4.07522
G1 X99.098 Y94.404 E4.07726
G1 X99.397 Y94.256 E4.08281
G1 X99.723 Y94.183 E4.08837
G1 X100.132 Y94.202 E4.09517
G1 X100.393 Y94.253 E4.0996
G1 X100.711 Y94.356 E4.10516
G1 X100.996 Y94.531 E4.11072
G1 X101.231 Y94.768 E4.11627
G1 X101.403 Y95.055 E4.12183
G1 X101.495 Y95.339 E4.1268
