;FLAVOR:Marlin
;TIME:837
;Filament used: 0.213705m
;Layer height: 0.1
;MINX:81.757
;MINY:102.71
;MINZ:0.1
;MAXX:108.242
;MAXY:136.8
;MAXZ:6.5
;Generated with Cura_SteamEngine 4.6.0
M140 S75
M105
M190 S75
M104 S195
M105
M109 S195
M82 ;absolute extrusion mode
G28 ;Home
G1 Z15.0 F6000 ;Move the platform
G92 E0
G1 F200 E3
G92 E0


G0 X0 Y15 F9000 ; Go to front
G0 Z0.15 ; Drop to bed
G92 E0 ; zero the extruded length
G1 X40 E25 F500 ; Extrude 25mm of filament in a 4cm line
G92 E0 ; zero the extruded length
G1 E-1 F500 ; Retract a little
G1 X80 F4000 ; Quickly wipe away from the filament line
G1 Z0.3 ; Raise and begin printing.
G92 E0
G92 E0
G1 F1500 E-6
;LAYER_COUNT:65
;LAYER:0
M107
M204 S1000
G0 F2400 X91.745 Y103.583 Z0.1
;TYPE:SKIRT
G1 F1500 E0
G1 F2400 X92 Y103.302 E0.00631
G1 X92.309 Y103.082 E0.01262
G1 X92.811 Y102.889 E0.02156
G1 X93.435 Y102.752 E0.03219
G1 X93.829 Y102.71 E0.03878
G1 X96.219 Y102.72 E0.07852
G1 X96.643 Y102.773 E0.08563
G1 X97.193 Y102.909 E0.09505
G1 X97.549 Y103.038 E0.10135
G1 X97.871 Y103.239 E0.10766
G1 X98.143 Y103.502 E0.11395
G1 X98.354 Y103.817 E0.12026
G1 X98.494 Y104.169 E0.12656
G1 X98.561 Y104.656 E0.13473
G1 X98.561 Y105.191 E0.14363
G1 X98.526 Y105.547 E0.14958
G1 X98.483 Y105.76 E0.15319
G1 X98.483 Y105.835 E0.15444
G1 X98.593 Y106.12 E0.15952
G1 X98.637 Y106.255 E0.16188
G1 X98.705 Y106.37 E0.1641
G1 X98.778 Y106.506 E0.16667
G1 X98.971 Y106.905 E0.17404
G1 X99.33 Y106.837 E0.18012
G1 X99.709 Y106.844 E0.18642
G1 X100.078 Y106.931 E0.19273
G1 X100.467 Y107.123 E0.19994
G1 X101.037 Y107.499 E0.21129
G1 X102.65 Y108.707 E0.24481
G1 X102.651 Y108.708 E0.24483
G1 X102.768 Y108.799 E0.2473
G1 X102.909 Y108.916 E0.25034
G1 X103.708 Y109.547 E0.26727
G1 X103.979 Y109.812 E0.27358
G1 X104.189 Y110.127 E0.27987
G1 X104.328 Y110.48 E0.28618
G1 X104.39 Y110.854 E0.29249
G1 X104.368 Y111.146 E0.29736
G1 X106.573 Y112.981 E0.34506
G1 X106.909 Y113.103 E0.35101
G1 X107.302 Y113.363 E0.35884
G1 X107.613 Y113.633 E0.36569
G1 X107.871 Y113.91 E0.37199
G1 X108.066 Y114.235 E0.37829
G1 X108.188 Y114.594 E0.3846
G1 X108.233 Y114.983 E0.39111
G1 X108.242 Y116.83 E0.42183
G1 X108.204 Y117.207 E0.42813
G1 X108.088 Y117.568 E0.43443
G1 X107.899 Y117.896 E0.44073
G1 X107.645 Y118.178 E0.44704
G1 X107.338 Y118.4 E0.45334
G1 X106.991 Y118.553 E0.45965
G1 X106.442 Y118.639 E0.46889
G1 X102.881 Y118.639 E0.52811
G1 X102.722 Y118.784 E0.53169
G1 X102.123 Y119.4 E0.54598
G1 X101.883 Y119.665 E0.55192
G1 X101.368 Y120.178 E0.56401
G1 X101.203 Y120.337 E0.56782
G1 X100.857 Y120.599 E0.57504
G1 X99.794 Y121.216 E0.59548
G1 X99.796 Y122.455 E0.61608
G1 X99.757 Y122.832 E0.62238
G1 X99.64 Y123.193 E0.6287
G1 X99.516 Y123.422 E0.63303
G1 X98.721 Y124.676 E0.65772
G1 X98.711 Y124.939 E0.6621
G1 X98.698 Y125.089 E0.6646
G1 X98.514 Y126.579 E0.68957
G1 X98.525 Y126.619 E0.69026
G1 X98.585 Y126.993 E0.69656
G1 X98.584 Y127.203 E0.70005
G1 X98.465 Y129.102 E0.73169
G1 X98.402 Y129.475 E0.73798
G1 X98.262 Y129.827 E0.74428
G1 X98.051 Y130.142 E0.75059
G1 X97.87 Y130.331 E0.75494
G1 X97.769 Y131.505 E0.77453
G1 X97.78 Y131.741 E0.77846
G1 X97.776 Y131.978 E0.7824
G1 X97.708 Y132.789 E0.79594
G1 X97.719 Y133.037 E0.80007
G1 X97.715 Y133.271 E0.80396
G1 X97.646 Y134.087 E0.81758
G1 X97.66 Y134.331 E0.82164
G1 X97.659 Y134.546 E0.82522
G1 X97.642 Y134.815 E0.8297
G1 X97.62 Y135.007 E0.83291
G1 X97.615 Y135.036 E0.8334
G1 X97.526 Y135.362 E0.83902
G1 X97.451 Y135.562 E0.84258
G1 X97.282 Y135.901 E0.84887
G1 X97.045 Y136.197 E0.85518
G1 X96.798 Y136.405 E0.86055
G1 X96.698 Y136.475 E0.86258
G1 X96.367 Y136.658 E0.86887
G1 X96.004 Y136.768 E0.87518
G1 X95.666 Y136.8 E0.88082
G1 X94.383 Y136.8 E0.90216
G1 X94.006 Y136.76 E0.90847
G1 X93.646 Y136.642 E0.91477
G1 X93.337 Y136.465 E0.92069
G1 X93.239 Y136.395 E0.92269
G1 X92.955 Y136.143 E0.929
G1 X92.731 Y135.838 E0.9353
G1 X92.606 Y135.578 E0.9401
G1 X92.515 Y135.342 E0.9443
G1 X92.403 Y134.876 E0.95227
G1 X92.376 Y134.611 E0.9567
G1 X92.37 Y134.332 E0.96134
G1 X92.383 Y134.093 E0.96532
G1 X92.298 Y133.323 E0.97821
G1 X92.29 Y133.029 E0.9831
G1 X92.303 Y132.789 E0.98709
G1 X92.217 Y132.009 E1.00014
G1 X92.208 Y131.717 E1.005
G1 X92.221 Y131.464 E1.00922
G1 X92.099 Y130.397 E1.02708
G1 X92.014 Y130.317 E1.02902
G1 X91.766 Y130.031 E1.03531
G1 X91.583 Y129.699 E1.04162
G1 X91.473 Y129.336 E1.04792
G1 X91.445 Y129.113 E1.05166
G1 X91.325 Y127.18 E1.08387
G1 X91.324 Y126.974 E1.0873
G1 X91.34 Y126.672 E1.09232
G1 X91.218 Y124.673 E1.12563
G1 X90.427 Y123.422 E1.15024
G1 X90.259 Y123.082 E1.15655
G1 X90.166 Y122.715 E1.16285
G1 X90.148 Y122.46 E1.1671
G1 X90.148 Y121.26 E1.18705
G1 X89.349 Y120.764 E1.20269
G1 X89.147 Y120.649 E1.20656
G1 X88.859 Y120.446 E1.21242
G1 X88.762 Y120.362 E1.21455
G1 X88.65 Y120.257 E1.21711
G1 X87.916 Y119.503 E1.23461
G1 X87.907 Y119.493 E1.23483
G1 X86.926 Y118.471 E1.25839
G1 X85.224 Y118.471 E1.28669
G1 X85.22 Y118.473 E1.28677
G1 X84.861 Y118.595 E1.29307
G1 X84.464 Y118.639 E1.29971
G1 X83.557 Y118.639 E1.3148
G1 X83.18 Y118.599 E1.3211
G1 X82.82 Y118.481 E1.3274
G1 X82.493 Y118.291 E1.33369
G1 X82.212 Y118.036 E1.34
G1 X81.992 Y117.727 E1.34631
G1 X81.84 Y117.38 E1.35261
G1 X81.757 Y116.837 E1.36175
G1 X81.759 Y114.985 E1.39254
G1 X81.799 Y114.608 E1.39885
G1 X81.918 Y114.248 E1.40515
G1 X82.109 Y113.921 E1.41145
G1 X82.43 Y113.585 E1.41918
G1 X83.048 Y113.087 E1.43238
G1 X83.213 Y112.969 E1.43575
G1 X83.463 Y112.81 E1.44068
G1 X85.544 Y111.13 E1.48516
G1 X85.632 Y110.632 E1.49357
G1 X85.737 Y110.268 E1.49987
G1 X85.916 Y109.934 E1.50617
G1 X86.161 Y109.644 E1.51248
G1 X86.329 Y109.502 E1.51614
G1 X87.373 Y108.723 E1.5378
G1 X87.458 Y108.661 E1.53955
G1 X87.584 Y108.548 E1.54237
G1 X87.722 Y108.436 E1.54532
G1 X88.248 Y108.051 E1.55616
G1 X88.475 Y107.865 E1.56104
G1 X88.66 Y107.728 E1.56487
G1 X89.323 Y107.213 E1.57883
G1 X89.645 Y107.014 E1.58513
G1 X90.002 Y106.886 E1.59144
G1 X90.378 Y106.836 E1.59774
G1 X90.755 Y106.865 E1.60403
G1 X90.991 Y106.944 E1.60817
G1 X91.156 Y106.565 E1.61504
G1 X91.242 Y106.392 E1.61826
G1 X91.335 Y106.228 E1.62139
G1 X91.478 Y105.832 E1.62839
G1 X91.478 Y105.759 E1.62961
G1 X91.436 Y105.56 E1.63299
G1 X91.397 Y105.188 E1.63921
G1 X91.397 Y104.647 E1.64821
G1 X91.437 Y104.27 E1.65451
G1 X91.555 Y103.91 E1.66081
G1 X91.745 Y103.583 E1.6671
G0 X92.142 Y103.726
G1 X92.39 Y103.503 E1.67265
G1 X92.684 Y103.344 E1.67821
G1 X92.897 Y103.28 E1.68191
G1 X93.521 Y103.143 E1.69253
G1 X93.827 Y103.11 E1.69765
G1 X96.217 Y103.12 E1.73739
G1 X96.547 Y103.161 E1.74292
G1 X97.097 Y103.297 E1.75235
G1 X97.409 Y103.415 E1.75789
G1 X97.685 Y103.604 E1.76346
G1 X97.908 Y103.853 E1.76902
G1 X98.065 Y104.148 E1.77457
G1 X98.149 Y104.471 E1.78012
G1 X98.161 Y104.656 E1.78321
G1 X98.161 Y105.191 E1.7921
G1 X98.133 Y105.468 E1.79673
G1 X98.083 Y105.716 E1.80094
G1 X98.083 Y105.91 E1.80417
G1 X98.212 Y106.243 E1.81011
G1 X98.27 Y106.422 E1.81323
G1 X98.361 Y106.575 E1.81619
G1 X98.418 Y106.681 E1.8182
G1 X98.776 Y107.421 E1.83187
G1 X98.803 Y107.406 E1.83238
G1 X99.113 Y107.28 E1.83795
G1 X99.443 Y107.231 E1.84349
G1 X99.776 Y107.261 E1.84905
G1 X100.092 Y107.369 E1.85461
G1 X100.248 Y107.458 E1.85759
G1 X100.797 Y107.819 E1.86852
G1 X102.512 Y109.106 E1.90418
G1 X102.668 Y109.236 E1.90756
G1 X103.46 Y109.861 E1.92433
G1 X103.696 Y110.098 E1.9299
G1 X103.869 Y110.383 E1.93544
G1 X103.969 Y110.702 E1.941
G1 X103.991 Y111.035 E1.94655
G1 X103.964 Y111.246 E1.95009
G1 X103.949 Y111.317 E1.95129
G1 X106.385 Y113.345 E2.00401
G1 X106.457 Y113.363 E2.00524
G1 X106.769 Y113.481 E2.01079
G1 X107.04 Y113.665 E2.01624
G1 X107.351 Y113.935 E2.02308
G1 X107.575 Y114.182 E2.02863
G1 X107.734 Y114.476 E2.03419
G1 X107.82 Y114.799 E2.03975
G1 X107.833 Y114.985 E2.04285
G1 X107.842 Y116.832 E2.07356
G1 X107.804 Y117.164 E2.07912
G1 X107.688 Y117.477 E2.08467
G1 X107.501 Y117.754 E2.09023
G1 X107.254 Y117.979 E2.09579
G1 X106.961 Y118.139 E2.10134
G1 X106.638 Y118.225 E2.1069
G1 X106.442 Y118.239 E2.11016
G1 X102.727 Y118.239 E2.17195
G1 X102.44 Y118.501 E2.17841
G1 X101.83 Y119.127 E2.19294
G1 X101.596 Y119.386 E2.19875
G1 X100.925 Y120.05 E2.21445
G1 X100.656 Y120.253 E2.22005
G1 X99.393 Y120.986 E2.24434
G1 X99.396 Y122.456 E2.26878
G1 X99.357 Y122.788 E2.27434
G1 X99.179 Y123.208 E2.28193
G1 X98.325 Y124.555 E2.30845
G1 X98.311 Y124.923 E2.31458
G1 X98.301 Y125.04 E2.31653
G1 X98.108 Y126.608 E2.3428
G1 X98.139 Y126.724 E2.3448
G1 X98.185 Y127.178 E2.35239
G1 X98.066 Y129.077 E2.38403
G1 X98.006 Y129.405 E2.38957
G1 X97.869 Y129.71 E2.39513
G1 X97.632 Y130.005 E2.40143
G1 X97.485 Y130.144 E2.40479
G1 X97.368 Y131.505 E2.42751
G1 X97.38 Y131.76 E2.43175
G1 X97.377 Y131.945 E2.43483
G1 X97.307 Y132.774 E2.44867
G1 X97.32 Y133.056 E2.45336
G1 X97.316 Y133.237 E2.45637
G1 X97.245 Y134.076 E2.47037
G1 X97.261 Y134.354 E2.47501
G1 X97.26 Y134.52 E2.47777
G1 X97.243 Y134.789 E2.48225
G1 X97.226 Y134.939 E2.48476
G1 X97.221 Y134.968 E2.48525
G1 X97.152 Y135.222 E2.48963
G1 X97.077 Y135.422 E2.49318
G1 X96.923 Y135.718 E2.49873
G1 X96.703 Y135.97 E2.50429
G1 X96.569 Y136.077 E2.50714
G1 X96.469 Y136.147 E2.50917
G1 X96.174 Y136.304 E2.51473
G1 X95.851 Y136.388 E2.52028
G1 X95.666 Y136.4 E2.52336
G1 X94.383 Y136.4 E2.5447
G1 X94.051 Y136.36 E2.55026
G1 X93.739 Y136.243 E2.5558
G1 X93.569 Y136.139 E2.55911
G1 X93.471 Y136.069 E2.56112
G1 X93.225 Y135.844 E2.56666
G1 X92.979 Y135.434 E2.57461
G1 X92.888 Y135.198 E2.57882
G1 X92.801 Y134.836 E2.58501
G1 X92.774 Y134.571 E2.58944
G1 X92.769 Y134.353 E2.59307
G1 X92.784 Y134.083 E2.59756
G1 X92.695 Y133.28 E2.611
G1 X92.689 Y133.05 E2.61483
G1 X92.704 Y132.779 E2.61934
G1 X92.614 Y131.965 E2.63296
G1 X92.608 Y131.738 E2.63674
G1 X92.623 Y131.457 E2.64142
G1 X92.48 Y130.204 E2.66239
G1 X92.287 Y130.024 E2.66678
G1 X92.071 Y129.769 E2.67233
G1 X91.923 Y129.47 E2.67788
G1 X91.845 Y129.088 E2.68437
G1 X91.725 Y127.155 E2.71657
G1 X91.724 Y126.995 E2.71923
G1 X91.741 Y126.665 E2.72473
G1 X91.612 Y124.547 E2.76002
G1 X90.765 Y123.208 E2.78637
G1 X90.621 Y122.907 E2.79192
G1 X90.548 Y122.46 E2.79945
G1 X90.548 Y121.038 E2.8231
G1 X89.568 Y120.429 E2.84228
G1 X89.345 Y120.302 E2.84655
G1 X89.121 Y120.143 E2.85112
G1 X88.937 Y119.978 E2.85523
G1 X88.203 Y119.224 E2.87273
G1 X88.196 Y119.216 E2.87291
G1 X87.097 Y118.071 E2.8993
G1 X85.136 Y118.071 E2.93191
G1 X85.052 Y118.11 E2.93345
G1 X84.734 Y118.213 E2.93901
G1 X84.464 Y118.239 E2.94352
G1 X83.557 Y118.239 E2.9586
G1 X83.225 Y118.199 E2.96416
G1 X82.913 Y118.082 E2.96971
G1 X82.636 Y117.894 E2.97527
G1 X82.413 Y117.646 E2.98082
G1 X82.254 Y117.352 E2.98638
G1 X82.17 Y117.028 E2.99194
G1 X82.157 Y116.837 E2.99513
G1 X82.159 Y114.985 E3.02593
G1 X82.199 Y114.654 E3.03147
G1 X82.317 Y114.341 E3.03703
G1 X82.505 Y114.065 E3.04259
G1 X82.681 Y113.897 E3.04663
G1 X83.299 Y113.399 E3.05983
G1 X83.427 Y113.307 E3.06246
G1 X83.694 Y113.138 E3.06771
G1 X85.912 Y111.346 E3.11513
G1 X86.026 Y110.702 E3.12601
G1 X86.123 Y110.382 E3.13157
G1 X86.293 Y110.094 E3.13713
G1 X86.568 Y109.823 E3.14355
G1 X87.612 Y109.044 E3.16521
G1 X87.709 Y108.974 E3.1672
G1 X87.851 Y108.846 E3.17038
G1 X87.959 Y108.759 E3.17269
G1 X88.484 Y108.375 E3.1835
G1 X88.713 Y108.186 E3.18844
G1 X88.91 Y108.04 E3.19252
G1 X89.568 Y107.529 E3.20637
G1 X89.855 Y107.357 E3.21194
G1 X90.174 Y107.258 E3.21749
G1 X90.507 Y107.237 E3.22304
G1 X90.836 Y107.296 E3.2286
G1 X91.052 Y107.382 E3.23247
G1 X91.204 Y107.458 E3.23529
G1 X91.523 Y106.724 E3.2486
G1 X91.59 Y106.59 E3.25109
G1 X91.7 Y106.397 E3.25479
G1 X91.784 Y106.152 E3.25909
G1 X91.878 Y105.905 E3.26349
G1 X91.878 Y105.719 E3.26658
G1 X91.827 Y105.477 E3.2707
G1 X91.797 Y105.188 E3.27553
G1 X91.797 Y104.647 E3.28452
G1 X91.837 Y104.315 E3.29009
G1 X91.954 Y104.003 E3.29563
G1 X92.142 Y103.726 E3.30119
G0 X92.353 Y104.111
G1 X92.536 Y103.896 E3.30589
G1 X92.772 Y103.742 E3.31058
G1 X92.983 Y103.67 E3.31428
G1 X93.607 Y103.533 E3.32491
G1 X93.825 Y103.51 E3.32855
G1 X96.215 Y103.52 E3.3683
G1 X96.451 Y103.549 E3.37225
G1 X97.001 Y103.685 E3.38168
G1 X97.263 Y103.791 E3.38638
G1 X97.484 Y103.965 E3.39105
G1 X97.648 Y104.195 E3.39575
G1 X97.742 Y104.461 E3.40044
G1 X97.761 Y104.656 E3.4037
G1 X97.761 Y105.191 E3.4126
G1 X97.741 Y105.389 E3.41591
G1 X97.683 Y105.677 E3.42079
G1 X97.683 Y105.987 E3.42595
G1 X97.832 Y106.366 E3.43272
G1 X97.905 Y106.592 E3.43667
G1 X98.058 Y106.855 E3.44173
G1 X98.601 Y107.976 E3.46245
G1 X98.998 Y107.756 E3.46999
G1 X99.261 Y107.655 E3.47468
G1 X99.542 Y107.632 E3.47937
G1 X99.819 Y107.688 E3.48407
G1 X100.03 Y107.793 E3.48799
G1 X100.557 Y108.14 E3.49848
G1 X102.256 Y109.413 E3.53379
G1 X102.419 Y109.549 E3.53732
G1 X103.212 Y110.175 E3.55412
G1 X103.407 Y110.379 E3.55881
G1 X103.537 Y110.63 E3.56351
G1 X103.592 Y110.906 E3.56819
G1 X103.572 Y111.164 E3.57249
G1 X103.508 Y111.471 E3.57771
G1 X106.198 Y113.711 E3.63592
G1 X106.361 Y113.751 E3.63871
G1 X106.623 Y113.856 E3.64341
G1 X106.778 Y113.967 E3.64658
G1 X107.089 Y114.237 E3.65343
G1 X107.273 Y114.45 E3.65811
G1 X107.391 Y114.706 E3.6628
G1 X107.433 Y114.987 E3.66752
G1 X107.442 Y116.834 E3.69824
G1 X107.404 Y117.114 E3.70294
G1 X107.289 Y117.371 E3.70762
G1 X107.106 Y117.587 E3.71233
G1 X106.871 Y117.742 E3.71701
G1 X106.602 Y117.826 E3.7217
G1 X106.442 Y117.839 E3.72437
G1 X102.573 Y117.839 E3.78871
G1 X102.158 Y118.217 E3.79804
G1 X101.556 Y118.836 E3.8124
G1 X101.551 Y118.841 E3.81252
G1 X101.335 Y119.08 E3.81788
G1 X101.058 Y119.362 E3.82445
G1 X100.987 Y119.427 E3.82605
G1 X100.647 Y119.762 E3.83399
G1 X100.455 Y119.907 E3.83799
G1 X98.993 Y120.756 E3.86611
G1 X98.996 Y122.457 E3.89439
G1 X98.957 Y122.736 E3.89908
G1 X98.841 Y122.994 E3.90378
G1 X97.93 Y124.433 E3.93211
G1 X97.904 Y124.991 E3.94139
G1 X97.701 Y126.637 E3.96898
G1 X97.753 Y126.828 E3.97227
G1 X97.786 Y127.153 E3.9777
G1 X97.667 Y129.052 E4.00934
G1 X97.61 Y129.328 E4.01403
G1 X97.478 Y129.577 E4.01872
G1 X97.357 Y129.715 E4.02177
G1 X97.099 Y129.959 E4.02767
G1 X96.967 Y131.489 E4.05321
G1 X96.981 Y131.779 E4.05804
G1 X96.978 Y131.911 E4.06024
G1 X96.906 Y132.766 E4.07451
G1 X96.92 Y133.074 E4.07963
G1 X96.917 Y133.204 E4.08179
G1 X96.844 Y134.072 E4.09628
G1 X96.861 Y134.376 E4.10134
G1 X96.861 Y134.495 E4.10332
G1 X96.844 Y134.764 E4.10781
G1 X96.831 Y134.871 E4.1096
G1 X96.826 Y134.9 E4.11009
G1 X96.777 Y135.081 E4.11321
G1 X96.702 Y135.281 E4.11676
G1 X96.567 Y135.529 E4.12145
G1 X96.339 Y135.749 E4.12672
G1 X96.239 Y135.819 E4.12875
G1 X95.988 Y135.947 E4.13344
G1 X95.666 Y136 E4.13887
G1 X94.383 Y136 E4.1602
G1 X94.104 Y135.96 E4.16489
G1 X93.802 Y135.814 E4.17047
G1 X93.704 Y135.744 E4.17247
G1 X93.5 Y135.549 E4.17716
G1 X93.352 Y135.29 E4.18212
G1 X93.261 Y135.054 E4.18633
G1 X93.199 Y134.795 E4.19076
G1 X93.172 Y134.53 E4.19519
G1 X93.168 Y134.375 E4.19777
G1 X93.185 Y134.067 E4.2029
G1 X93.093 Y133.236 E4.2168
G1 X93.088 Y133.072 E4.21953
G1 X93.105 Y132.763 E4.22468
G1 X93.012 Y131.921 E4.23876
G1 X93.007 Y131.759 E4.24146
G1 X93.024 Y131.444 E4.24671
G1 X92.86 Y130.012 E4.27068
G1 X92.56 Y129.732 E4.2775
G1 X92.383 Y129.512 E4.2822
G1 X92.274 Y129.252 E4.28688
G1 X92.244 Y129.063 E4.29007
G1 X92.124 Y127.13 E4.32227
G1 X92.123 Y127.016 E4.32417
G1 X92.141 Y126.665 E4.33001
G1 X92.005 Y124.42 E4.36742
G1 X91.103 Y122.994 E4.39548
G1 X90.987 Y122.737 E4.40017
G1 X90.948 Y122.46 E4.40482
G1 X90.948 Y120.815 E4.43218
G1 X89.778 Y120.089 E4.45507
G1 X89.542 Y119.954 E4.4596
G1 X89.382 Y119.841 E4.46285
G1 X89.223 Y119.699 E4.4664
G1 X88.489 Y118.945 E4.4839
G1 X88.485 Y118.939 E4.48402
G1 X87.268 Y117.671 E4.51325
G1 X85.048 Y117.671 E4.55016
G1 X84.884 Y117.747 E4.55317
G1 X84.614 Y117.828 E4.55786
G1 X84.464 Y117.839 E4.56036
G1 X83.557 Y117.839 E4.57544
G1 X83.278 Y117.799 E4.58013
G1 X83.021 Y117.683 E4.58482
G1 X82.806 Y117.5 E4.58951
G1 X82.652 Y117.264 E4.5942
G1 X82.569 Y116.994 E4.5989
G1 X82.557 Y116.838 E4.6015
G1 X82.559 Y114.986 E4.6323
G1 X82.599 Y114.707 E4.63699
G1 X82.716 Y114.45 E4.64168
G1 X82.932 Y114.208 E4.64708
G1 X83.55 Y113.71 E4.66028
G1 X83.642 Y113.644 E4.66216
G1 X83.931 Y113.461 E4.66785
G1 X86.28 Y111.564 E4.71806
G1 X86.42 Y110.771 E4.73145
