;FLAVOR:Marlin
;TIME:665
;Filament used: 0.227019m
;Layer height: 0.1
;MINX:83.313
;MINY:107.15
;MINZ:0.1
;MAXX:106.687
;MAXY:133.363
;MAXZ:3.9
;Generated with Cura_SteamEngine 4.6.0
M140 S75
M105
M190 S75
M104 S195
M105
M109 S195
M82 ;absolute extrusion mode
G28 ;Home
G1 Z15.0 F6000 ;Move the platform
G92 E0
G1 F200 E3
G92 E0


G0 X0 Y15 F9000 ; Go to front
G0 Z0.15 ; Drop to bed
G92 E0 ; zero the extruded length
G1 X40 E25 F500 ; Extrude 25mm of filament in a 4cm line
G92 E0 ; zero the extruded length
G1 E-1 F500 ; Retract a little
G1 X80 F4000 ; Quickly wipe away from the filament line
G1 Z0.3 ; Raise and begin printing.
G92 E0
G92 E0
G1 F1500 E-6
;LAYER_COUNT:39
;LAYER:0
M107
M204 S1000
G0 F2400 X89.362 Y109.587 Z0.1
;TYPE:SKIRT
G1 F1500 E0
G1 F2400 X89.669 Y109.363 E0.00632
G1 X90.015 Y109.209 E0.01262
G1 X90.386 Y109.131 E0.01892
G1 X90.765 Y109.133 E0.02523
G1 X91.129 Y109.211 E0.03142
G1 X91.471 Y109.323 E0.0374
G1 X91.817 Y109.479 E0.04371
G1 X92.02 Y109.628 E0.0479
G1 X93.514 Y107.808 E0.08706
G1 X93.784 Y107.542 E0.09336
G1 X94.103 Y107.338 E0.09966
G1 X94.458 Y107.206 E0.10596
G1 X94.905 Y107.15 E0.11345
G1 X95.095 Y107.15 E0.11661
G1 X95.472 Y107.19 E0.12291
G1 X95.832 Y107.308 E0.12921
G1 X96.159 Y107.498 E0.1355
G1 X96.486 Y107.808 E0.143
G1 X97.972 Y109.618 E0.18194
G1 X98.2 Y109.456 E0.18659
G1 X98.525 Y109.312 E0.1925
G1 X98.867 Y109.2 E0.19849
G1 X99.237 Y109.121 E0.20478
G1 X99.616 Y109.121 E0.21108
G1 X99.987 Y109.2 E0.21739
G1 X100.333 Y109.355 E0.2237
G1 X100.638 Y109.579 E0.22999
G1 X100.89 Y109.863 E0.2363
G1 X101.073 Y110.183 E0.24243
G1 X101.381 Y110.879 E0.25509
G1 X101.384 Y110.885 E0.2552
G1 X102.243 Y112.847 E0.29082
G1 X102.246 Y112.856 E0.29098
G1 X102.989 Y114.571 E0.32206
G1 X102.992 Y114.579 E0.3222
G1 X103.818 Y116.509 E0.35712
G1 X103.821 Y116.519 E0.35729
G1 X104.687 Y118.567 E0.39427
G1 X104.693 Y118.579 E0.39449
G1 X106.548 Y123.04 E0.47484
G1 X106.656 Y123.403 E0.48113
G1 X106.685 Y123.684 E0.48583
G1 X106.687 Y123.76 E0.4871
G1 X106.657 Y124.137 E0.49339
G1 X106.57 Y124.447 E0.49874
G1 X106.384 Y124.936 E0.50744
G1 X105.136 Y128.24 E0.56618
G1 X104.965 Y128.579 E0.57249
G1 X104.779 Y128.82 E0.57755
G1 X104.724 Y128.88 E0.57891
G1 X104.44 Y129.131 E0.58521
G1 X104.161 Y129.294 E0.59058
G1 X103.124 Y129.78 E0.60963
G1 X103.121 Y129.781 E0.60968
G1 X95.806 Y133.194 E0.74392
G1 X95.448 Y133.317 E0.75021
G1 X95.045 Y133.363 E0.75696
G1 X94.956 Y133.363 E0.75844
G1 X94.579 Y133.323 E0.76474
G1 X94.195 Y133.194 E0.77148
G1 X85.842 Y129.296 E0.92477
G1 X85.517 Y129.101 E0.93108
G1 X85.241 Y128.841 E0.93738
G1 X84.986 Y128.457 E0.94505
G1 X84.844 Y128.167 E0.95042
G1 X84.777 Y128.011 E0.95324
G1 X83.428 Y124.442 E1.01669
G1 X83.332 Y124.076 E1.02298
G1 X83.313 Y123.759 E1.02827
G1 X83.315 Y123.683 E1.02953
G1 X83.364 Y123.307 E1.03584
G1 X83.45 Y123.044 E1.04044
G1 X83.712 Y122.408 E1.05188
G1 X83.714 Y122.402 E1.05198
G1 X85.308 Y118.576 E1.12091
G1 X85.317 Y118.559 E1.12123
G1 X87.261 Y113.995 E1.20373
G1 X87.267 Y113.984 E1.20394
G1 X87.98 Y112.34 E1.23374
G1 X87.983 Y112.332 E1.23388
G1 X88.921 Y110.198 E1.27264
G1 X89.109 Y109.869 E1.27894
G1 X89.362 Y109.587 E1.28525
G0 X89.691 Y109.832
G1 X89.974 Y109.655 E1.2908
G1 X90.291 Y109.55 E1.29635
G1 X90.624 Y109.523 E1.30191
G1 X91.005 Y109.592 E1.30834
G1 X91.347 Y109.704 E1.31433
G1 X91.65 Y109.845 E1.31989
G1 X91.91 Y110.053 E1.32542
G1 X92.045 Y110.228 E1.3291
G1 X93.823 Y108.062 E1.3757
G1 X94.064 Y107.831 E1.38125
G1 X94.353 Y107.663 E1.38681
G1 X94.674 Y107.569 E1.39238
G1 X94.905 Y107.55 E1.39623
G1 X95.095 Y107.55 E1.39939
G1 X95.427 Y107.59 E1.40495
G1 X95.739 Y107.707 E1.41049
G1 X96.016 Y107.895 E1.41606
G1 X96.177 Y108.062 E1.41992
G1 X97.949 Y110.221 E1.46637
G1 X98.059 Y110.071 E1.46946
G1 X98.314 Y109.855 E1.47502
G1 X98.649 Y109.693 E1.48121
G1 X98.991 Y109.581 E1.48719
G1 X99.319 Y109.515 E1.49275
G1 X99.653 Y109.529 E1.49831
G1 X99.974 Y109.622 E1.50387
G1 X100.263 Y109.788 E1.50941
G1 X100.506 Y110.018 E1.51498
G1 X100.707 Y110.344 E1.52135
G1 X101.015 Y111.04 E1.534
G1 X101.017 Y111.046 E1.53411
G1 X101.876 Y113.008 E1.56973
G1 X101.879 Y113.015 E1.56985
G1 X102.622 Y114.73 E1.60094
G1 X102.624 Y114.736 E1.60104
G1 X103.45 Y116.666 E1.63595
G1 X103.454 Y116.68 E1.6362
G1 X104.312 Y118.708 E1.67282
G1 X104.324 Y118.732 E1.67326
G1 X106.179 Y123.193 E1.75361
G1 X106.269 Y123.515 E1.75917
G1 X106.286 Y123.694 E1.76216
G1 X106.288 Y123.77 E1.76342
G1 X106.256 Y124.103 E1.76898
G1 X106.197 Y124.305 E1.77248
G1 X106.011 Y124.794 E1.78118
G1 X104.762 Y128.099 E1.83994
G1 X104.607 Y128.395 E1.8455
G1 X104.484 Y128.55 E1.84879
G1 X104.429 Y128.61 E1.85014
G1 X104.176 Y128.828 E1.8557
G1 X103.991 Y128.932 E1.85923
G1 X102.954 Y129.418 E1.87827
G1 X102.952 Y129.419 E1.87831
G1 X95.637 Y132.832 E2.01255
G1 X95.32 Y132.936 E2.01809
G1 X95.045 Y132.963 E2.02269
G1 X94.956 Y132.963 E2.02417
G1 X94.624 Y132.923 E2.02973
G1 X94.364 Y132.832 E2.03431
G1 X86.011 Y128.934 E2.1876
G1 X85.727 Y128.757 E2.19317
G1 X85.493 Y128.519 E2.19872
G1 X85.346 Y128.281 E2.20337
G1 X85.204 Y127.991 E2.20874
G1 X85.151 Y127.87 E2.21094
G1 X83.802 Y124.301 E2.27439
G1 X83.722 Y123.977 E2.27994
G1 X83.712 Y123.769 E2.2834
G1 X83.714 Y123.693 E2.28467
G1 X83.763 Y123.363 E2.29021
G1 X83.82 Y123.197 E2.29313
G1 X84.082 Y122.561 E2.30457
G1 X84.084 Y122.556 E2.30466
G1 X85.678 Y118.73 E2.37359
G1 X85.684 Y118.718 E2.37381
G1 X87.629 Y114.151 E2.45636
G1 X87.635 Y114.14 E2.45657
G1 X88.347 Y112.499 E2.48632
G1 X88.349 Y112.493 E2.48642
G1 X89.287 Y110.359 E2.52519
G1 X89.457 Y110.071 E2.53075
G1 X89.691 Y109.832 E2.53631
G0 X89.802 Y110.28
G1 X90.012 Y110.091 E2.54101
G1 X90.266 Y109.969 E2.5457
G1 X90.545 Y109.922 E2.5504
G1 X90.88 Y109.972 E2.55604
G1 X91.222 Y110.084 E2.56202
G1 X91.475 Y110.208 E2.56671
G1 X91.683 Y110.399 E2.5714
G1 X91.83 Y110.64 E2.5761
G1 X91.904 Y110.912 E2.58079
G1 X91.898 Y111.037 E2.58287
G1 X94.132 Y108.316 E2.64141
G1 X94.34 Y108.125 E2.64611
G1 X94.593 Y108 E2.6508
G1 X94.905 Y107.95 E2.65606
G1 X95.095 Y107.95 E2.65922
G1 X95.374 Y107.99 E2.66391
G1 X95.631 Y108.106 E2.66859
G1 X95.868 Y108.316 E2.67386
G1 X98.093 Y111.027 E2.73218
G1 X98.088 Y110.949 E2.73348
G1 X98.148 Y110.673 E2.73818
G1 X98.283 Y110.425 E2.74288
G1 X98.482 Y110.225 E2.74757
G1 X98.774 Y110.073 E2.75304
G1 X99.116 Y109.961 E2.75903
G1 X99.394 Y109.912 E2.76372
G1 X99.674 Y109.942 E2.76841
G1 X99.935 Y110.05 E2.7731
G1 X100.155 Y110.226 E2.77779
G1 X100.341 Y110.506 E2.78338
G1 X100.649 Y111.202 E2.79604
G1 X100.651 Y111.206 E2.79611
G1 X101.51 Y113.168 E2.83173
G1 X101.512 Y113.174 E2.83183
G1 X102.255 Y114.889 E2.86292
G1 X102.256 Y114.894 E2.863
G1 X103.082 Y116.824 E2.89791
G1 X103.084 Y116.831 E2.89803
G1 X103.95 Y118.879 E2.93501
G1 X103.954 Y118.886 E2.93515
G1 X105.809 Y123.347 E3.01549
G1 X105.886 Y123.705 E3.02158
G1 X105.888 Y123.781 E3.02284
G1 X105.823 Y124.163 E3.02929
G1 X105.637 Y124.652 E3.03799
G1 X105.636 Y124.652 E3.03801
G1 X104.387 Y127.957 E3.09676
G1 X104.189 Y128.28 E3.10306
G1 X104.134 Y128.34 E3.10442
G1 X103.821 Y128.569 E3.11087
G1 X102.784 Y129.055 E3.12991
G1 X102.783 Y129.056 E3.12993
G1 X95.468 Y132.469 E3.26417
G1 X95.198 Y132.551 E3.26887
G1 X95.045 Y132.563 E3.27142
G1 X94.956 Y132.563 E3.2729
G1 X94.677 Y132.523 E3.27759
G1 X94.533 Y132.469 E3.28014
G1 X86.18 Y128.571 E3.43343
G1 X85.944 Y128.417 E3.43812
G1 X85.705 Y128.105 E3.44466
G1 X85.526 Y127.729 E3.45158
G1 X84.177 Y124.16 E3.51503
G1 X84.112 Y123.78 E3.52144
G1 X84.114 Y123.704 E3.52271
G1 X84.189 Y123.349 E3.52874
G1 X84.451 Y122.713 E3.54018
G1 X84.453 Y122.709 E3.54026
G1 X86.047 Y118.883 E3.60918
G1 X86.053 Y118.874 E3.60936
G1 X87.997 Y114.308 E3.69189
G1 X88.002 Y114.3 E3.69205
G1 X88.714 Y112.658 E3.72181
G1 X88.716 Y112.654 E3.72189
G1 X89.654 Y110.52 E3.76065
G1 X89.802 Y110.28 E3.76534
G0 X90.142 Y110.5
G1 X90.321 Y110.375 E3.76897
G1 X90.533 Y110.323 E3.7726
G1 X90.756 Y110.352 E3.77634
G1 X91.098 Y110.464 E3.78233
G1 X91.289 Y110.568 E3.78594
G1 X91.431 Y110.734 E3.78958
G1 X91.504 Y110.94 E3.79321
G1 X91.498 Y111.158 E3.79684
G1 X90.008 Y118.196 E3.91647
G1 X91.792 Y111.892 E4.02543
G1 X91.835 Y111.781 E4.02741
G1 X91.856 Y111.74 E4.02817
G1 X91.926 Y111.633 E4.0303
G1 X94.441 Y108.569 E4.09622
G1 X94.608 Y108.429 E4.09985
G1 X94.905 Y108.35 E4.10496
G1 X95.095 Y108.35 E4.10812
G1 X95.31 Y108.39 E4.11175
G1 X95.559 Y108.569 E4.11685
G1 X98.073 Y111.632 E4.18275
G1 X98.143 Y111.739 E4.18488
G1 X98.164 Y111.78 E4.18564
G1 X98.207 Y111.891 E4.18762
G1 X99.983 Y118.162 E4.29601
G1 X98.498 Y111.147 E4.41526
G1 X98.492 Y110.929 E4.41888
G1 X98.565 Y110.723 E4.42252
G1 X98.707 Y110.557 E4.42615
G1 X98.898 Y110.453 E4.42977
G1 X99.24 Y110.341 E4.43575
G1 X99.456 Y110.312 E4.43938
G1 X99.669 Y110.362 E4.44301
G1 X99.849 Y110.485 E4.44664
G1 X99.976 Y110.668 E4.45034
G1 X100.284 Y111.364 E4.463
G1 X100.285 Y111.366 E4.46304
G1 X101.144 Y113.328 E4.49866
G1 X101.145 Y113.333 E4.49874
G1 X101.888 Y115.048 E4.52982
G1 X101.889 Y115.051 E4.52988
G1 X102.715 Y116.981 E4.56479
G1 X102.716 Y116.986 E4.56487
G1 X103.582 Y119.034 E4.60185
G1 X103.585 Y119.04 E4.60196
G1 X105.44 Y123.501 E4.68231
G1 X105.486 Y123.715 E4.68595
G1 X105.488 Y123.791 E4.68721
G1 X105.449 Y124.02 E4.69108
G1 X105.263 Y124.509 E4.69978
G1 X104.013 Y127.816 E4.75857
G1 X103.894 Y128.009 E4.76234
G1 X103.839 Y128.069 E4.76369
G1 X103.652 Y128.207 E4.76756
G1 X102.615 Y128.693 E4.7866
G1 X102.614 Y128.694 E4.78663
G1 X95.299 Y132.107 E4.92087
G1 X95.045 Y132.163 E4.92519
G1 X94.956 Y132.163 E4.92667
G1 X94.702 Y132.107 E4.931
G1 X86.349 Y128.209 E5.08429
G1 X86.172 Y128.082 E5.08791
G1 X86.064 Y127.929 E5.09103
G1 X85.9 Y127.587 E5.09733
G1 X84.551 Y124.018 E5.16079
G1 X84.512 Y123.79 E5.16463
G1 X84.514 Y123.714 E5.1659
G1 X84.559 Y123.501 E5.16952
G1 X84.821 Y122.865 E5.18096
G1 X84.822 Y122.863 E5.18099
G1 X86.416 Y119.037 E5.24992
G1 X86.421 Y119.029 E5.25008
G1 X88.365 Y114.465 E5.33258
G1 X88.369 Y114.46 E5.33268
G1 X89.081 Y112.817 E5.36246
G1 X89.082 Y112.815 E5.3625
G1 X90.02 Y110.681 E5.40126
G1 X90.142 Y110.5 E5.40489
G0 X90.469 Y110.749
G1 X90.631 Y110.732 E5.4076
G1 X90.973 Y110.844 E5.41359
G1 X91.074 Y110.918 E5.41567
G1 X91.107 Y111.075 E5.41834
G1 X89.416 Y119.062 E5.55411
G1 X90.021 Y119.081 E5.56417
G1 X90.041 Y119.08 E5.5645
G1 X90.172 Y119.085 E5.56668
G1 X92.177 Y112.001 E5.68912
G1 X92.212 Y111.923 E5.69054
G1 X92.235 Y111.887 E5.69125
G1 X94.75 Y108.823 E5.75717
G1 X94.905 Y108.75 E5.76002
G1 X95.095 Y108.75 E5.76318
G1 X95.25 Y108.823 E5.76603
G1 X97.764 Y111.886 E5.83193
G1 X97.808 Y111.963 E5.8334
G1 X97.822 Y112 E5.83406
G1 X99.828 Y119.085 E5.95652
G1 X99.953 Y119.081 E5.9586
G1 X99.957 Y119.081 E5.95866
G1 X99.966 Y119.08 E5.95882
G1 X100.582 Y119.061 E5.96906
G1 X98.889 Y111.064 E6.105
G1 X98.903 Y110.94 E6.10708
G1 X99.023 Y110.833 E6.10975
G1 X99.365 Y110.721 E6.11574
G1 X99.49 Y110.721 E6.11782
G1 X99.61 Y110.83 E6.12051
G1 X99.918 Y111.526 E6.13317
G1 X100.777 Y113.488 E6.16879
G1 X100.778 Y113.492 E6.16886
G1 X101.521 Y115.207 E6.19994
G1 X102.347 Y117.137 E6.23485
G1 X102.349 Y117.146 E6.235
G1 X103.212 Y119.186 E6.27184
G1 X103.216 Y119.193 E6.27197
G1 X105.071 Y123.654 E6.35232
G1 X105.086 Y123.726 E6.35354
G1 X105.088 Y123.802 E6.35481
G1 X105.075 Y123.878 E6.35609
G1 X104.889 Y124.367 E6.36479
G1 X103.639 Y127.675 E6.4236
G1 X103.599 Y127.739 E6.42485
G1 X103.544 Y127.799 E6.42621
G1 X103.482 Y127.845 E6.42749
G1 X102.445 Y128.331 E6.44653
G1 X95.13 Y131.744 E6.58077
G1 X95.045 Y131.763 E6.58222
G1 X94.956 Y131.763 E6.5837
G1 X94.871 Y131.744 E6.58515
G1 X86.518 Y127.846 E6.73844
G1 X86.423 Y127.753 E6.74065
G1 X86.281 Y127.463 E6.74602
G1 X86.274 Y127.446 E6.74633
G1 X84.925 Y123.877 E6.80978
G1 X84.912 Y123.801 E6.81106
G1 X84.914 Y123.725 E6.81233
G1 X84.929 Y123.654 E6.81353
G1 X85.191 Y123.018 E6.82497
G1 X86.785 Y119.192 E6.8939
G1 X86.788 Y119.189 E6.89397
G1 X88.733 Y114.622 E6.97652
G1 X88.735 Y114.619 E6.97658
G1 X89.448 Y112.976 E7.00637
G1 X90.386 Y110.842 E7.04513
G1 X90.469 Y110.749 E7.0472
G1 F1500 E1.0472
;MESH:Spacefighter.stl
G0 F2400 X92.754 Y112.233
G0 X90.897 Y120.089
G0 X88.21 Y120.009
G0 X88.49 Y118.704
G0 X88.111 Y118.585
G0 X85.929 Y123.783
G0 X87.176 Y127.079
G0 X94.997 Y131.034
G0 X95 Y131.363
;TYPE:WALL-OUTER
G1 F1500 E7.0472
G1 F2400 X86.721 Y127.498 E7.19915
G1 X86.714 Y127.482 E7.19944
G1 X86.649 Y127.306 E7.20256
G1 X85.313 Y123.772 E7.26539
G1 X85.561 Y123.17 E7.27622
G1 X87.154 Y119.348 E7.34508
G1 X87.155 Y119.346 E7.34511
G1 X89.077 Y114.834 E7.42667
G1 X89.078 Y114.834 E7.42669
G1 X89.814 Y113.136 E7.45747
G1 X90.679 Y111.169 E7.4932
G1 X88.926 Y119.446 E7.6339
G1 X90.027 Y119.481 E7.65222
G1 X90.033 Y119.48 E7.65232
G1 X90.086 Y119.483 E7.6532
G1 X90.468 Y119.496 E7.65956
G1 X90.53 Y119.286 E7.6632
G1 X92.557 Y112.127 E7.78694
G1 X95 Y109.15 E7.85098
G1 X97.442 Y112.126 E7.915
G1 X99.529 Y119.494 E8.04235
G1 X99.89 Y119.484 E8.04836
G1 X99.977 Y119.481 E8.0498
G1 X99.984 Y119.48 E8.04992
G1 X100.794 Y119.455 E8.0634
G1 X101.075 Y119.441 E8.06808
G1 X101.009 Y119.149 E8.07306
G1 X101.01 Y119.149 E8.07307
G1 X99.317 Y111.158 E8.20891
G1 X99.552 Y111.688 E8.21856
G1 X100.411 Y113.651 E8.25419
G1 X101.153 Y115.366 E8.28526
G1 X101.979 Y117.297 E8.32019
G1 X102.846 Y119.347 E8.35721
G1 X104.687 Y123.773 E8.43692
G1 X104.515 Y124.225 E8.44497
G1 X103.279 Y127.498 E8.50315
G1 X102.275 Y127.969 E8.52159
G1 X95 Y131.363 E8.65509
G0 X94.819 Y131.279
G0 X95.006 Y130.881
G0 X95 Y130.922
;TYPE:WALL-INNER
G1 X87.038 Y127.205 E8.80122
G1 X87.024 Y127.166 E8.80191
G1 X85.743 Y123.779 E8.86213
G1 X85.93 Y123.324 E8.87031
G1 X87.523 Y119.502 E8.93917
G1 X88.673 Y116.806 E8.98791
G1 X88.674 Y116.805 E8.98794
G1 X89.475 Y114.924 E9.02194
G1 X89.053 Y116.924 E9.03901
G1 X89.052 Y116.925 E9.03904
G1 X88.485 Y119.599 E9.08449
G1 X88.436 Y119.831 E9.08844
G1 X88.673 Y119.838 E9.09087
G1 X90.764 Y119.906 E9.12566
G1 X90.914 Y119.397 E9.13449
G1 X92.919 Y112.316 E9.25687
G1 X94.846 Y109.968 E9.30739
G1 X95 Y109.781 E9.31142
G1 X95.154 Y109.968 E9.31389
G1 X97.08 Y112.315 E9.36438
G1 X99.229 Y119.902 E9.49551
G1 X99.902 Y119.884 E9.50671
G1 X100.012 Y119.88 E9.50854
G1 X100.017 Y119.879 E9.50863
G1 X100.81 Y119.855 E9.52182
G1 X101.333 Y119.828 E9.53053
G1 X101.334 Y119.827 E9.53055
G1 X101.57 Y119.817 E9.53448
G1 X101.518 Y119.586 E9.5369
G1 X101.419 Y119.149 E9.54436
G1 X100.939 Y116.886 E9.58283
G1 X100.657 Y115.551 E9.60552
G1 X100.522 Y114.914 E9.61635
G1 X100.785 Y115.523 E9.61828
G1 X101.322 Y116.778 E9.6334
G1 X101.611 Y117.453 E9.64561
G1 X102.477 Y119.501 E9.68259
G1 X104.257 Y123.779 E9.75964
G1 X104.141 Y124.083 E9.76505
G1 X102.962 Y127.205 E9.82055
G1 X102.105 Y127.607 E9.83629
G1 X95 Y130.922 E9.96668
G0 X95 Y130.491
;TYPE:SKIN
G1 X87.349 Y126.92 E10.10709
G1 X86.162 Y123.785 E10.16284
G1 X86.291 Y123.472 E10.16847
G1 X87.868 Y119.687 E10.23666
G1 X87.898 Y119.658 E10.23735
G1 X87.898 Y119.617 E10.23803
G1 X88.265 Y118.756 E10.2536
G1 X87.958 Y120.206 E10.27825
G1 X91.053 Y120.306 E10.32974
G1 X91.289 Y119.506 E10.34362
G1 X93.271 Y112.503 E10.46465
G1 X95 Y110.397 E10.50996
G1 X96.728 Y112.501 E10.55524
G1 X97.007 Y113.485 E10.57225
G1 X98.937 Y120.3 E10.69004
G1 X100.826 Y120.245 E10.72147
G1 X102.053 Y120.183 E10.7419
G1 X101.73 Y118.737 E10.76654
G1 X102.117 Y119.651 E10.78305
G1 X103.837 Y123.785 E10.85751
G1 X103.776 Y123.945 E10.86036
G1 X102.653 Y126.919 E10.91322
G1 X95 Y130.491 E11.05367
G0 X94.881 Y130.744
G0 X87.176 Y127.079
G0 X87.034 Y126.881
G0 X87.633 Y126.655
G1 X88.468 Y127.044 E11.06899
G1 X87.362 Y125.938 E11.095
G1 X87.017 Y125.028 E11.11119
G1 X89.528 Y127.539 E11.17024
G1 X90.588 Y128.033 E11.18969
G1 X86.673 Y124.118 E11.28177
G1 X86.549 Y123.789 E11.28761
G1 X86.623 Y123.608 E11.29086
G1 X86.654 Y123.533 E11.29221
G1 X91.649 Y128.528 E11.40969
G1 X92.71 Y129.023 E11.42916
G1 X86.82 Y123.134 E11.56767
G1 X86.987 Y122.735 E11.57486
G1 X93.769 Y129.518 E11.73438
G1 X94.83 Y130.012 E11.75384
G1 X87.153 Y122.335 E11.93439
G1 X87.319 Y121.936 E11.94158
