;FLAVOR:Marlin
;TIME:982
;Filament used: 0.363176m
;Layer height: 0.1
;MINX:74.553
;MINY:91.273
;MINZ:0.1
;MAXX:96.521
;MAXY:130.85
;MAXZ:5.4
;Generated with Cura_SteamEngine 4.6.0
M140 S75
M105
M190 S75
M104 S195
M105
M109 S195
M82 ;absolute extrusion mode
G28 ;Home
G1 Z15.0 F6000 ;Move the platform
G92 E0
G1 F200 E3
G92 E0


G0 X0 Y15 F9000 ; Go to front
G0 Z0.15 ; Drop to bed
G92 E0 ; zero the extruded length
G1 X40 E25 F500 ; Extrude 25mm of filament in a 4cm line
G92 E0 ; zero the extruded length
G1 E-1 F500 ; Retract a little
G1 X80 F4000 ; Quickly wipe away from the filament line
G1 Z0.3 ; Raise and begin printing.
G92 E0
G92 E0
G1 F1500 E-6
;LAYER_COUNT:54
;LAYER:0
M107
M204 S1000
G0 F2400 X83.699 Y92.933 Z0.1
;TYPE:SKIRT
G1 F1500 E0
G1 F2400 X83.961 Y92.664 E0.00624
G1 X84.056 Y92.583 E0.00832
G1 X84.242 Y92.436 E0.01226
G1 X84.465 Y92.292 E0.01668
G1 X84.673 Y92.184 E0.02058
G1 X85.034 Y92.055 E0.02695
G1 X85.237 Y92.013 E0.0304
G1 X85.57 Y91.985 E0.03596
G1 X85.741 Y92.001 E0.03881
G1 X85.948 Y92.034 E0.0423
G1 X86.332 Y92.154 E0.04899
G1 X86.541 Y92.254 E0.05284
G1 X86.795 Y92.411 E0.05781
G1 X87.009 Y92.577 E0.06231
G1 X87.157 Y92.71 E0.06562
G1 X87.438 Y93.007 E0.07242
G1 X87.64 Y93.253 E0.07771
G1 X88.153 Y94.009 E0.09291
G1 X88.167 Y94.034 E0.09338
G1 X88.34 Y94.318 E0.09891
G1 X88.341 Y94.317 E0.09894
G1 X88.503 Y94.601 E0.10437
G1 X88.527 Y94.64 E0.10514
G1 X88.685 Y94.937 E0.11073
G1 X88.699 Y94.964 E0.11124
G1 X89.039 Y95.638 E0.12379
G1 X89.062 Y95.681 E0.1246
G1 X89.462 Y96.54 E0.14036
G1 X89.475 Y96.58 E0.14106
G1 X89.882 Y97.506 E0.15788
G1 X90.258 Y98.342 E0.17312
G1 X90.263 Y98.35 E0.17328
G1 X90.631 Y99.106 E0.18726
G1 X90.802 Y99.425 E0.19328
G1 X90.84 Y99.485 E0.19446
G1 X90.862 Y99.52 E0.19515
G1 X90.996 Y99.748 E0.19955
G1 X91.168 Y100.002 E0.20465
G1 X91.335 Y100.221 E0.20923
G1 X91.512 Y100.429 E0.21377
G1 X91.879 Y100.827 E0.22278
G1 X92.464 Y101.486 E0.23743
G1 X92.678 Y101.774 E0.2434
G1 X92.68 Y101.773 E0.24343
G1 X92.873 Y102.055 E0.24912
G1 X93.048 Y102.331 E0.25455
G1 X93.044 Y102.334 E0.25464
G1 X93.077 Y102.377 E0.25554
G1 X93.265 Y102.699 E0.26174
G1 X93.289 Y102.742 E0.26256
G1 X93.692 Y103.485 E0.27661
G1 X93.71 Y103.519 E0.27725
G1 X94.273 Y104.626 E0.29791
G1 X94.282 Y104.646 E0.29827
G1 X94.468 Y105.025 E0.30529
G1 X94.487 Y105.058 E0.30593
G1 X94.715 Y105.551 E0.31496
G1 X94.727 Y105.58 E0.31548
G1 X94.924 Y106.03 E0.32365
G1 X94.921 Y106.031 E0.3237
G1 X94.948 Y106.084 E0.32469
G1 X95.149 Y106.603 E0.33395
G1 X95.15 Y106.603 E0.33396
G1 X95.338 Y107.149 E0.34357
G1 X95.339 Y107.149 E0.34358
G1 X95.476 Y107.598 E0.35139
G1 X95.498 Y107.696 E0.35306
G1 X95.5 Y107.695 E0.3531
G1 X95.64 Y108.268 E0.36291
G1 X95.656 Y108.341 E0.36415
G1 X95.768 Y108.908 E0.37376
G1 X95.772 Y108.963 E0.37468
G1 X95.773 Y108.963 E0.37469
G1 X95.83 Y109.319 E0.38069
G1 X95.829 Y109.319 E0.38071
G1 X95.84 Y109.37 E0.38157
G1 X95.927 Y110.069 E0.39329
G1 X95.932 Y110.117 E0.39409
G1 X96.004 Y110.892 E0.40703
G1 X96.005 Y110.929 E0.40765
G1 X96.049 Y111.575 E0.41842
G1 X96.05 Y111.609 E0.41898
G1 X96.088 Y112.446 E0.43292
G1 X96.088 Y112.447 E0.43293
G1 X96.11 Y113.208 E0.4456
G1 X96.111 Y113.25 E0.44629
G1 X96.121 Y114.188 E0.46189
G1 X96.116 Y115.067 E0.47651
G1 X96.116 Y115.094 E0.47696
G1 X96.095 Y115.984 E0.49177
G1 X96.059 Y116.906 E0.50711
G1 X96.035 Y117.363 E0.51472
G1 X96.034 Y117.396 E0.51527
G1 X95.971 Y118.231 E0.5292
G1 X95.968 Y118.267 E0.5298
G1 X95.898 Y118.959 E0.54136
G1 X95.812 Y119.624 E0.55251
G1 X95.809 Y119.624 E0.55256
G1 X95.804 Y119.683 E0.55355
G1 X95.709 Y120.233 E0.56283
G1 X95.702 Y120.232 E0.56295
G1 X95.692 Y120.32 E0.56442
G1 X95.578 Y120.807 E0.57274
G1 X95.575 Y120.806 E0.57279
G1 X95.555 Y120.906 E0.57449
G1 X95.39 Y121.447 E0.58389
G1 X95.391 Y121.447 E0.58391
G1 X95.22 Y121.932 E0.59246
G1 X95.215 Y121.93 E0.59255
G1 X95.188 Y122.018 E0.59408
G1 X94.998 Y122.459 E0.60207
G1 X94.751 Y122.956 E0.6113
G1 X94.526 Y123.372 E0.61916
G1 X94.462 Y123.473 E0.62115
G1 X94.056 Y124.139 E0.63412
G1 X93.83 Y124.477 E0.64088
G1 X93.815 Y124.498 E0.64131
G1 X93.617 Y124.784 E0.6471
G1 X93.338 Y125.16 E0.65488
G1 X93.223 Y125.294 E0.65782
G1 X93.224 Y125.295 E0.65784
G1 X92.935 Y125.6 E0.66483
G1 X92.851 Y125.677 E0.66673
G1 X92.659 Y125.84 E0.67092
G1 X92.513 Y125.949 E0.67395
G1 X92.369 Y126.042 E0.6768
G1 X92.549 Y126.12 E0.68006
G1 X92.816 Y126.32 E0.68561
G1 X93.029 Y126.578 E0.69117
G1 X93.174 Y126.879 E0.69673
G1 X93.243 Y127.206 E0.70228
G1 X93.234 Y127.539 E0.70782
G1 X93.145 Y127.862 E0.7134
G1 X92.983 Y128.154 E0.71895
G1 X92.809 Y128.351 E0.72332
G1 X92.495 Y128.646 E0.73049
G1 X92.356 Y129.284 E0.74134
G1 X92.246 Y129.6 E0.74691
G1 X92.064 Y129.88 E0.75246
G1 X91.822 Y130.11 E0.75801
G1 X91.394 Y130.325 E0.76598
G1 X91.16 Y130.396 E0.77005
G1 X90.832 Y130.454 E0.77559
G1 X90.498 Y130.432 E0.78115
G1 X90.179 Y130.333 E0.78671
G1 X89.814 Y130.094 E0.79396
G1 X89.322 Y129.649 E0.80499
G1 X89.312 Y129.651 E0.80516
G1 X88.978 Y129.642 E0.81072
G1 X88.656 Y129.553 E0.81628
G1 X88.469 Y129.46 E0.81975
G1 X87.778 Y129.049 E0.83312
G1 X87.514 Y128.845 E0.83867
G1 X87.305 Y128.585 E0.84422
G1 X87.164 Y128.282 E0.84977
G1 X87.097 Y127.941 E0.85555
G1 X87.051 Y127.269 E0.86675
G1 X86.582 Y127.04 E0.87543
G1 X86.238 Y126.904 E0.88159
G1 X86.014 Y126.831 E0.8855
G1 X85.536 Y126.741 E0.89359
G1 X85.068 Y126.831 E0.90152
G1 X84.794 Y126.916 E0.90629
G1 X84.716 Y126.951 E0.90771
G1 X84.191 Y127.154 E0.91707
G1 X84.222 Y127.396 E0.92113
G1 X84.185 Y127.728 E0.92668
G1 X84.07 Y128.042 E0.93224
G1 X83.84 Y128.368 E0.93888
G1 X83.571 Y128.653 E0.9454
G1 X83.561 Y128.663 E0.94563
G1 X83.19 Y129.048 E0.95452
G1 X82.931 Y129.26 E0.96009
G1 X82.63 Y129.403 E0.96563
G1 X82.303 Y129.472 E0.97119
G1 X81.969 Y129.461 E0.97675
G1 X81.948 Y129.455 E0.97711
G1 X81.313 Y130.034 E0.9914
G1 X81.035 Y130.22 E0.99696
G1 X80.722 Y130.335 E1.00251
G1 X80.39 Y130.372 E1.00806
G1 X80.026 Y130.321 E1.01418
G1 X79.821 Y130.264 E1.01771
G1 X79.512 Y130.137 E1.02327
G1 X79.242 Y129.94 E1.02883
G1 X79.027 Y129.685 E1.03438
G1 X78.86 Y129.335 E1.04082
G1 X78.746 Y128.966 E1.04725
G1 X78.62 Y128.479 E1.05561
G1 X78.531 Y128.415 E1.05744
G1 X78.313 Y128.162 E1.06299
G1 X78.162 Y127.864 E1.06855
G1 X78.085 Y127.539 E1.0741
G1 X78.087 Y127.205 E1.07965
G1 X78.169 Y126.881 E1.08521
G1 X78.325 Y126.586 E1.09076
G1 X78.546 Y126.336 E1.09631
G1 X78.82 Y126.145 E1.10187
G1 X78.861 Y126.129 E1.1026
G1 X78.799 Y126.101 E1.10373
G1 X78.575 Y125.959 E1.10814
G1 X78.539 Y125.936 E1.10885
G1 X78.396 Y125.826 E1.11185
G1 X78.186 Y125.643 E1.11648
G1 X78.081 Y125.542 E1.11891
G1 X77.799 Y125.237 E1.12581
G1 X77.733 Y125.156 E1.12755
G1 X77.493 Y124.834 E1.13423
G1 X77.15 Y124.341 E1.14422
G1 X77.13 Y124.313 E1.14479
G1 X77.035 Y124.169 E1.14766
G1 X76.706 Y123.64 E1.15802
G1 X76.696 Y123.619 E1.15841
G1 X76.535 Y123.351 E1.1636
G1 X76.505 Y123.286 E1.1648
G1 X76.5 Y123.289 E1.16489
G1 X76.264 Y122.845 E1.17325
G1 X76.04 Y122.378 E1.18187
G1 X75.862 Y121.959 E1.18944
G1 X75.831 Y121.866 E1.19107
G1 X75.828 Y121.867 E1.19112
G1 X75.651 Y121.354 E1.20015
G1 X75.519 Y120.909 E1.20786
G1 X75.505 Y120.828 E1.20923
G1 X75.501 Y120.829 E1.2093
G1 X75.382 Y120.319 E1.21801
G1 X75.373 Y120.235 E1.21941
G1 X75.366 Y120.236 E1.21953
G1 X75.255 Y119.56 E1.23092
G1 X75.252 Y119.56 E1.23097
G1 X75.179 Y119.004 E1.2403
G1 X75.174 Y118.96 E1.24104
G1 X75.104 Y118.271 E1.25255
G1 X75.037 Y117.403 E1.26703
G1 X75.039 Y117.366 E1.26765
G1 X75.001 Y116.65 E1.27957
G1 X74.972 Y115.798 E1.29375
G1 X74.971 Y115.776 E1.29411
G1 X74.955 Y114.942 E1.30799
G1 X74.953 Y113.953 E1.32443
G1 X74.953 Y113.928 E1.32485
G1 X74.965 Y113.091 E1.33877
G1 X74.995 Y112.212 E1.3534
G1 X74.996 Y112.184 E1.35386
G1 X75.04 Y111.348 E1.36778
G1 X75.041 Y111.325 E1.36817
G1 X75.068 Y110.927 E1.3748
G1 X75.069 Y110.889 E1.37543
G1 X75.141 Y110.12 E1.38828
G1 X75.146 Y110.077 E1.389
G1 X75.234 Y109.369 E1.40086
G1 X75.246 Y109.32 E1.4017
G1 X75.243 Y109.319 E1.40175
G1 X75.324 Y108.811 E1.41031
G1 X75.329 Y108.812 E1.41039
G1 X75.334 Y108.759 E1.41128
G1 X75.435 Y108.248 E1.41994
G1 X75.442 Y108.249 E1.42006
G1 X75.452 Y108.167 E1.42143
G1 X75.596 Y107.603 E1.43111
G1 X75.766 Y107.067 E1.44046
G1 X75.764 Y107.066 E1.4405
G1 X75.948 Y106.544 E1.44971
G1 X75.963 Y106.502 E1.45045
G1 X76.165 Y105.989 E1.45962
G1 X76.202 Y105.912 E1.46104
G1 X76.365 Y105.536 E1.46785
G1 X76.424 Y105.415 E1.47009
G1 X76.818 Y104.588 E1.48533
G1 X76.873 Y104.488 E1.48722
G1 X77.41 Y103.435 E1.50688
G1 X77.427 Y103.403 E1.50748
G1 X77.822 Y102.676 E1.52124
G1 X78.01 Y102.355 E1.52743
G1 X78.053 Y102.293 E1.52868
G1 X78.051 Y102.292 E1.52872
G1 X78.29 Y101.926 E1.53599
G1 X78.548 Y101.565 E1.54337
G1 X78.633 Y101.457 E1.54565
G1 X78.92 Y101.129 E1.5529
G1 X78.943 Y101.099 E1.55353
G1 X79.592 Y100.392 E1.56949
G1 X79.777 Y100.169 E1.57431
G1 X79.913 Y99.992 E1.57802
G1 X80.072 Y99.756 E1.58275
G1 X80.259 Y99.444 E1.5888
G1 X80.467 Y99.06 E1.59607
G1 X80.651 Y98.689 E1.60295
G1 X80.844 Y98.283 E1.61043
G1 X81.025 Y97.887 E1.61767
G1 X81.611 Y96.54 E1.6421
G1 X81.987 Y95.732 E1.65692
G1 X82.006 Y95.693 E1.65764
G1 X82.392 Y94.929 E1.67188
G1 X82.397 Y94.92 E1.67205
G1 X82.546 Y94.641 E1.67731
G1 X82.569 Y94.599 E1.6781
G1 X82.734 Y94.312 E1.68361
G1 X82.756 Y94.274 E1.68434
G1 X82.933 Y93.987 E1.68995
G1 X83.166 Y93.626 E1.69709
G1 X83.425 Y93.262 E1.70452
G1 X83.699 Y92.933 E1.71164
G0 X83.411 Y92.656
G1 X83.69 Y92.37 E1.71829
G1 X83.703 Y92.358 E1.71858
G1 X83.808 Y92.269 E1.72087
G1 X83.994 Y92.122 E1.72481
G1 X84.281 Y91.937 E1.73049
G1 X84.489 Y91.829 E1.73439
G1 X84.953 Y91.663 E1.74258
G1 X85.156 Y91.621 E1.74603
G1 X85.533 Y91.584 E1.75233
G1 X85.804 Y91.606 E1.75685
G1 X86.011 Y91.639 E1.76034
G1 X86.505 Y91.793 E1.76894
G1 X86.714 Y91.893 E1.7728
G1 X87.04 Y92.095 E1.77917
G1 X87.254 Y92.261 E1.78368
G1 X87.445 Y92.432 E1.78794
G1 X87.65 Y92.644 E1.79284
G1 X87.747 Y92.753 E1.79527
G1 X87.949 Y92.999 E1.80056
G1 X88.06 Y93.149 E1.80367
G1 X88.115 Y93.232 E1.80532
G1 X88.22 Y93.378 E1.80831
G1 X88.5 Y93.81 E1.81688
G1 X88.525 Y93.853 E1.8177
G1 X88.687 Y94.12 E1.8229
G1 X88.689 Y94.119 E1.82293
G1 X88.851 Y94.403 E1.82837
G1 X88.847 Y94.405 E1.82845
G1 X88.88 Y94.453 E1.82941
G1 X89.038 Y94.75 E1.83501
G1 X89.056 Y94.784 E1.83565
G1 X89.396 Y95.458 E1.8482
G1 X89.391 Y95.46 E1.84829
G1 X89.425 Y95.512 E1.84933
G1 X89.825 Y96.371 E1.86508
G1 X89.843 Y96.423 E1.866
G1 X90.241 Y97.329 E1.88246
G1 X90.622 Y98.175 E1.89789
G1 X90.971 Y98.892 E1.91115
G1 X91.153 Y99.23 E1.91753
G1 X91.328 Y99.524 E1.92322
G1 X91.5 Y99.778 E1.92832
G1 X91.64 Y99.963 E1.93218
G1 X91.805 Y100.156 E1.9364
G1 X92.173 Y100.555 E1.94543
G1 X92.194 Y100.579 E1.94596
G1 X92.808 Y101.277 E1.96142
G1 X92.957 Y101.473 E1.96551
G1 X93.007 Y101.548 E1.96701
G1 X93.009 Y101.546 E1.96706
G1 X93.211 Y101.841 E1.97301
G1 X93.386 Y102.117 E1.97844
G1 X93.38 Y102.121 E1.97856
G1 X93.422 Y102.175 E1.9797
G1 X93.64 Y102.551 E1.98693
G1 X94.043 Y103.294 E2.00098
G1 X94.066 Y103.338 E2.00181
G1 X94.629 Y104.445 E2.02246
G1 X94.829 Y104.853 E2.03002
G1 X94.85 Y104.89 E2.03073
G1 X95.078 Y105.383 E2.03976
G1 X95.291 Y105.869 E2.04858
G1 X95.285 Y105.871 E2.04869
G1 X95.32 Y105.938 E2.04995
G1 X95.527 Y106.471 E2.05945
G1 X95.72 Y107.034 E2.06935
G1 X95.722 Y107.033 E2.06939
G1 X95.859 Y107.482 E2.0772
G1 X95.885 Y107.601 E2.07922
G1 X95.888 Y107.6 E2.07927
G1 X96.028 Y108.171 E2.08905
G1 X96.049 Y108.263 E2.09062
G1 X96.161 Y108.83 E2.10023
G1 X96.167 Y108.899 E2.10138
G1 X96.168 Y108.899 E2.1014
G1 X96.225 Y109.255 E2.1074
G1 X96.221 Y109.256 E2.10746
G1 X96.237 Y109.321 E2.10858
G1 X96.328 Y110.08 E2.12129
G1 X96.33 Y110.08 E2.12132
G1 X96.402 Y110.855 E2.13427
G1 X96.404 Y110.902 E2.13505
G1 X96.448 Y111.548 E2.14582
G1 X96.488 Y112.446 E2.16077
G1 X96.488 Y112.447 E2.16078
G1 X96.511 Y113.248 E2.17411
G1 X96.511 Y113.25 E2.17414
G1 X96.521 Y114.184 E2.18968
G1 X96.516 Y115.07 E2.20441
G1 X96.515 Y115.103 E2.20496
G1 X96.494 Y115.993 E2.21976
G1 X96.494 Y116.023 E2.22026
G1 X96.459 Y116.922 E2.23522
G1 X96.458 Y116.948 E2.23566
G1 X96.435 Y117.384 E2.24292
G1 X96.433 Y117.426 E2.24362
G1 X96.37 Y118.261 E2.25754
G1 X96.366 Y118.307 E2.25831
G1 X96.29 Y119.049 E2.27071
G1 X96.209 Y119.675 E2.28121
G1 X96.205 Y119.674 E2.28128
G1 X96.198 Y119.751 E2.28257
G1 X96.103 Y120.301 E2.29185
G1 X96.095 Y120.3 E2.29198
G1 X96.082 Y120.411 E2.29384
G1 X95.968 Y120.898 E2.30216
G1 X95.963 Y120.897 E2.30224
G1 X95.938 Y121.02 E2.30433
G1 X95.767 Y121.579 E2.31405
G1 X95.769 Y121.58 E2.31409
G1 X95.598 Y122.065 E2.32264
G1 X95.591 Y122.062 E2.32277
G1 X95.556 Y122.175 E2.32474
G1 X95.356 Y122.637 E2.33311
G1 X95.086 Y123.179 E2.34318
G1 X94.933 Y123.467 E2.3486
G1 X94.388 Y124.362 E2.36603
G1 X94.162 Y124.7 E2.37279
G1 X93.946 Y125.012 E2.3791
G1 X93.907 Y125.059 E2.38012
G1 X93.91 Y125.061 E2.38018
G1 X93.66 Y125.398 E2.38715
G1 X93.513 Y125.568 E2.39089
G1 X93.515 Y125.57 E2.39094
G1 X93.225 Y125.876 E2.39795
G1 X93.218 Y125.883 E2.39811
G1 X93.066 Y126.019 E2.40151
G1 X93.214 Y126.158 E2.40488
G1 X93.429 Y126.47 E2.41118
G1 X93.575 Y126.82 E2.41749
G1 X93.644 Y127.193 E2.4238
G1 X93.633 Y127.572 E2.4301
G1 X93.543 Y127.94 E2.4364
G1 X93.379 Y128.281 E2.4427
G1 X93.083 Y128.643 E2.45047
G1 X92.859 Y128.854 E2.45559
G1 X92.746 Y129.37 E2.46437
G1 X92.627 Y129.729 E2.47066
G1 X92.435 Y130.056 E2.47697
G1 X92.179 Y130.335 E2.48327
G1 X91.87 Y130.554 E2.48957
G1 X91.511 Y130.707 E2.49606
G1 X91.277 Y130.778 E2.50012
G1 X90.904 Y130.85 E2.50644
G1 X90.526 Y130.841 E2.51273
G1 X90.157 Y130.754 E2.51903
G1 X89.815 Y130.591 E2.52533
G1 X89.546 Y130.39 E2.53092
G1 X89.173 Y130.052 E2.53929
G1 X89.122 Y130.056 E2.54014
G1 X88.747 Y130.003 E2.54644
G1 X88.265 Y129.804 E2.55511
G1 X87.574 Y129.393 E2.56848
G1 X87.27 Y129.166 E2.57479
G1 X87.021 Y128.881 E2.58108
G1 X86.837 Y128.549 E2.5874
G1 X86.727 Y128.187 E2.59369
G1 X86.698 Y127.968 E2.59736
G1 X86.668 Y127.527 E2.60471
G1 X86.422 Y127.407 E2.60926
G1 X86.108 Y127.283 E2.61488
G1 X85.911 Y127.219 E2.61832
G1 X85.537 Y127.149 E2.62465
G1 X85.161 Y127.221 E2.63102
G1 X84.93 Y127.292 E2.63504
G1 X84.86 Y127.324 E2.63632
G1 X84.616 Y127.419 E2.64067
G1 X84.595 Y127.72 E2.64569
G1 X84.49 Y128.084 E2.65199
G1 X84.311 Y128.418 E2.65829
G1 X84.131 Y128.643 E2.66308
G1 X83.862 Y128.928 E2.6696
G1 X83.849 Y128.941 E2.6699
G1 X83.478 Y129.326 E2.6788
G1 X83.188 Y129.57 E2.6851
G1 X82.853 Y129.747 E2.6914
G1 X82.489 Y129.851 E2.6977
G1 X82.11 Y129.876 E2.70401
G1 X82.087 Y129.873 E2.7044
G1 X81.573 Y130.338 E2.71592
G1 X81.262 Y130.553 E2.72221
G1 X80.912 Y130.698 E2.72851
G1 X80.539 Y130.767 E2.73482
G1 X80.16 Y130.756 E2.74113
G1 X79.919 Y130.706 E2.74522
G1 X79.714 Y130.649 E2.74876
G1 X79.361 Y130.51 E2.75507
G1 X79.046 Y130.3 E2.76136
G1 X78.782 Y130.028 E2.76767
G1 X78.58 Y129.708 E2.77396
G1 X78.479 Y129.455 E2.77849
G1 X78.359 Y129.066 E2.78526
G1 X78.265 Y128.704 E2.79148
G1 X78.072 Y128.508 E2.79605
G1 X77.867 Y128.189 E2.80236
G1 X77.734 Y127.834 E2.80866
G1 X77.678 Y127.459 E2.81497
G1 X77.701 Y127.081 E2.82127
G1 X77.804 Y126.716 E2.82757
G1 X77.98 Y126.381 E2.83387
G1 X78.169 Y126.155 E2.83877
G1 X78.133 Y126.128 E2.83952
G1 X77.923 Y125.945 E2.84415
G1 X77.789 Y125.815 E2.84725
G1 X77.495 Y125.497 E2.85445
G1 X77.413 Y125.395 E2.85663
G1 X77.173 Y125.073 E2.86331
G1 X77.176 Y125.071 E2.86337
G1 X77.136 Y125.023 E2.86441
G1 X76.821 Y124.57 E2.87358
G1 X76.702 Y124.389 E2.87719
G1 X76.675 Y124.348 E2.878
G1 X76.366 Y123.851 E2.88774
G1 X76.353 Y123.825 E2.88822
G1 X76.192 Y123.557 E2.89342
G1 X76.154 Y123.475 E2.89492
G1 X76.148 Y123.478 E2.89503
G1 X75.917 Y123.046 E2.90318
G1 X75.722 Y122.642 E2.91064
G1 X75.672 Y122.535 E2.9126
G1 X75.494 Y122.116 E2.92017
G1 X75.454 Y121.997 E2.92226
G1 X75.45 Y121.999 E2.92234
G1 X75.294 Y121.55 E2.93024
G1 X75.267 Y121.468 E2.93168
G1 X75.135 Y121.023 E2.9394
G1 X75.116 Y120.919 E2.94115
G1 X75.111 Y120.92 E2.94124
G1 X74.992 Y120.41 E2.94995
G1 X74.978 Y120.302 E2.95176
G1 X74.972 Y120.303 E2.95186
G1 X74.866 Y119.681 E2.96235
