;FLAVOR:Marlin
;TIME:3152
;Filament used: 0.648213m
;Layer height: 0.1
;MINX:75.912
;MINY:96.497
;MINZ:0.1
;MAXX:114.421
;MAXY:143.69
;MAXZ:8.5
;Generated with Cura_SteamEngine 4.6.0
M140 S75
M105
M190 S75
M104 S195
M105
M109 S195
M82 ;absolute extrusion mode
G28 ;Home
G1 Z15.0 F6000 ;Move the platform
G92 E0
G1 F200 E3
G92 E0


G0 X0 Y15 F9000 ; Go to front
G0 Z0.15 ; Drop to bed
G92 E0 ; zero the extruded length
G1 X40 E25 F500 ; Extrude 25mm of filament in a 4cm line
G92 E0 ; zero the extruded length
G1 E-1 F500 ; Retract a little
G1 X80 F4000 ; Quickly wipe away from the filament line
G1 Z0.3 ; Raise and begin printing.
G92 E0
G92 E0
G1 F1500 E-6
;LAYER_COUNT:86
;LAYER:0
M107
M204 S1000
G0 F2400 X84.982 Y104.927 Z0.1
;TYPE:SKIRT
G1 F1500 E0
G1 F2400 X85.268 Y104.678 E0.00631
G1 X85.6 Y104.495 E0.01261
G1 X85.963 Y104.386 E0.01891
G1 X86.196 Y104.357 E0.02282
G1 X86.44 Y104.343 E0.02688
G1 X86.663 Y104.354 E0.0306
G1 X86.729 Y104.064 E0.03554
G1 X86.888 Y103.72 E0.04184
G1 X87.115 Y103.417 E0.04814
G1 X87.401 Y103.168 E0.05445
G1 X87.823 Y102.95 E0.06235
G1 X88.788 Y102.602 E0.07941
G1 X88.795 Y102.597 E0.07955
G1 X89.116 Y102.445 E0.08545
G1 X90.776 Y101.843 E0.11482
G1 X90.834 Y101.813 E0.11591
G1 X91.273 Y101.654 E0.12367
G1 X91.503 Y101.603 E0.12759
G1 X91.88 Y101.56 E0.1339
G1 X91.923 Y101.564 E0.13462
G1 X91.922 Y101.509 E0.13553
G1 X91.955 Y101.284 E0.13931
G1 X92.008 Y101.03 E0.14363
G1 X91.952 Y100.743 E0.14849
G1 X91.957 Y100.373 E0.15464
G1 X91.973 Y100.237 E0.15692
G1 X92.035 Y99.935 E0.16205
G1 X92.041 Y99.914 E0.16241
G1 X92.044 Y99.825 E0.16389
G1 X92.091 Y99.172 E0.17478
G1 X92.112 Y98.975 E0.17808
G1 X92.202 Y98.574 E0.18491
G1 X92.404 Y97.995 E0.19511
G1 X92.413 Y97.944 E0.19597
G1 X92.558 Y97.594 E0.20227
G1 X92.773 Y97.282 E0.20857
G1 X93.133 Y96.963 E0.21657
G1 X93.308 Y96.845 E0.22008
G1 X93.642 Y96.667 E0.22637
G1 X94.007 Y96.563 E0.23269
G1 X94.237 Y96.541 E0.23653
G1 X94.273 Y96.538 E0.23713
G1 X94.97 Y96.497 E0.24874
G1 X95.133 Y96.502 E0.25145
G1 X95.599 Y96.539 E0.25923
G1 X95.746 Y96.539 E0.26167
G1 X95.955 Y96.565 E0.26517
G1 X96.324 Y96.651 E0.27147
G1 X96.667 Y96.812 E0.27777
G1 X97.053 Y97.127 E0.28606
G1 X97.334 Y97.43 E0.29293
G1 X97.561 Y97.733 E0.29923
G1 X97.719 Y98.078 E0.30554
G1 X97.805 Y98.474 E0.31228
G1 X97.882 Y99.253 E0.3253
G1 X97.922 Y99.935 E0.33666
G1 X98.001 Y100.24 E0.3419
G1 X98.135 Y101.472 E0.36251
G1 X98.136 Y101.573 E0.36419
G1 X98.403 Y101.591 E0.36864
G1 X98.709 Y101.672 E0.3739
G1 X102.189 Y102.936 E0.43547
G1 X102.529 Y103.102 E0.44176
G1 X102.827 Y103.336 E0.44806
G1 X103.07 Y103.627 E0.45437
G1 X103.246 Y103.962 E0.46066
G1 X103.349 Y104.327 E0.46697
G1 X103.351 Y104.356 E0.46745
G1 X103.455 Y104.349 E0.46919
G1 X103.698 Y104.352 E0.47323
G1 X104.075 Y104.397 E0.47954
G1 X104.433 Y104.519 E0.48583
G1 X104.758 Y104.714 E0.49213
G1 X104.96 Y104.89 E0.49659
G1 X105.075 Y105.007 E0.49932
G1 X105.31 Y105.304 E0.50562
G1 X105.479 Y105.643 E0.51192
G1 X105.572 Y106.011 E0.51823
G1 X105.591 Y106.269 E0.52253
G1 X105.591 Y106.471 E0.52589
G1 X105.902 Y106.523 E0.53113
G1 X106.254 Y106.661 E0.53742
G1 X106.57 Y106.871 E0.54373
G1 X106.835 Y107.142 E0.55003
G1 X107.038 Y107.462 E0.55634
G1 X107.168 Y107.818 E0.56264
G1 X107.223 Y108.258 E0.57001
G1 X107.223 Y108.386 E0.57214
G1 X107.214 Y109.224 E0.58608
G1 X107.154 Y109.667 E0.59351
G1 X106.878 Y110.706 E0.61139
G1 X106.742 Y111.06 E0.6177
G1 X106.536 Y111.378 E0.624
G1 X106.268 Y111.645 E0.63029
G1 X105.949 Y111.851 E0.6366
G1 X105.595 Y111.985 E0.6429
G1 X105.22 Y112.042 E0.64921
G1 X104.893 Y112.027 E0.65465
G1 X104.381 Y111.957 E0.66324
G1 X103.005 Y112.495 E0.68781
G1 X102.483 Y112.614 E0.69672
G1 X101.155 Y112.717 E0.71887
G1 X101.067 Y112.716 E0.72033
G1 X102.147 Y115.353 E0.76772
G1 X102.244 Y115.672 E0.77327
G1 X102.251 Y115.706 E0.77384
G1 X102.274 Y115.895 E0.77701
G1 X102.306 Y115.99 E0.77868
G1 X102.418 Y116.419 E0.78605
G1 X102.417 Y116.419 E0.78607
G1 X102.451 Y116.563 E0.78853
G1 X102.539 Y117.032 E0.79646
G1 X102.56 Y117.176 E0.79888
G1 X102.562 Y117.195 E0.7992
G1 X102.572 Y117.383 E0.80233
G1 X102.572 Y120.244 E0.84991
G1 X102.59 Y120.651 E0.85669
G1 X102.588 Y120.746 E0.85827
G1 X102.481 Y123.037 E0.89641
G1 X102.479 Y123.037 E0.89644
G1 X102.481 Y123.092 E0.89736
G1 X102.438 Y123.615 E0.90608
G1 X102.372 Y124.102 E0.91426
G1 X102.367 Y124.101 E0.91434
G1 X102.361 Y124.171 E0.91551
G1 X102.118 Y125.562 E0.93899
G1 X102.267 Y125.413 E0.9425
G1 X102.562 Y125.175 E0.9488
G1 X102.9 Y125.004 E0.9551
G1 X103.266 Y124.907 E0.9614
G1 X103.645 Y124.889 E0.9677
G1 X103.982 Y124.943 E0.97338
G1 X106.093 Y125.002 E1.0085
G1 X106.114 Y124.968 E1.00917
G1 X106.346 Y124.669 E1.01546
G1 X106.636 Y124.425 E1.02176
G1 X106.811 Y124.32 E1.02516
G1 X106.997 Y124.223 E1.02864
G1 X107.528 Y123.921 E1.0388
G1 X107.879 Y123.777 E1.04511
G1 X108.38 Y123.706 E1.05353
G1 X110.003 Y123.706 E1.08052
G1 X110.38 Y123.746 E1.08682
G1 X110.878 Y123.933 E1.09567
G1 X111.8 Y124.446 E1.11322
G1 X112.11 Y124.664 E1.11952
G1 X112.367 Y124.942 E1.12581
G1 X112.417 Y125.018 E1.12733
G1 X112.483 Y125.086 E1.1289
G1 X112.684 Y125.407 E1.1352
G1 X112.834 Y125.856 E1.14307
G1 X112.859 Y125.986 E1.14528
G1 X113.426 Y127.346 E1.16978
G1 X113.562 Y127.553 E1.1739
G1 X113.736 Y127.889 E1.18019
G1 X113.835 Y128.255 E1.1865
G1 X113.84 Y128.483 E1.19029
G1 X114.32 Y129.819 E1.2139
G1 X114.41 Y130.187 E1.2202
G1 X114.421 Y130.566 E1.2265
G1 X114.352 Y130.938 E1.23279
G1 X114.207 Y131.288 E1.23909
G1 X113.992 Y131.6 E1.2454
G1 X113.716 Y131.86 E1.2517
G1 X113.371 Y132.067 E1.25839
G1 X113.061 Y132.208 E1.26406
G1 X112.838 Y132.424 E1.26922
G1 X112.633 Y137.709 E1.35717
G1 X113.083 Y138.744 E1.37594
G1 X113.196 Y139.106 E1.38225
G1 X113.232 Y139.483 E1.38855
G1 X113.188 Y139.859 E1.39484
G1 X113.066 Y140.218 E1.40115
G1 X112.871 Y140.543 E1.40745
G1 X112.552 Y140.871 E1.41506
G1 X111.513 Y141.697 E1.43713
G1 X111.193 Y141.9 E1.44344
G1 X110.838 Y142.032 E1.44974
G1 X110.393 Y142.088 E1.45719
G1 X108.053 Y142.088 E1.49611
G1 X107.676 Y142.048 E1.50241
G1 X107.316 Y141.93 E1.50871
G1 X106.989 Y141.74 E1.515
G1 X106.708 Y141.485 E1.52131
G1 X106.488 Y141.176 E1.52762
G1 X106.383 Y140.959 E1.53163
G1 X105.809 Y139.531 E1.55722
G1 X105.705 Y139.167 E1.56352
G1 X105.68 Y138.789 E1.56982
G1 X105.735 Y138.414 E1.57612
G1 X105.867 Y138.059 E1.58242
G1 X106.071 Y137.739 E1.58873
G1 X106.161 Y137.638 E1.59098
G1 X105.988 Y137.196 E1.59888
G1 X104.766 Y137.807 E1.6216
G1 X104.411 Y137.94 E1.6279
G1 X104.037 Y137.995 E1.63419
G1 X103.658 Y137.971 E1.6405
G1 X103.438 Y137.919 E1.64426
G1 X101.727 Y137.4 E1.674
G1 X101.491 Y137.61 E1.67925
G1 X101.183 Y137.831 E1.68555
G1 X100.932 Y137.949 E1.69017
G1 X100.724 Y138.028 E1.69387
G1 X100.358 Y138.124 E1.70016
G1 X99.979 Y138.142 E1.70647
G1 X99.487 Y138.043 E1.71481
G1 X98.983 Y137.866 E1.7237
G1 X98.549 Y139.79 E1.7565
G1 X98.553 Y139.814 E1.7569
G1 X98.528 Y140.224 E1.76373
G1 X98.383 Y141.039 E1.7775
G1 X98.283 Y141.931 E1.79243
G1 X98.201 Y142.301 E1.79873
G1 X98.044 Y142.646 E1.80503
G1 X97.817 Y142.95 E1.81134
G1 X97.533 Y143.2 E1.81763
G1 X97.202 Y143.385 E1.82394
G1 X96.7 Y143.518 E1.83258
G1 X95.235 Y143.687 E1.8571
G1 X94.848 Y143.69 E1.86354
G1 X93.358 Y143.539 E1.88844
G1 X92.987 Y143.461 E1.89475
G1 X92.64 Y143.308 E1.90105
G1 X92.334 Y143.085 E1.90735
G1 X92.08 Y142.803 E1.91366
G1 X91.892 Y142.474 E1.91996
G1 X91.755 Y141.987 E1.92838
G1 X91.677 Y141.404 E1.93816
G1 X91.521 Y140.416 E1.95479
G1 X91.36 Y139.55 E1.96944
G1 X91.33 Y139.157 E1.976
G1 X91.158 Y138.099 E1.99382
G1 X90.756 Y137.997 E2.00072
G1 X90.55 Y138.093 E2.0045
G1 X90.149 Y138.181 E2.01133
G1 X90.031 Y138.193 E2.0133
G1 X89.652 Y138.191 E2.0196
G1 X89.282 Y138.11 E2.0259
G1 X88.949 Y137.961 E2.03197
G1 X88.833 Y137.894 E2.0342
G1 X88.499 Y137.646 E2.04111
G1 X88.293 Y137.452 E2.04582
G1 X87.795 Y137.483 E2.05412
G1 X87.773 Y137.495 E2.05453
G1 X87.422 Y137.638 E2.06084
G1 X87.049 Y137.704 E2.06714
G1 X86.733 Y137.695 E2.07239
G1 X86.213 Y137.711 E2.08105
G1 X85.502 Y137.711 E2.09287
G1 X85.125 Y137.671 E2.09917
G1 X84.807 Y137.572 E2.10471
G1 X83.903 Y137.194 E2.12101
G1 X83.886 Y137.478 E2.12574
G1 X83.824 Y137.852 E2.13204
G1 X83.685 Y138.204 E2.13834
G1 X83.534 Y138.431 E2.14287
G1 X83.534 Y138.885 E2.15042
G1 X83.494 Y139.262 E2.15673
G1 X83.376 Y139.622 E2.16303
G1 X83.186 Y139.949 E2.16932
G1 X82.931 Y140.23 E2.17563
G1 X82.751 Y140.37 E2.17942
G1 X82.498 Y140.543 E2.18451
G1 X82.426 Y140.6 E2.18604
G1 X82.106 Y140.803 E2.19234
G1 X81.751 Y140.935 E2.19864
G1 X81.315 Y140.991 E2.20595
G1 X79.693 Y140.999 E2.23293
G1 X79.316 Y140.961 E2.23923
G1 X78.955 Y140.845 E2.24553
G1 X78.627 Y140.656 E2.25183
G1 X78.345 Y140.402 E2.25814
G1 X78.123 Y140.095 E2.26444
G1 X77.937 Y139.632 E2.27274
G1 X77.757 Y138.905 E2.28519
G1 X77.705 Y138.423 E2.29326
G1 X77.721 Y137.841 E2.30294
G1 X77.604 Y137.698 E2.30601
G1 X77.431 Y137.361 E2.31231
G1 X77.332 Y136.995 E2.31862
G1 X77.309 Y136.709 E2.32339
G1 X77.315 Y132.419 E2.39473
G1 X77.048 Y132.298 E2.39961
G1 X76.744 Y132.072 E2.40591
G1 X76.494 Y131.787 E2.41221
G1 X76.309 Y131.456 E2.41852
G1 X76.198 Y131.094 E2.42481
G1 X76.164 Y130.748 E2.4306
G1 X76.164 Y130.523 E2.43434
G1 X76.016 Y130.221 E2.43993
G1 X75.924 Y129.854 E2.44622
G1 X75.912 Y129.475 E2.45253
G1 X75.978 Y129.102 E2.45883
G1 X76.164 Y128.703 E2.46615
G1 X76.164 Y128.46 E2.47019
G1 X76.204 Y128.083 E2.47649
G1 X76.322 Y127.723 E2.48279
G1 X76.512 Y127.396 E2.48908
G1 X76.767 Y127.115 E2.49539
G1 X76.913 Y127.011 E2.49837
G1 X76.963 Y126.611 E2.50508
G1 X76.996 Y126.454 E2.50775
G1 X77.036 Y126.086 E2.5139
G1 X77.116 Y125.716 E2.5202
G1 X77.272 Y125.371 E2.52649
G1 X77.497 Y125.066 E2.5328
G1 X77.745 Y124.866 E2.5381
G1 X77.811 Y124.781 E2.53989
G1 X78.221 Y124.465 E2.54849
G1 X79.103 Y123.968 E2.56533
G1 X79.451 Y123.818 E2.57163
G1 X79.987 Y123.736 E2.58065
G1 X81.379 Y123.736 E2.6038
G1 X81.756 Y123.776 E2.6101
G1 X82.116 Y123.894 E2.6164
G1 X82.559 Y124.177 E2.62515
G1 X83.087 Y124.635 E2.63677
G1 X83.26 Y124.727 E2.64003
G1 X83.575 Y124.939 E2.64634
G1 X83.721 Y125.088 E2.64981
G1 X85.413 Y125.039 E2.67796
G1 X85.415 Y125.039 E2.67799
G1 X87.472 Y124.979 E2.71222
G1 X87.795 Y125.004 E2.7176
G1 X87.653 Y124.177 E2.73156
G1 X87.657 Y124.176 E2.73163
G1 X87.644 Y124.12 E2.73258
G1 X87.577 Y123.644 E2.74058
G1 X87.568 Y123.525 E2.74256
G1 X87.564 Y123.525 E2.74263
G1 X87.521 Y122.973 E2.75184
G1 X87.523 Y122.916 E2.75278
G1 X87.521 Y122.916 E2.75282
G1 X87.417 Y120.672 E2.79018
G1 X87.419 Y120.58 E2.79171
G1 X87.434 Y120.253 E2.79715
G1 X87.435 Y118.536 E2.8257
G1 X87.428 Y117.395 E2.84468
G1 X87.439 Y117.29 E2.84643
G1 X87.444 Y117.004 E2.85119
G1 X87.463 Y116.692 E2.85639
G1 X87.478 Y116.546 E2.85883
G1 X87.481 Y116.525 E2.85918
G1 X87.52 Y116.329 E2.86251
G1 X87.611 Y115.977 E2.86855
G1 X87.662 Y115.813 E2.87141
G1 X87.692 Y115.737 E2.87277
G1 X88.878 Y112.831 E2.92496
G1 X88.863 Y112.832 E2.92521
G1 X86.959 Y112.728 E2.95693
G1 X86.585 Y112.668 E2.96322
G1 X86.232 Y112.531 E2.96952
G1 X85.915 Y112.322 E2.97584
G1 X85.756 Y112.175 E2.97944
G1 X85.425 Y111.829 E2.9874
G1 X85.201 Y111.856 E2.99115
G1 X84.822 Y111.862 E2.99746
G1 X84.451 Y111.788 E3.00375
G1 X84.069 Y111.619 E3.01069
G1 X83.964 Y111.557 E3.01272
G1 X83.66 Y111.331 E3.01902
G1 X83.409 Y111.046 E3.02534
G1 X83.224 Y110.716 E3.03163
G1 X83.145 Y110.489 E3.03563
G1 X82.924 Y109.693 E3.04936
G1 X82.858 Y109.243 E3.05693
G1 X82.843 Y108.389 E3.07113
G1 X82.877 Y108.011 E3.07744
G1 X82.988 Y107.649 E3.08374
G1 X83.173 Y107.318 E3.09005
G1 X83.423 Y107.033 E3.09635
G1 X83.727 Y106.807 E3.10265
G1 X84.072 Y106.65 E3.10895
G1 X84.395 Y106.578 E3.11446
G1 X84.39 Y106.517 E3.11547
G1 X84.39 Y106.271 E3.11957
G1 X84.43 Y105.894 E3.12587
G1 X84.548 Y105.534 E3.13217
G1 X84.738 Y105.207 E3.13846
G1 X84.873 Y105.044 E3.14198
G1 X84.982 Y104.927 E3.14464
G0 X85.275 Y105.2
G1 X85.53 Y104.984 E3.1502
G1 X85.829 Y104.835 E3.15575
G1 X86.219 Y104.756 E3.16237
G1 X86.463 Y104.742 E3.16643
G1 X86.796 Y104.763 E3.17198
G1 X87.057 Y104.844 E3.17653
G1 X87.033 Y104.656 E3.17968
G1 X87.07 Y104.324 E3.18523
G1 X87.184 Y104.01 E3.19079
G1 X87.37 Y103.732 E3.19635
G1 X87.616 Y103.506 E3.20191
G1 X87.958 Y103.326 E3.20833
G1 X88.999 Y102.951 E3.22674
G1 X89.071 Y102.901 E3.22819
G1 X89.251 Y102.821 E3.23147
G1 X90.952 Y102.203 E3.26157
G1 X91.019 Y102.168 E3.26282
G1 X91.36 Y102.044 E3.26886
G1 X91.59 Y101.993 E3.27278
G1 X91.922 Y101.96 E3.27832
G1 X92.253 Y102.007 E3.28388
G1 X92.385 Y102.06 E3.28625
G1 X92.33 Y101.854 E3.28979
G1 X92.346 Y101.367 E3.2979
G1 X92.417 Y101.027 E3.30367
G1 X92.408 Y100.997 E3.30419
G1 X92.348 Y100.668 E3.30976
G1 X92.355 Y100.419 E3.3139
G1 X92.371 Y100.283 E3.31618
G1 X92.419 Y100.048 E3.32017
G1 X92.44 Y99.977 E3.3214
G1 X92.443 Y99.852 E3.32348
G1 X92.489 Y99.215 E3.3341
G1 X92.51 Y99.018 E3.33739
G1 X92.58 Y98.706 E3.34271
G1 X92.794 Y98.092 E3.35352
G1 X92.808 Y98.02 E3.35474
G1 X92.949 Y97.717 E3.3603
G1 X93.158 Y97.456 E3.36586
G1 X93.356 Y97.294 E3.37011
G1 X93.531 Y97.176 E3.37362
G1 X93.829 Y97.024 E3.37919
G1 X94.262 Y96.94 E3.38652
G1 X94.28 Y96.938 E3.38682
G1 X94.882 Y96.9 E3.39686
G1 X95.102 Y96.901 E3.40051
G1 X95.555 Y96.936 E3.40807
G1 X95.697 Y96.936 E3.41043
G1 X95.906 Y96.962 E3.41393
G1 X96.23 Y97.042 E3.41948
G1 X96.526 Y97.197 E3.42504
G1 X96.76 Y97.399 E3.43018
G1 X97.041 Y97.702 E3.43705
G1 X97.237 Y97.972 E3.4426
G1 X97.364 Y98.281 E3.44816
G1 X97.407 Y98.514 E3.4521
G1 X97.483 Y99.277 E3.46485
G1 X97.524 Y99.979 E3.47654
G1 X97.604 Y100.284 E3.48179
G1 X97.738 Y101.516 E3.5024
G1 X97.734 Y101.85 E3.50795
G1 X97.688 Y102.029 E3.51102
G1 X97.731 Y102.012 E3.51179
G1 X98.061 Y101.964 E3.51734
G1 X98.394 Y101.996 E3.5229
G1 X98.572 Y102.048 E3.52599
G1 X102.052 Y103.312 E3.58756
G1 X102.35 Y103.463 E3.59311
G1 X102.604 Y103.68 E3.59867
G1 X102.799 Y103.951 E3.60422
G1 X102.925 Y104.26 E3.60977
G1 X102.974 Y104.591 E3.61534
G1 X102.95 Y104.843 E3.61955
G1 X103.021 Y104.811 E3.62084
G1 X103.45 Y104.749 E3.62805
G1 X103.693 Y104.752 E3.63209
G1 X104.024 Y104.796 E3.63764
G1 X104.336 Y104.917 E3.64321
G1 X104.674 Y105.171 E3.65024
G1 X104.789 Y105.288 E3.65297
G1 X104.994 Y105.552 E3.65853
G1 X105.129 Y105.857 E3.66407
G1 X105.191 Y106.269 E3.671
G1 X105.191 Y106.498 E3.67481
G1 X105.151 Y106.83 E3.68037
G1 X105.125 Y106.899 E3.6816
G1 X105.328 Y106.861 E3.68503
G1 X105.662 Y106.879 E3.6906
G1 X105.982 Y106.974 E3.69615
G1 X106.27 Y107.143 E3.7017
G1 X106.51 Y107.376 E3.70726
G1 X106.688 Y107.658 E3.71281
G1 X106.794 Y107.975 E3.71837
G1 X106.823 Y108.258 E3.7231
G1 X106.823 Y108.382 E3.72516
G1 X106.814 Y109.22 E3.7391
G1 X106.767 Y109.564 E3.74487
G1 X106.491 Y110.603 E3.76275
G1 X106.367 Y110.914 E3.76832
G1 X106.174 Y111.186 E3.77386
G1 X105.921 Y111.405 E3.77943
G1 X105.624 Y111.557 E3.78498
G1 X105.299 Y111.635 E3.79053
G1 X104.948 Y111.631 E3.79637
G1 X104.333 Y111.547 E3.80669
G1 X102.859 Y112.123 E3.83301
G1 X102.453 Y112.215 E3.83993
G1 X101.116 Y112.319 E3.86224
G1 X100.782 Y112.311 E3.86779
G1 X100.46 Y112.224 E3.87334
G1 X100.424 Y112.204 E3.87402
G1 X101.776 Y115.504 E3.93333
G1 X101.852 Y115.753 E3.93766
G1 X101.859 Y115.787 E3.93824
G1 X101.884 Y115.988 E3.94161
G1 X101.919 Y116.091 E3.94341
G1 X102.031 Y116.52 E3.95079
G1 X102.03 Y116.52 E3.9508
G1 X102.058 Y116.637 E3.95281
G1 X102.162 Y117.217 E3.9626
G1 X102.164 Y117.236 E3.96292
G1 X102.172 Y117.383 E3.96537
G1 X102.172 Y120.264 E4.01328
G1 X102.19 Y120.651 E4.01972
G1 X102.188 Y120.727 E4.02099
G1 X102.081 Y123.018 E4.05913
G1 X102.082 Y123.062 E4.05986
G1 X102.041 Y123.561 E4.06819
G1 X101.975 Y124.048 E4.07636
G1 X101.972 Y124.048 E4.07641
G1 X101.967 Y124.102 E4.07731
G1 X101.592 Y126.234 E4.11331
G1 X101.483 Y126.692 E4.12114
G1 X101.62 Y126.626 E4.12367
G1 X102.55 Y125.696 E4.14554
G1 X102.813 Y125.49 E4.1511
G1 X103.117 Y125.351 E4.15666
G1 X103.445 Y125.289 E4.16221
G1 X103.9 Y125.333 E4.16981
G1 X103.932 Y125.342 E4.17036
G1 X106.312 Y125.408 E4.20996
G1 X106.454 Y125.179 E4.21444
G1 X106.662 Y124.918 E4.21999
