;FLAVOR:Marlin
;TIME:1380
;Filament used: 0.331402m
;Layer height: 0.1
;MINX:83.131
;MINY:102.715
;MINZ:0.1
;MAXX:106.867
;MAXY:137.41
;MAXZ:7.3
;Generated with Cura_SteamEngine 4.6.0
M140 S75
M105
M190 S75
M104 S195
M105
M109 S195
M82 ;absolute extrusion mode
G28 ;Home
G1 Z15.0 F6000 ;Move the platform
G92 E0
G1 F200 E3
G92 E0


G0 X0 Y15 F9000 ; Go to front
G0 Z0.15 ; Drop to bed
G92 E0 ; zero the extruded length
G1 X40 E25 F500 ; Extrude 25mm of filament in a 4cm line
G92 E0 ; zero the extruded length
G1 E-1 F500 ; Retract a little
G1 X80 F4000 ; Quickly wipe away from the filament line
G1 Z0.3 ; Raise and begin printing.
G92 E0
G92 E0
G1 F1500 E-6
;LAYER_COUNT:74
;LAYER:0
M107
M204 S1000
G0 F2400 X92.189 Y103.339 Z0.1
;TYPE:SKIRT
G1 F1500 E0
G1 F2400 X92.581 Y103.031 E0.00829
G1 X92.703 Y102.96 E0.01064
G1 X93.048 Y102.805 E0.01693
G1 X93.607 Y102.716 E0.02634
G1 X96.38 Y102.715 E0.07246
G1 X96.757 Y102.755 E0.07876
G1 X97.09 Y102.86 E0.08457
G1 X97.266 Y102.939 E0.08778
G1 X97.591 Y103.136 E0.0941
G1 X97.93 Y103.473 E0.10205
G1 X98.029 Y103.602 E0.10475
G1 X98.174 Y103.823 E0.10915
G1 X98.413 Y104.252 E0.11731
G1 X98.467 Y104.324 E0.11881
G1 X98.604 Y104.57 E0.12349
G1 X98.689 Y104.682 E0.12583
G1 X98.756 Y104.803 E0.12813
G1 X98.761 Y104.808 E0.12825
G1 X98.911 Y105.032 E0.13273
G1 X99.059 Y105.292 E0.13771
G1 X99.156 Y105.488 E0.14134
G1 X99.248 Y105.708 E0.14531
G1 X99.378 Y106.218 E0.15406
G1 X99.545 Y107.841 E0.18119
G1 X99.546 Y107.86 E0.18151
G1 X99.657 Y109.063 E0.2016
G1 X99.685 Y109.252 E0.20478
G1 X99.731 Y109.703 E0.21232
G1 X99.732 Y109.721 E0.21262
G1 X99.941 Y111.988 E0.25048
G1 X99.99 Y112.413 E0.25759
G1 X99.994 Y112.452 E0.25824
G1 X100.165 Y114.28 E0.28878
G1 X101.676 Y117.057 E0.34135
G1 X101.881 Y117.265 E0.34621
G1 X102.047 Y117.335 E0.3492
G1 X102.378 Y117.519 E0.3555
G1 X102.653 Y117.757 E0.36155
G1 X103.195 Y118.332 E0.37469
G1 X103.424 Y118.634 E0.38099
G1 X103.566 Y118.92 E0.3863
G1 X103.679 Y119.282 E0.39261
G1 X103.713 Y119.632 E0.39846
G1 X103.713 Y120.65 E0.41539
G1 X104.366 Y121.677 E0.43563
G1 X104.592 Y122.042 E0.44277
G1 X104.756 Y122.384 E0.44907
G1 X104.845 Y122.752 E0.45537
G1 X104.855 Y123.131 E0.46168
G1 X104.804 Y123.403 E0.46628
G1 X105.484 Y123.695 E0.47858
G1 X105.815 Y123.88 E0.48489
G1 X106.099 Y124.131 E0.49119
G1 X106.281 Y124.365 E0.49612
G1 X106.574 Y124.814 E0.50504
G1 X106.747 Y125.152 E0.51135
G1 X106.845 Y125.518 E0.51766
G1 X106.867 Y125.798 E0.52233
G1 X106.867 Y126.514 E0.53423
G1 X106.827 Y126.891 E0.54054
G1 X106.709 Y127.251 E0.54684
G1 X106.519 Y127.578 E0.55313
G1 X106.34 Y127.787 E0.5577
G1 X104.428 Y129.699 E0.60267
G1 X104.133 Y129.937 E0.60897
G1 X104.002 Y130.003 E0.61141
G1 X104.008 Y130.013 E0.61161
G1 X104.129 Y130.373 E0.61792
G1 X104.172 Y130.761 E0.62442
G1 X104.173 Y131.489 E0.63652
G1 X104.134 Y131.865 E0.64281
G1 X104.016 Y132.226 E0.64913
G1 X103.826 Y132.553 E0.65541
G1 X103.619 Y132.79 E0.66065
G1 X103.497 Y132.907 E0.66346
G1 X103.197 Y133.139 E0.66977
G1 X102.856 Y133.303 E0.67606
G1 X102.487 Y133.392 E0.68237
G1 X102.175 Y133.406 E0.68756
G1 X101.937 Y133.396 E0.69153
G1 X101.394 Y133.288 E0.70073
G1 X101.14 Y133.195 E0.70523
G1 X101.127 Y133.189 E0.70547
G1 X100.98 Y133.476 E0.71083
G1 X100.74 Y133.769 E0.71713
G1 X100.689 Y133.81 E0.71822
G1 X100.339 Y134.609 E0.73272
G1 X100.151 Y134.938 E0.73903
G1 X99.899 Y135.221 E0.74533
G1 X99.637 Y135.417 E0.75077
G1 X99.532 Y135.482 E0.75282
G1 X99.191 Y135.647 E0.75912
G1 X98.823 Y135.736 E0.76542
G1 X98.763 Y135.74 E0.76642
G1 X98.749 Y135.87 E0.76859
G1 X98.631 Y136.23 E0.77489
G1 X98.441 Y136.557 E0.78118
G1 X98.262 Y136.766 E0.78576
G1 X98.145 Y136.883 E0.78851
G1 X97.85 Y137.121 E0.79481
G1 X97.512 Y137.292 E0.80111
G1 X97.146 Y137.389 E0.80741
G1 X96.872 Y137.41 E0.81198
G1 X96.031 Y137.41 E0.82597
G1 X95.654 Y137.37 E0.83227
G1 X95.381 Y137.289 E0.83701
G1 X95 Y137.142 E0.8438
G1 X94.619 Y137.289 E0.85059
G1 X94.253 Y137.387 E0.85689
G1 X93.969 Y137.41 E0.86163
G1 X93.128 Y137.41 E0.87561
G1 X92.751 Y137.37 E0.88192
G1 X92.391 Y137.252 E0.88822
G1 X92.064 Y137.062 E0.89451
G1 X91.855 Y136.883 E0.89909
G1 X91.738 Y136.766 E0.90184
G1 X91.5 Y136.471 E0.90814
G1 X91.329 Y136.133 E0.91444
G1 X91.232 Y135.767 E0.92074
G1 X91.229 Y135.733 E0.9213
G1 X91.03 Y135.712 E0.92463
G1 X90.67 Y135.594 E0.93093
G1 X90.474 Y135.492 E0.93461
G1 X90.37 Y135.429 E0.93663
G1 X90.069 Y135.199 E0.94293
G1 X89.822 Y134.912 E0.94923
G1 X89.662 Y134.629 E0.95463
G1 X89.618 Y134.531 E0.95642
G1 X89.391 Y134.431 E0.96054
G1 X89.084 Y134.209 E0.96684
G1 X88.83 Y133.928 E0.97314
G1 X88.64 Y133.6 E0.97945
G1 X88.544 Y133.303 E0.98464
G1 X88.472 Y133.324 E0.98588
G1 X88.088 Y133.391 E0.99237
G1 X87.87 Y133.405 E0.996
G1 X87.492 Y133.39 E1.00229
G1 X87.125 Y133.295 E1.0086
G1 X86.786 Y133.126 E1.01489
G1 X86.53 Y132.928 E1.02028
G1 X86.403 Y132.81 E1.02316
G1 X86.154 Y132.524 E1.02947
G1 X85.97 Y132.192 E1.03578
G1 X85.86 Y131.83 E1.04207
G1 X85.828 Y131.491 E1.04773
G1 X85.828 Y130.767 E1.05977
G1 X85.868 Y130.39 E1.06608
G1 X85.986 Y130.03 E1.07238
G1 X86.002 Y129.99 E1.07309
G1 X85.614 Y129.704 E1.08111
G1 X83.679 Y127.823 E1.12599
G1 X83.437 Y127.531 E1.1323
G1 X83.261 Y127.196 E1.13859
G1 X83.159 Y126.831 E1.14489
G1 X83.134 Y126.54 E1.14975
G1 X83.131 Y125.825 E1.16164
G1 X83.169 Y125.448 E1.16794
G1 X83.286 Y125.087 E1.17425
G1 X83.399 Y124.872 E1.17829
G1 X83.887 Y124.081 E1.19375
G1 X84.119 Y123.781 E1.20005
G1 X84.408 Y123.537 E1.20634
G1 X84.682 Y123.384 E1.21156
G1 X85.214 Y123.146 E1.22125
G1 X85.221 Y123.088 E1.22223
G1 X85.352 Y122.61 E1.23047
G1 X85.482 Y122.307 E1.23595
G1 X85.645 Y122.007 E1.24163
G1 X85.72 Y121.898 E1.24383
G1 X86.287 Y121.136 E1.25962
G1 X86.287 Y119.641 E1.28449
G1 X86.327 Y119.264 E1.29079
G1 X86.428 Y118.942 E1.2964
G1 X86.463 Y118.859 E1.2979
G1 X86.647 Y118.527 E1.30421
G1 X86.81 Y118.325 E1.30853
G1 X87.343 Y117.758 E1.32147
G1 X87.631 Y117.511 E1.32778
G1 X87.951 Y117.334 E1.33386
G1 X88.117 Y117.263 E1.33687
G1 X88.329 Y117.056 E1.34179
G1 X88.621 Y116.522 E1.35191
G1 X89.842 Y114.234 E1.39504
G1 X90.123 Y111.259 E1.44474
G1 X90.174 Y110.807 E1.4523
G1 X90.499 Y107.34 E1.51021
G1 X90.501 Y107.317 E1.5106
G1 X90.6 Y106.313 E1.52737
G1 X90.681 Y105.928 E1.53392
G1 X90.749 Y105.721 E1.53754
G1 X90.883 Y105.414 E1.54311
G1 X91.086 Y105.046 E1.5501
G1 X91.209 Y104.869 E1.55368
G1 X91.292 Y104.719 E1.55653
G1 X91.386 Y104.585 E1.55926
G1 X91.538 Y104.303 E1.56458
G1 X91.63 Y104.151 E1.56754
G1 X91.736 Y103.994 E1.57069
G1 X91.957 Y103.638 E1.57766
G1 X92.189 Y103.339 E1.58395
G0 X92.505 Y103.588
G1 X92.782 Y103.377 E1.58974
G1 X92.904 Y103.306 E1.59209
G1 X93.211 Y103.174 E1.59765
G1 X93.607 Y103.116 E1.6043
G1 X96.38 Y103.115 E1.65042
G1 X96.712 Y103.155 E1.65598
G1 X96.941 Y103.231 E1.65999
G1 X97.097 Y103.302 E1.66284
G1 X97.38 Y103.479 E1.66839
G1 X97.613 Y103.717 E1.67393
G1 X97.712 Y103.846 E1.67664
G1 X97.825 Y104.018 E1.68006
G1 X98.064 Y104.448 E1.68824
G1 X98.118 Y104.519 E1.68972
G1 X98.254 Y104.763 E1.69437
G1 X98.34 Y104.876 E1.69673
G1 X98.437 Y105.051 E1.70006
G1 X98.471 Y105.087 E1.70088
G1 X98.564 Y105.229 E1.7037
G1 X98.712 Y105.489 E1.70868
G1 X98.787 Y105.642 E1.71151
G1 X98.879 Y105.862 E1.71548
G1 X98.98 Y106.259 E1.72229
G1 X99.147 Y107.882 E1.74942
G1 X99.148 Y107.897 E1.74967
G1 X99.261 Y109.122 E1.77013
G1 X99.287 Y109.293 E1.77301
G1 X99.333 Y109.744 E1.78055
G1 X99.334 Y109.757 E1.78076
G1 X99.544 Y112.034 E1.81879
G1 X99.593 Y112.459 E1.82591
G1 X99.596 Y112.489 E1.82641
G1 X99.774 Y114.4 E1.85832
G1 X101.353 Y117.301 E1.91325
G1 X101.65 Y117.601 E1.92027
G1 X101.89 Y117.703 E1.92461
G1 X102.18 Y117.87 E1.93017
G1 X102.362 Y118.032 E1.93423
G1 X102.904 Y118.607 E1.94737
G1 X103.171 Y119.013 E1.95545
G1 X103.199 Y119.078 E1.95663
G1 X103.293 Y119.399 E1.96219
G1 X103.313 Y119.632 E1.96608
G1 X103.313 Y120.767 E1.98495
G1 X104.028 Y121.892 E2.00712
G1 X104.038 Y121.907 E2.00742
G1 X104.252 Y122.253 E2.01418
G1 X104.392 Y122.556 E2.01974
G1 X104.457 Y122.883 E2.02528
G1 X104.442 Y123.217 E2.03084
G1 X104.349 Y123.538 E2.0364
G1 X104.301 Y123.623 E2.03802
G1 X105.326 Y124.063 E2.05657
G1 X105.615 Y124.23 E2.06212
G1 X105.946 Y124.584 E2.07018
G1 X106.239 Y125.033 E2.0791
G1 X106.387 Y125.332 E2.08465
G1 X106.467 Y125.798 E2.09251
G1 X106.467 Y126.514 E2.10442
G1 X106.427 Y126.846 E2.10998
G1 X106.31 Y127.158 E2.11552
G1 X106.057 Y127.504 E2.12265
G1 X104.145 Y129.416 E2.16761
G1 X103.882 Y129.622 E2.17317
G1 X103.578 Y129.761 E2.17873
G1 X103.394 Y129.796 E2.18184
G1 X103.416 Y129.82 E2.18238
G1 X103.495 Y129.926 E2.18458
G1 X103.661 Y130.216 E2.19014
G1 X103.754 Y130.537 E2.1957
G1 X103.772 Y130.761 E2.19944
G1 X103.773 Y131.489 E2.21154
G1 X103.734 Y131.821 E2.2171
G1 X103.617 Y132.134 E2.22266
G1 X103.342 Y132.501 E2.23028
G1 X103.22 Y132.618 E2.2331
G1 X102.953 Y132.819 E2.23865
G1 X102.646 Y132.951 E2.24421
G1 X102.192 Y133.007 E2.25182
G1 X101.954 Y132.997 E2.25578
G1 X101.532 Y132.913 E2.26294
G1 X101.278 Y132.82 E2.26743
G1 X100.994 Y132.678 E2.27271
G1 X100.863 Y132.593 E2.27531
G1 X100.834 Y132.826 E2.27922
G1 X100.715 Y133.138 E2.28477
G1 X100.526 Y133.413 E2.29032
G1 X100.365 Y133.551 E2.29384
G1 X99.973 Y134.448 E2.31012
G1 X99.803 Y134.736 E2.31569
G1 X99.57 Y134.976 E2.32125
G1 X99.427 Y135.077 E2.32416
G1 X99.322 Y135.142 E2.32621
G1 X99.019 Y135.283 E2.33177
G1 X98.585 Y135.352 E2.33908
G1 X98.389 Y135.352 E2.34234
G1 X98.389 Y135.493 E2.34468
G1 X98.349 Y135.825 E2.35024
G1 X98.232 Y136.137 E2.35579
G1 X97.979 Y136.483 E2.36291
G1 X97.862 Y136.6 E2.36567
G1 X97.599 Y136.806 E2.37122
G1 X97.295 Y136.945 E2.37678
G1 X96.872 Y137.01 E2.3839
G1 X96.031 Y137.01 E2.39788
G1 X95.699 Y136.97 E2.40344
G1 X95.526 Y136.916 E2.40646
G1 X95 Y136.712 E2.41584
G1 X94.474 Y136.916 E2.42522
G1 X94.151 Y136.998 E2.43076
G1 X93.969 Y137.01 E2.4338
G1 X93.128 Y137.01 E2.44778
G1 X92.796 Y136.97 E2.45334
G1 X92.484 Y136.853 E2.45889
G1 X92.138 Y136.6 E2.46601
G1 X92.021 Y136.483 E2.46877
G1 X91.815 Y136.22 E2.47432
G1 X91.676 Y135.916 E2.47988
G1 X91.611 Y135.493 E2.487
G1 X91.611 Y135.352 E2.48934
G1 X91.407 Y135.352 E2.49274
G1 X91.075 Y135.312 E2.4983
G1 X90.682 Y135.149 E2.50537
G1 X90.578 Y135.086 E2.50739
G1 X90.315 Y134.88 E2.51295
G1 X90.108 Y134.618 E2.5185
G1 X90.027 Y134.465 E2.52138
G1 X89.917 Y134.222 E2.52582
G1 X89.859 Y134.203 E2.52683
G1 X89.556 Y134.064 E2.53238
G1 X89.293 Y133.857 E2.53794
G1 X89.087 Y133.594 E2.5435
G1 X88.95 Y133.29 E2.54904
G1 X88.888 Y132.961 E2.55461
G1 X88.9 Y132.731 E2.55844
G1 X88.886 Y132.74 E2.55872
G1 X88.555 Y132.884 E2.56472
G1 X88.361 Y132.94 E2.56808
G1 X88.063 Y132.992 E2.57311
G1 X87.845 Y133.006 E2.57674
G1 X87.511 Y132.988 E2.5823
G1 X87.192 Y132.891 E2.58785
G1 X86.802 Y132.635 E2.59561
G1 X86.675 Y132.517 E2.59849
G1 X86.459 Y132.262 E2.60405
G1 X86.31 Y131.963 E2.6096
G1 X86.228 Y131.491 E2.61757
G1 X86.228 Y130.767 E2.62961
G1 X86.268 Y130.435 E2.63517
G1 X86.385 Y130.123 E2.64071
G1 X86.479 Y129.967 E2.64374
G1 X86.55 Y129.865 E2.64581
G1 X86.621 Y129.785 E2.64759
G1 X86.354 Y129.715 E2.65218
G1 X86.061 Y129.556 E2.65772
G1 X85.893 Y129.417 E2.66135
G1 X83.958 Y127.536 E2.70623
G1 X83.748 Y127.276 E2.71178
G1 X83.606 Y126.974 E2.71733
G1 X83.534 Y126.538 E2.72468
G1 X83.531 Y125.823 E2.73657
G1 X83.569 Y125.491 E2.74213
G1 X83.74 Y125.082 E2.7495
G1 X84.228 Y124.291 E2.76496
G1 X84.436 Y124.03 E2.77051
G1 X84.846 Y123.749 E2.77877
G1 X85.582 Y123.419 E2.79219
G1 X85.618 Y123.139 E2.79688
G1 X85.719 Y122.768 E2.80328
G1 X85.849 Y122.465 E2.80876
G1 X85.983 Y122.221 E2.81339
G1 X86.041 Y122.137 E2.81509
G1 X86.687 Y121.269 E2.83308
G1 X86.687 Y119.641 E2.86016
G1 X86.727 Y119.309 E2.86572
G1 X86.797 Y119.097 E2.86943
G1 X86.832 Y119.014 E2.87093
G1 X87.102 Y118.599 E2.87916
G1 X87.635 Y118.032 E2.8921
G1 X87.891 Y117.818 E2.89765
G1 X88.107 Y117.703 E2.90172
G1 X88.343 Y117.603 E2.90598
G1 X88.651 Y117.3 E2.91317
G1 X88.972 Y116.714 E2.92428
G1 X90.232 Y114.352 E2.9688
G1 X90.521 Y111.296 E3.01985
G1 X90.575 Y110.822 E3.02778
G1 X90.897 Y107.374 E3.08537
G1 X90.899 Y107.357 E3.08566
G1 X90.998 Y106.353 E3.10243
G1 X91.061 Y106.053 E3.10753
G1 X91.129 Y105.846 E3.11115
G1 X91.233 Y105.607 E3.11549
G1 X91.436 Y105.239 E3.12248
G1 X91.547 Y105.085 E3.12564
G1 X91.642 Y104.912 E3.12892
G1 X91.724 Y104.797 E3.13127
G1 X91.889 Y104.493 E3.13702
G1 X91.961 Y104.375 E3.13932
G1 X92.07 Y104.213 E3.14256
G1 X92.296 Y103.849 E3.14969
G1 X92.505 Y103.588 E3.15525
G0 X92.817 Y103.843
G1 X92.983 Y103.723 E3.15866
G1 X93.105 Y103.652 E3.161
G1 X93.366 Y103.546 E3.16569
G1 X93.608 Y103.516 E3.16974
G1 X96.381 Y103.515 E3.21586
G1 X96.752 Y103.587 E3.22214
G1 X96.927 Y103.664 E3.22532
G1 X97.163 Y103.818 E3.23001
G1 X97.295 Y103.96 E3.23323
G1 X97.394 Y104.089 E3.23594
G1 X97.475 Y104.212 E3.23839
G1 X97.715 Y104.644 E3.24661
G1 X97.769 Y104.715 E3.24809
G1 X97.904 Y104.957 E3.2527
G1 X97.99 Y105.07 E3.25506
G1 X98.133 Y105.328 E3.25996
G1 X98.216 Y105.427 E3.26211
G1 X98.364 Y105.687 E3.26709
G1 X98.418 Y105.796 E3.26911
G1 X98.51 Y106.016 E3.27308
G1 X98.582 Y106.3 E3.27795
G1 X98.749 Y107.923 E3.30508
G1 X98.75 Y107.933 E3.30525
G1 X98.864 Y109.168 E3.32587
G1 X98.889 Y109.334 E3.32867
G1 X98.935 Y109.785 E3.33621
G1 X98.936 Y109.794 E3.33636
G1 X99.149 Y112.102 E3.3749
G1 X99.195 Y112.504 E3.38163
G1 X99.198 Y112.526 E3.382
G1 X99.384 Y114.521 E3.41532
G1 X101.027 Y117.539 E3.47247
G1 X101.424 Y117.94 E3.48185
G1 X101.734 Y118.072 E3.48745
G1 X102.071 Y118.306 E3.49428
G1 X102.613 Y118.881 E3.50742
G1 X102.803 Y119.171 E3.51318
G1 X102.831 Y119.236 E3.51436
G1 X102.913 Y119.632 E3.52108
G1 X102.913 Y120.882 E3.54187
G1 X103.691 Y122.106 E3.56599
G1 X103.697 Y122.117 E3.5662
G1 X103.911 Y122.463 E3.57297
G1 X104.025 Y122.721 E3.57766
G1 X104.061 Y123.001 E3.58235
G1 X104.018 Y123.28 E3.58705
G1 X103.87 Y123.577 E3.59256
G1 X103.706 Y123.802 E3.59719
G1 X105.168 Y124.43 E3.62366
G1 X105.409 Y124.577 E3.62835
G1 X105.611 Y124.803 E3.63339
G1 X105.904 Y125.252 E3.64231
G1 X106.024 Y125.507 E3.64699
G1 X106.067 Y125.798 E3.65189
G1 X106.067 Y126.514 E3.66379
G1 X106.027 Y126.793 E3.66848
G1 X105.911 Y127.05 E3.67317
G1 X105.774 Y127.221 E3.67681
G1 X103.862 Y129.133 E3.72178
G1 X103.636 Y129.302 E3.72647
G1 X103.372 Y129.402 E3.73117
G1 X103.091 Y129.424 E3.73586
G1 X102.788 Y129.356 E3.74102
G1 X102.653 Y129.303 E3.74343
G1 X102.373 Y129.219 E3.74829
G1 X102.146 Y129.167 E3.75217
G1 X101.966 Y129.139 E3.75519
G1 X101.757 Y129.12 E3.75868
G1 X101.489 Y129.139 E3.76315
G1 X101.24 Y129.203 E3.76743
G1 X101.015 Y129.308 E3.77156
G1 X100.77 Y129.482 E3.77655
G1 X100.683 Y129.556 E3.77845
G1 X100.538 Y129.699 E3.78184
G1 X100.376 Y129.919 E3.78638
G1 X100.265 Y130.148 E3.79062
G1 X100.198 Y130.39 E3.79479
G1 X100.173 Y130.686 E3.79973
G1 X100.177 Y131.305 E3.81003
G1 X100.188 Y131.476 E3.81288
G1 X100.248 Y131.752 E3.81757
G1 X100.361 Y132.024 E3.82247
G1 X100.377 Y132.066 E3.82322
G1 X100.457 Y132.298 E3.8273
G1 X100.471 Y132.58 E3.832
G1 X100.405 Y132.855 E3.8367
G1 X100.266 Y133.1 E3.84138
G1 X100.032 Y133.314 E3.84666
G1 X99.606 Y134.288 E3.86434
G1 X99.458 Y134.528 E3.86902
G1 X99.216 Y134.737 E3.87434
G1 X99.111 Y134.802 E3.8764
G1 X98.853 Y134.915 E3.88108
G1 X98.585 Y134.952 E3.88558
G1 X97.989 Y134.952 E3.89549
G1 X97.989 Y135.493 E3.90449
G1 X97.949 Y135.772 E3.90917
G1 X97.833 Y136.029 E3.91386
G1 X97.696 Y136.2 E3.91751
G1 X97.579 Y136.317 E3.92026
G1 X97.353 Y136.486 E3.92495
G1 X97.089 Y136.586 E3.92965
G1 X96.872 Y136.61 E3.93328
G1 X96.031 Y136.61 E3.94726
G1 X95.67 Y136.543 E3.95337
G1 X95 Y136.284 E3.96532
G1 X94.33 Y136.543 E3.97726
G1 X93.969 Y136.61 E3.98337
G1 X93.128 Y136.61 E3.99735
G1 X92.849 Y136.57 E4.00204
G1 X92.592 Y136.454 E4.00673
G1 X92.421 Y136.317 E4.01037
G1 X92.304 Y136.2 E4.01312
G1 X92.135 Y135.974 E4.01782
G1 X92.035 Y135.71 E4.02251
G1 X92.011 Y135.493 E4.02614
G1 X92.011 Y134.952 E4.03514
G1 X91.407 Y134.952 E4.04518
G1 X91.128 Y134.912 E4.04987
G1 X90.889 Y134.807 E4.05421
G1 X90.785 Y134.744 E4.05624
G1 X90.567 Y134.566 E4.06092
