;FLAVOR:Marlin
;TIME:697
;Filament used: 0.158649m
;Layer height: 0.1
;MINX:82.225
;MINY:101.215
;MINZ:0.1
;MAXX:100.147
;MAXY:130.277
;MAXZ:4
;Generated with Cura_SteamEngine 4.6.0
M140 S75
M105
M190 S75
M104 S195
M105
M109 S195
M82 ;absolute extrusion mode
G28 ;Home
G1 Z15.0 F6000 ;Move the platform
G92 E0
G1 F200 E3
G92 E0


G0 X0 Y15 F9000 ; Go to front
G0 Z0.15 ; Drop to bed
G92 E0 ; zero the extruded length
G1 X40 E25 F500 ; Extrude 25mm of filament in a 4cm line
G92 E0 ; zero the extruded length
G1 E-1 F500 ; Retract a little
G1 X80 F4000 ; Quickly wipe away from the filament line
G1 Z0.3 ; Raise and begin printing.
G92 E0
G92 E0
G1 F1500 E-6
;LAYER_COUNT:48
;LAYER:0
M107
M204 S1000
G0 F2400 X87.146 Y101.88 Z0.1
;TYPE:SKIRT
G1 F1500 E0
G1 F2400 X87.433 Y101.625 E0.00638
G1 X87.538 Y101.55 E0.00853
G1 X87.868 Y101.364 E0.01483
G1 X88.229 Y101.25 E0.02113
G1 X88.584 Y101.215 E0.02706
G1 X90.889 Y101.218 E0.06539
G1 X91.208 Y101.235 E0.0707
G1 X91.627 Y101.217 E0.07768
G1 X91.705 Y101.215 E0.07897
G1 X93.773 Y101.215 E0.11337
G1 X94.15 Y101.255 E0.11967
G1 X94.51 Y101.373 E0.12597
G1 X94.837 Y101.563 E0.13226
G1 X94.942 Y101.64 E0.13443
G1 X95.223 Y101.895 E0.14074
G1 X95.443 Y102.204 E0.14704
G1 X95.582 Y102.511 E0.15265
G1 X95.728 Y102.939 E0.16017
G1 X95.783 Y103.137 E0.16359
G1 X95.948 Y103.894 E0.17647
G1 X95.977 Y104.069 E0.17942
G1 X96.012 Y104.366 E0.18439
G1 X96.169 Y105.038 E0.19587
G1 X96.187 Y105.185 E0.19833
G1 X96.195 Y105.184 E0.19847
G1 X96.243 Y105.509 E0.20393
G1 X96.384 Y106.145 E0.21476
G1 X96.612 Y107.374 E0.23555
G1 X96.61 Y107.374 E0.23558
G1 X96.628 Y107.434 E0.23663
G1 X96.692 Y107.852 E0.24366
G1 X96.709 Y107.92 E0.24482
G1 X96.83 Y108.487 E0.25447
G1 X96.856 Y108.641 E0.25706
G1 X96.893 Y108.936 E0.26201
G1 X96.96 Y109.214 E0.26676
G1 X97.009 Y109.589 E0.27305
G1 X96.979 Y109.967 E0.27936
G1 X96.871 Y110.33 E0.28566
G1 X96.709 Y110.627 E0.29128
G1 X96.77 Y110.673 E0.29255
G1 X97.048 Y110.931 E0.29886
G1 X97.266 Y111.241 E0.30516
G1 X97.419 Y111.609 E0.31179
G1 X97.482 Y111.824 E0.31552
G1 X97.507 Y111.962 E0.31785
G1 X97.51 Y111.961 E0.3179
G1 X97.547 Y112.136 E0.32088
G1 X97.602 Y112.308 E0.32388
G1 X97.635 Y112.393 E0.3254
G1 X97.68 Y112.495 E0.32725
G1 X97.741 Y112.605 E0.32934
G1 X98.443 Y113.767 E0.35192
G1 X98.453 Y113.789 E0.35232
G1 X98.957 Y114.622 E0.36851
G1 X99.15 Y115.068 E0.37659
G1 X99.164 Y115.118 E0.37746
G1 X99.231 Y115.604 E0.38561
G1 X99.229 Y119.755 E0.45465
G1 X99.189 Y120.132 E0.46095
G1 X99.071 Y120.492 E0.46725
G1 X98.88 Y120.819 E0.47355
G1 X98.702 Y121.027 E0.4781
G1 X98.585 Y121.144 E0.48085
G1 X98.29 Y121.382 E0.48716
G1 X97.952 Y121.553 E0.49346
G1 X97.586 Y121.65 E0.49975
G1 X97.421 Y121.663 E0.50251
G1 X97.422 Y122.413 E0.51498
G1 X97.392 Y122.705 E0.51986
G1 X97.397 Y122.725 E0.5202
G1 X97.418 Y122.994 E0.52469
G1 X97.421 Y124.089 E0.5429
G1 X97.42 Y126.435 E0.58191
G1 X97.38 Y126.812 E0.58822
G1 X97.262 Y127.172 E0.59452
G1 X97.222 Y127.241 E0.59584
G1 X97.359 Y127.521 E0.60103
G1 X97.451 Y127.888 E0.60732
G1 X97.468 Y128.138 E0.61149
G1 X97.468 Y128.323 E0.61456
G1 X97.428 Y128.7 E0.62087
G1 X97.31 Y129.06 E0.62717
G1 X97.12 Y129.387 E0.63346
G1 X96.865 Y129.668 E0.63977
G1 X96.623 Y129.849 E0.64479
G1 X96.401 Y129.988 E0.64915
G1 X96.061 Y130.154 E0.65544
G1 X95.537 Y130.26 E0.66433
G1 X95.261 Y130.274 E0.66893
G1 X94.988 Y130.261 E0.67347
G1 X94.988 Y130.266 E0.67356
G1 X94.825 Y130.25 E0.67628
G1 X94.779 Y130.248 E0.67705
G1 X94.415 Y130.276 E0.68312
G1 X93.968 Y130.254 E0.69056
G1 X93.727 Y130.212 E0.69463
G1 X93.363 Y130.108 E0.70092
G1 X93.028 Y129.93 E0.70723
G1 X92.852 Y129.795 E0.71092
G1 X92.702 Y129.664 E0.71423
G1 X92.444 Y129.386 E0.72054
G1 X92.251 Y129.06 E0.72684
G1 X92.129 Y128.701 E0.73315
G1 X92.089 Y128.201 E0.74149
G1 X92.1 Y128.017 E0.74455
G1 X92.163 Y127.643 E0.75086
G1 X92.302 Y127.29 E0.75717
G1 X92.332 Y127.245 E0.75807
G1 X92.31 Y127.21 E0.75876
G1 X92.185 Y126.853 E0.76505
G1 X92.136 Y126.437 E0.77201
G1 X92.136 Y124.451 E0.80504
G1 X90.228 Y124.451 E0.83677
G1 X90.228 Y126.437 E0.8698
G1 X90.188 Y126.814 E0.8761
G1 X90.07 Y127.174 E0.8824
G1 X90.029 Y127.244 E0.88375
G1 X90.147 Y127.474 E0.88805
G1 X90.259 Y127.965 E0.89643
G1 X90.275 Y128.151 E0.89953
G1 X90.268 Y128.53 E0.90583
G1 X90.181 Y128.899 E0.91214
G1 X90.019 Y129.241 E0.91843
G1 X89.789 Y129.542 E0.92473
G1 X89.619 Y129.701 E0.9286
G1 X89.452 Y129.837 E0.93219
G1 X89.134 Y130.044 E0.9385
G1 X88.639 Y130.212 E0.94719
G1 X88.415 Y130.253 E0.95098
G1 X87.951 Y130.277 E0.9587
G1 X87.562 Y130.247 E0.96519
G1 X87.561 Y130.247 E0.96521
G1 X87.243 Y130.274 E0.97051
G1 X86.819 Y130.261 E0.97757
G1 X86.614 Y130.23 E0.98102
G1 X86.247 Y130.134 E0.98733
G1 X85.823 Y129.905 E0.99534
G1 X85.624 Y129.76 E0.99943
G1 X85.343 Y129.506 E1.00573
G1 X85.121 Y129.198 E1.01205
G1 X84.969 Y128.851 E1.01835
G1 X84.893 Y128.48 E1.02464
G1 X84.895 Y128.108 E1.03083
G1 X84.916 Y127.917 E1.03403
G1 X84.997 Y127.547 E1.04033
G1 X85.135 Y127.241 E1.04591
G1 X85.12 Y127.217 E1.04638
G1 X84.993 Y126.86 E1.05268
G1 X84.943 Y126.437 E1.05976
G1 X84.944 Y122.998 E1.11695
G1 X84.973 Y122.725 E1.12152
G1 X84.963 Y122.689 E1.12214
G1 X84.942 Y122.417 E1.12668
G1 X84.941 Y121.661 E1.13925
G1 X84.691 Y121.636 E1.14343
G1 X84.33 Y121.522 E1.14972
G1 X84.001 Y121.334 E1.15603
G1 X83.785 Y121.151 E1.16073
G1 X83.667 Y121.034 E1.1635
G1 X83.427 Y120.741 E1.1698
G1 X83.254 Y120.403 E1.17611
G1 X83.156 Y120.037 E1.18241
G1 X83.134 Y119.762 E1.187
G1 X83.133 Y119.448 E1.19222
G1 X83.132 Y115.603 E1.25616
G1 X83.19 Y115.15 E1.26376
G1 X83.203 Y115.1 E1.26462
G1 X83.404 Y114.623 E1.27323
G1 X84.621 Y112.605 E1.31242
G1 X84.625 Y112.599 E1.31254
G1 X84.69 Y112.48 E1.31479
G1 X84.716 Y112.421 E1.31586
G1 X84.789 Y112.215 E1.3195
G1 X84.847 Y111.993 E1.32331
G1 X84.905 Y111.732 E1.32776
G1 X85.025 Y111.373 E1.33405
G1 X85.218 Y111.047 E1.34035
G1 X85.552 Y110.705 E1.3483
G1 X85.654 Y110.625 E1.35046
G1 X85.583 Y110.525 E1.3525
G1 X85.431 Y110.178 E1.3588
G1 X85.356 Y109.807 E1.36509
G1 X85.38 Y109.299 E1.37355
G1 X85.814 Y107.052 E1.41161
G1 X86.43 Y103.822 E1.46629
G1 X86.549 Y103.288 E1.47539
G1 X86.553 Y103.289 E1.47546
G1 X86.572 Y103.193 E1.47709
G1 X86.708 Y102.716 E1.48534
G1 X86.768 Y102.532 E1.48855
G1 X86.922 Y102.186 E1.49485
G1 X87.146 Y101.88 E1.50116
G0 X87.497 Y102.092
G1 X87.665 Y101.951 E1.50481
G1 X87.77 Y101.876 E1.50695
G1 X88.063 Y101.715 E1.51251
G1 X88.386 Y101.629 E1.51807
G1 X88.584 Y101.615 E1.52137
G1 X90.868 Y101.617 E1.55936
G1 X91.204 Y101.635 E1.56495
G1 X91.705 Y101.615 E1.57329
G1 X93.773 Y101.615 E1.60768
G1 X94.105 Y101.655 E1.61324
G1 X94.417 Y101.772 E1.61878
G1 X94.601 Y101.886 E1.62238
G1 X94.706 Y101.963 E1.62455
G1 X94.95 Y102.191 E1.6301
G1 X95.133 Y102.471 E1.63566
G1 X95.203 Y102.64 E1.63871
G1 X95.349 Y103.068 E1.64623
G1 X95.392 Y103.222 E1.64889
G1 X95.557 Y103.979 E1.66177
G1 X95.58 Y104.115 E1.66406
G1 X95.618 Y104.444 E1.66957
G1 X95.779 Y105.13 E1.68129
G1 X95.792 Y105.244 E1.6832
G1 X95.8 Y105.243 E1.68333
G1 X95.853 Y105.598 E1.6893
G1 X95.991 Y106.218 E1.69986
G1 X96.216 Y107.432 E1.7204
G1 X96.233 Y107.495 E1.72148
G1 X96.301 Y107.934 E1.72887
G1 X96.318 Y108.004 E1.73007
G1 X96.439 Y108.571 E1.73971
G1 X96.459 Y108.69 E1.74172
G1 X96.499 Y109.009 E1.74706
G1 X96.571 Y109.308 E1.75218
G1 X96.61 Y109.64 E1.75774
G1 X96.57 Y109.971 E1.76328
G1 X96.452 Y110.284 E1.76884
G1 X96.263 Y110.559 E1.77439
G1 X96.071 Y110.732 E1.77869
G1 X96.224 Y110.789 E1.78141
G1 X96.423 Y110.914 E1.78531
G1 X96.53 Y110.994 E1.78754
G1 X96.772 Y111.224 E1.79309
G1 X96.952 Y111.506 E1.79865
G1 X97.036 Y111.721 E1.80249
G1 X97.099 Y111.936 E1.80622
G1 X97.117 Y112.044 E1.80804
G1 X97.119 Y112.044 E1.80807
G1 X97.161 Y112.239 E1.81139
G1 X97.227 Y112.448 E1.81503
G1 X97.263 Y112.539 E1.81666
G1 X97.322 Y112.673 E1.81909
G1 X97.414 Y112.838 E1.82224
G1 X98.1 Y113.974 E1.84431
G1 X98.104 Y113.983 E1.84447
G1 X98.615 Y114.829 E1.86091
G1 X98.765 Y115.176 E1.86719
G1 X98.779 Y115.226 E1.86806
G1 X98.831 Y115.604 E1.8744
G1 X98.829 Y119.755 E1.94343
G1 X98.789 Y120.086 E1.94898
G1 X98.672 Y120.399 E1.95453
G1 X98.419 Y120.744 E1.96165
G1 X98.302 Y120.861 E1.9644
G1 X98.039 Y121.067 E1.96996
G1 X97.735 Y121.206 E1.97551
G1 X97.312 Y121.271 E1.98263
G1 X96.986 Y121.271 E1.98805
G1 X97.021 Y121.497 E1.99186
G1 X97.022 Y122.413 E2.00709
G1 X96.983 Y122.745 E2.01265
G1 X96.98 Y122.752 E2.01278
G1 X97.018 Y122.995 E2.01687
G1 X97.021 Y124.09 E2.03508
G1 X97.02 Y126.435 E2.07407
G1 X96.98 Y126.766 E2.07962
G1 X96.863 Y127.079 E2.08517
G1 X96.736 Y127.243 E2.08862
G1 X96.894 Y127.461 E2.0931
G1 X97.019 Y127.771 E2.09866
G1 X97.068 Y128.138 E2.10482
G1 X97.068 Y128.323 E2.10789
G1 X97.028 Y128.655 E2.11346
G1 X96.911 Y128.967 E2.119
G1 X96.723 Y129.244 E2.12456
G1 X96.411 Y129.51 E2.13138
G1 X96.189 Y129.649 E2.13574
G1 X95.887 Y129.791 E2.14129
G1 X95.517 Y129.86 E2.14755
G1 X95.241 Y129.874 E2.15214
G1 X95.027 Y129.864 E2.15571
G1 X95.027 Y129.868 E2.15577
G1 X94.863 Y129.852 E2.15851
G1 X94.765 Y129.848 E2.16014
G1 X94.384 Y129.877 E2.1665
G1 X94.037 Y129.86 E2.17228
G1 X93.796 Y129.818 E2.17634
G1 X93.476 Y129.722 E2.1819
G1 X93.115 Y129.493 E2.18901
G1 X92.965 Y129.362 E2.19232
G1 X92.741 Y129.114 E2.19788
G1 X92.583 Y128.82 E2.20343
G1 X92.499 Y128.497 E2.20898
G1 X92.488 Y128.224 E2.21352
G1 X92.499 Y128.04 E2.21659
G1 X92.559 Y127.712 E2.22213
G1 X92.695 Y127.407 E2.22769
G1 X92.806 Y127.263 E2.23071
G1 X92.802 Y127.258 E2.23082
G1 X92.64 Y126.966 E2.23637
G1 X92.551 Y126.644 E2.24193
G1 X92.536 Y126.437 E2.24538
G1 X92.536 Y124.051 E2.28506
G1 X89.828 Y124.051 E2.33009
G1 X89.828 Y126.437 E2.36977
G1 X89.788 Y126.769 E2.37533
G1 X89.671 Y127.081 E2.38087
G1 X89.554 Y127.253 E2.38433
G1 X89.68 Y127.422 E2.38784
G1 X89.811 Y127.73 E2.3934
G1 X89.861 Y127.999 E2.39795
G1 X89.877 Y128.185 E2.40106
G1 X89.866 Y128.519 E2.40662
G1 X89.776 Y128.841 E2.41218
G1 X89.612 Y129.132 E2.41773
G1 X89.366 Y129.391 E2.42367
G1 X89.199 Y129.527 E2.42725
G1 X88.917 Y129.705 E2.4328
G1 X88.567 Y129.818 E2.43892
G1 X88.343 Y129.859 E2.4427
G1 X87.982 Y129.878 E2.44871
G1 X87.532 Y129.848 E2.45621
G1 X87.208 Y129.876 E2.46162
G1 X86.879 Y129.865 E2.4671
G1 X86.674 Y129.834 E2.47055
G1 X86.352 Y129.745 E2.4761
G1 X86.059 Y129.581 E2.48168
G1 X85.86 Y129.436 E2.48578
G1 X85.615 Y129.209 E2.49133
G1 X85.431 Y128.93 E2.49689
G1 X85.319 Y128.615 E2.50245
G1 X85.292 Y128.152 E2.51016
G1 X85.313 Y127.961 E2.51336
G1 X85.389 Y127.636 E2.51891
G1 X85.54 Y127.338 E2.52447
G1 X85.609 Y127.257 E2.52624
G1 X85.449 Y126.971 E2.53169
G1 X85.359 Y126.649 E2.53725
G1 X85.343 Y126.438 E2.54076
G1 X85.344 Y122.999 E2.59796
G1 X85.383 Y122.679 E2.60332
G1 X85.342 Y122.417 E2.60773
G1 X85.341 Y121.501 E2.62296
G1 X85.368 Y121.27 E2.62683
G1 X85.065 Y121.273 E2.63187
G1 X84.733 Y121.236 E2.63742
G1 X84.419 Y121.122 E2.64298
G1 X84.066 Y120.867 E2.65022
G1 X83.948 Y120.75 E2.65298
G1 X83.741 Y120.488 E2.65854
G1 X83.601 Y120.185 E2.66409
G1 X83.534 Y119.76 E2.67124
G1 X83.533 Y119.446 E2.67646
G1 X83.532 Y115.603 E2.74037
G1 X83.577 Y115.251 E2.74627
G1 X83.59 Y115.201 E2.74713
G1 X83.746 Y114.83 E2.75383
G1 X84.963 Y112.812 E2.79302
G1 X84.969 Y112.804 E2.79318
G1 X85.041 Y112.673 E2.79567
G1 X85.089 Y112.564 E2.79765
G1 X85.172 Y112.331 E2.80176
G1 X85.233 Y112.097 E2.80578
G1 X85.295 Y111.819 E2.81052
G1 X85.406 Y111.504 E2.81607
G1 X85.588 Y111.224 E2.82163
G1 X85.798 Y111.02 E2.8265
G1 X85.909 Y110.933 E2.82884
G1 X86.195 Y110.76 E2.8344
G1 X86.285 Y110.731 E2.83597
G1 X86.227 Y110.692 E2.83714
G1 X86.004 Y110.444 E2.84268
G1 X85.845 Y110.15 E2.84824
G1 X85.761 Y109.826 E2.85381
G1 X85.773 Y109.374 E2.86133
G1 X86.208 Y107.123 E2.89945
G1 X86.811 Y103.957 E2.95305
G1 X86.821 Y103.909 E2.95387
G1 X86.94 Y103.375 E2.96296
G1 X86.943 Y103.376 E2.96302
G1 X86.957 Y103.302 E2.96427
G1 X87.088 Y102.84 E2.97226
G1 X87.148 Y102.656 E2.97547
G1 X87.289 Y102.353 E2.98103
G1 X87.497 Y102.092 E2.98658
G0 X87.653 Y102.527
G1 X87.898 Y102.276 E2.99241
G1 X88.003 Y102.201 E2.99456
G1 X88.253 Y102.071 E2.99925
G1 X88.584 Y102.015 E3.00483
G1 X90.846 Y102.016 E3.04245
G1 X91.21 Y102.036 E3.04851
G1 X91.662 Y102.016 E3.05603
G1 X91.705 Y102.015 E3.05675
G1 X93.773 Y102.015 E3.09114
G1 X94.052 Y102.055 E3.09583
G1 X94.364 Y102.209 E3.10161
G1 X94.469 Y102.286 E3.10378
G1 X94.671 Y102.483 E3.10847
G1 X94.824 Y102.769 E3.11386
G1 X94.97 Y103.197 E3.12139
G1 X95.001 Y103.307 E3.12329
G1 X95.166 Y104.064 E3.13617
G1 X95.182 Y104.161 E3.13781
G1 X95.222 Y104.504 E3.14355
G1 X95.39 Y105.221 E3.15579
G1 X95.397 Y105.303 E3.15716
G1 X95.404 Y105.302 E3.15728
G1 X95.457 Y105.661 E3.16332
G1 X95.59 Y106.255 E3.17344
G1 X95.597 Y106.291 E3.17405
G1 X95.806 Y107.415 E3.19306
G1 X95.806 Y107.416 E3.19308
G1 X95.837 Y107.556 E3.19546
G1 X95.907 Y108.007 E3.20305
G1 X95.927 Y108.087 E3.20442
G1 X96.062 Y108.74 E3.21551
G1 X96.104 Y109.082 E3.22124
G1 X96.182 Y109.402 E3.22672
G1 X96.209 Y109.683 E3.23141
G1 X96.156 Y109.96 E3.2361
G1 X96.029 Y110.211 E3.24078
G1 X95.836 Y110.417 E3.24548
G1 X95.593 Y110.561 E3.25017
G1 X95.21 Y110.637 E3.25667
G1 X95.104 Y110.637 E3.25843
G1 X93.118 Y110.63 E3.29146
G1 X93.112 Y110.63 E3.29156
G1 X87.26 Y110.637 E3.38888
G1 X87.148 Y110.637 E3.39074
G1 X86.869 Y110.597 E3.39543
G1 X86.612 Y110.481 E3.40012
G1 X86.397 Y110.298 E3.40481
G1 X86.243 Y110.062 E3.4095
G1 X86.16 Y109.792 E3.4142
G1 X86.166 Y109.449 E3.4199
G1 X86.601 Y107.196 E3.45806
G1 X87.043 Y104.885 E3.49719
G1 X87.048 Y104.866 E3.49752
G1 X87.204 Y104.031 E3.51164
G1 X87.211 Y103.996 E3.51224
G1 X87.33 Y103.462 E3.52133
G1 X87.331 Y103.462 E3.52135
G1 X87.342 Y103.41 E3.52223
G1 X87.456 Y103.004 E3.52925
G1 X87.528 Y102.78 E3.53316
G1 X87.653 Y102.527 E3.53785
G0 X88.013 Y102.712
G1 X88.13 Y102.602 E3.54052
G1 X88.235 Y102.527 E3.54267
G1 X88.433 Y102.434 E3.54631
G1 X88.584 Y102.415 E3.54884
G1 X90.792 Y102.415 E3.58556
G1 X90.824 Y102.416 E3.58609
G1 X91.205 Y102.437 E3.59244
G1 X91.679 Y102.416 E3.60033
G1 X91.705 Y102.415 E3.60076
G1 X93.773 Y102.415 E3.63515
G1 X93.988 Y102.455 E3.63879
G1 X94.128 Y102.531 E3.64144
G1 X94.233 Y102.608 E3.6436
G1 X94.382 Y102.767 E3.64722
G1 X94.446 Y102.898 E3.64965
G1 X94.61 Y103.392 E3.65831
G1 X94.785 Y104.208 E3.67218
G1 X94.828 Y104.579 E3.6784
G1 X95 Y105.312 E3.69092
G1 X95.003 Y105.362 E3.69175
G1 X95.008 Y105.361 E3.69183
G1 X95.062 Y105.723 E3.69792
G1 X95.2 Y106.342 E3.70847
G1 X95.429 Y107.579 E3.72939
G1 X95.442 Y107.617 E3.73006
G1 X95.516 Y108.096 E3.73812
G1 X95.536 Y108.171 E3.73941
G1 X95.665 Y108.789 E3.74991
G1 X95.711 Y109.155 E3.75604
G1 X95.793 Y109.496 E3.76187
G1 X95.805 Y109.714 E3.7655
G1 X95.738 Y109.921 E3.76912
G1 X95.602 Y110.092 E3.77276
G1 X95.413 Y110.202 E3.77639
G1 X95.21 Y110.237 E3.77982
G1 X95.106 Y110.237 E3.78155
G1 X93.12 Y110.23 E3.81458
G1 X93.111 Y110.23 E3.81473
G1 X87.148 Y110.237 E3.91389
G1 X86.933 Y110.197 E3.91753
G1 X86.747 Y110.084 E3.92115
G1 X86.614 Y109.911 E3.92478
G1 X86.552 Y109.702 E3.9284
G1 X86.559 Y109.524 E3.93136
G1 X86.99 Y107.289 E3.96922
G1 X86.992 Y107.282 E3.96934
G1 X87.429 Y104.992 E4.00811
G1 X87.436 Y104.965 E4.00857
G1 X87.597 Y104.104 E4.02314
G1 X87.601 Y104.083 E4.02349
G1 X87.72 Y103.549 E4.03259
G1 X87.727 Y103.518 E4.03312
G1 X87.841 Y103.112 E4.04013
G1 X87.909 Y102.904 E4.04377
G1 X88.013 Y102.712 E4.0474
G0 X88.363 Y102.927
G1 X88.468 Y102.852 E4.04955
G1 X88.584 Y102.815 E4.05157
G1 X90.803 Y102.815 E4.08848
G1 X91.201 Y102.837 E4.09511
G1 X91.696 Y102.815 E4.10335
G1 X93.773 Y102.815 E4.13789
G1 X93.891 Y102.854 E4.13995
G1 X93.996 Y102.931 E4.14212
G1 X94.067 Y103.027 E4.1441
G1 X94.213 Y103.455 E4.15162
G1 X94.219 Y103.477 E4.152
G1 X94.384 Y104.234 E4.16489
G1 X94.388 Y104.254 E4.16523
G1 X94.434 Y104.646 E4.17179
G1 X94.611 Y105.403 E4.18472
G1 X94.613 Y105.42 E4.185
G1 X94.671 Y105.812 E4.19159
G1 X94.809 Y106.429 E4.20211
G1 X94.811 Y106.437 E4.20225
G1 X95.038 Y107.662 E4.22296
G1 X95.047 Y107.678 E4.22327
G1 X95.124 Y108.179 E4.2317
G1 X95.142 Y108.243 E4.2328
G1 X95.145 Y108.254 E4.23299
