;FLAVOR:Marlin
;TIME:2435
;Filament used: 0.415479m
;Layer height: 0.1
;MINX:77.662
;MINY:102.623
;MINZ:0.1
;MAXX:112.346
;MAXY:138.171
;MAXZ:7.1
;Generated with Cura_SteamEngine 4.6.0
M140 S75
M105
M190 S75
M104 S195
M105
M109 S195
M82 ;absolute extrusion mode
G28 ;Home
G1 Z15.0 F6000 ;Move the platform
G92 E0
G1 F200 E3
G92 E0


G0 X0 Y15 F9000 ; Go to front
G0 Z0.15 ; Drop to bed
G92 E0 ; zero the extruded length
G1 X40 E25 F500 ; Extrude 25mm of filament in a 4cm line
G92 E0 ; zero the extruded length
G1 E-1 F500 ; Retract a little
G1 X80 F4000 ; Quickly wipe away from the filament line
G1 Z0.3 ; Raise and begin printing.
G92 E0
G92 E0
G1 F1500 E-6
;LAYER_COUNT:71
;LAYER:0
M107
M204 S1000
G0 F2400 X79.466 Y116.723 Z0.1
;TYPE:SKIRT
G1 F1500 E0
G1 F2400 X79.792 Y116.531 E0.00629
G1 X80.152 Y116.411 E0.0126
G1 X80.529 Y116.369 E0.01891
G1 X80.906 Y116.407 E0.02521
G1 X81.266 Y116.523 E0.0315
G1 X81.497 Y116.646 E0.03585
G1 X81.859 Y116.874 E0.04297
G1 X82.11 Y117.064 E0.0482
G1 X82.417 Y117.342 E0.05509
G1 X82.789 Y117.38 E0.06131
G1 X83.15 Y117.497 E0.06762
G1 X83.6 Y117.783 E0.07649
G1 X84.177 Y118.284 E0.0892
G1 X84.436 Y118.561 E0.0955
G1 X84.622 Y118.868 E0.10147
G1 X84.654 Y118.936 E0.10272
G1 X86.69 Y119.395 E0.13743
G1 X87.458 Y119.302 E0.1503
G1 X87.713 Y118.759 E0.16027
G1 X87.909 Y118.435 E0.16657
G1 X88.169 Y118.159 E0.17287
G1 X88.302 Y118.067 E0.17556
G1 X88.375 Y117.856 E0.17928
G1 X88.536 Y117.513 E0.18558
G1 X88.765 Y117.211 E0.19188
G1 X89.085 Y116.942 E0.19883
G1 X90.01 Y116.333 E0.21725
G1 X90.463 Y114.34 E0.25124
G1 X90.471 Y114.215 E0.25332
G1 X90.537 Y113.699 E0.26197
G1 X90.662 Y111.957 E0.29102
G1 X90.702 Y111.685 E0.29559
G1 X91.016 Y110.312 E0.31901
G1 X90.977 Y109.767 E0.3281
G1 X90.999 Y109.513 E0.33234
G1 X91.037 Y109.269 E0.33645
G1 X91.119 Y108.911 E0.34255
G1 X91.439 Y107.706 E0.36329
G1 X91.561 Y107.379 E0.36909
G1 X91.581 Y107.338 E0.36985
G1 X91.734 Y107.081 E0.37482
G1 X92.036 Y106.226 E0.3899
G1 X92.046 Y106.198 E0.3904
G1 X92.367 Y105.337 E0.40568
G1 X92.375 Y105.296 E0.40637
G1 X92.451 Y105.028 E0.41101
G1 X92.638 Y104.52 E0.42001
G1 X92.661 Y104.436 E0.42146
G1 X92.798 Y104.082 E0.42777
G1 X92.923 Y103.892 E0.43155
G1 X93.032 Y103.667 E0.43571
G1 X93.266 Y103.368 E0.44202
G1 X93.582 Y103.108 E0.44883
G1 X93.857 Y102.93 E0.45428
G1 X94.195 Y102.759 E0.46058
G1 X94.505 Y102.671 E0.46594
G1 X94.607 Y102.652 E0.46766
G1 X94.985 Y102.623 E0.47397
G1 X95.346 Y102.669 E0.48002
G1 X95.65 Y102.74 E0.48521
G1 X96.008 Y102.865 E0.49151
G1 X96.204 Y102.972 E0.49523
G1 X96.425 Y103.112 E0.49958
G1 X96.722 Y103.348 E0.50589
G1 X96.963 Y103.64 E0.51218
G1 X97.142 Y103.997 E0.51883
G1 X97.173 Y104.046 E0.51979
G1 X97.254 Y104.237 E0.52324
G1 X97.995 Y106.301 E0.55971
G1 X98.004 Y106.329 E0.5602
G1 X98.183 Y106.835 E0.56912
G1 X98.258 Y107.061 E0.57308
G1 X98.305 Y107.133 E0.57451
G1 X98.447 Y107.392 E0.57943
G1 X98.561 Y107.697 E0.58484
G1 X98.629 Y107.945 E0.58912
G1 X98.899 Y108.965 E0.60666
G1 X98.897 Y108.965 E0.6067
G1 X98.924 Y109.056 E0.60828
G1 X98.991 Y109.359 E0.61344
G1 X99.033 Y109.783 E0.62052
G1 X99.03 Y109.937 E0.62308
G1 X98.984 Y110.3 E0.62917
G1 X99.293 Y111.638 E0.65201
G1 X99.333 Y111.9 E0.65641
G1 X99.504 Y114.044 E0.69218
G1 X99.537 Y114.191 E0.69469
G1 X99.549 Y114.366 E0.6976
G1 X99.587 Y114.527 E0.70035
G1 X99.635 Y114.903 E0.70666
G1 X99.619 Y115.08 E0.70961
G1 X99.685 Y115.702 E0.72002
G1 X100.686 Y117.211 E0.75013
G1 X101.254 Y117.988 E0.76614
G1 X102.402 Y119.206 E0.79397
G1 X102.651 Y119.33 E0.7986
G1 X103.345 Y119.412 E0.81022
G1 X105.359 Y118.941 E0.84461
G1 X105.437 Y118.784 E0.84753
G1 X105.641 Y118.464 E0.85384
G1 X106.032 Y118.1 E0.86273
G1 X106.16 Y118.012 E0.86531
G1 X106.435 Y117.78 E0.87129
G1 X106.749 Y117.567 E0.8776
G1 X107.1 Y117.425 E0.8839
G1 X107.473 Y117.359 E0.8902
G1 X107.585 Y117.363 E0.89206
G1 X107.906 Y117.067 E0.89932
G1 X108.171 Y116.865 E0.90486
G1 X108.385 Y116.731 E0.90906
G1 X108.527 Y116.61 E0.91217
G1 X108.861 Y116.43 E0.91848
G1 X109.225 Y116.324 E0.92478
G1 X109.603 Y116.297 E0.93108
G1 X109.978 Y116.349 E0.93738
G1 X110.217 Y116.427 E0.94156
G1 X110.467 Y116.528 E0.94604
G1 X110.802 Y116.706 E0.95235
G1 X111.091 Y116.95 E0.95864
G1 X111.324 Y117.25 E0.96496
G1 X111.488 Y117.591 E0.97125
G1 X111.577 Y117.96 E0.97756
G1 X111.593 Y118.187 E0.98135
G1 X111.595 Y118.532 E0.98709
G1 X111.557 Y118.909 E0.99339
G1 X111.431 Y119.294 E1.00012
G1 X111.397 Y119.368 E1.00148
G1 X111.203 Y119.693 E1.00777
G1 X111.113 Y119.792 E1.01
G1 X111.113 Y120.228 E1.01725
G1 X111.375 Y120.364 E1.02216
G1 X111.691 Y120.573 E1.02846
G1 X111.956 Y120.843 E1.03475
G1 X112.159 Y121.163 E1.04105
G1 X112.291 Y121.519 E1.04737
G1 X112.346 Y121.963 E1.05481
G1 X112.345 Y124.288 E1.09347
G1 X112.305 Y124.665 E1.09978
G1 X112.187 Y125.025 E1.10608
G1 X111.996 Y125.352 E1.11237
G1 X111.894 Y125.464 E1.11489
G1 X111.894 Y127.537 E1.14937
G1 X111.854 Y127.914 E1.15567
G1 X111.736 Y128.274 E1.16197
G1 X111.546 Y128.601 E1.16826
G1 X111.277 Y128.894 E1.17488
G1 X110.2 Y129.833 E1.19864
G1 X109.89 Y130.05 E1.20493
G1 X109.541 Y130.198 E1.21123
G1 X109.169 Y130.27 E1.21754
G1 X108.79 Y130.262 E1.22384
G1 X108.568 Y130.2 E1.22767
G1 X108.289 Y130.449 E1.23389
G1 X108.275 Y130.464 E1.23423
G1 X108.18 Y130.554 E1.23641
G1 X107.504 Y131.159 E1.2515
G1 X107.149 Y131.407 E1.2587
G1 X106.353 Y131.83 E1.27369
G1 X106.039 Y131.985 E1.27951
G1 X105.227 Y132.426 E1.29488
G1 X105.203 Y132.439 E1.29533
G1 X104.592 Y132.758 E1.3068
G1 X104.524 Y132.816 E1.30828
G1 X103.452 Y133.889 E1.3335
G1 X103.158 Y134.128 E1.33981
G1 X102.82 Y134.299 E1.34611
G1 X102.453 Y134.396 E1.35242
G1 X102.179 Y134.417 E1.35699
G1 X101.156 Y134.417 E1.374
G1 X100.557 Y134.727 E1.38522
G1 X100.517 Y134.769 E1.38618
G1 X100.177 Y134.995 E1.39297
G1 X99.763 Y135.207 E1.40071
G1 X99.681 Y135.505 E1.40585
G1 X99.505 Y135.841 E1.41215
G1 X99.263 Y136.133 E1.41846
G1 X98.814 Y136.454 E1.42764
G1 X97.034 Y137.347 E1.46076
G1 X96.472 Y137.788 E1.47264
G1 X96.151 Y137.989 E1.47894
G1 X95.794 Y138.118 E1.48525
G1 X95.362 Y138.171 E1.49249
G1 X94.65 Y138.171 E1.50433
G1 X94.273 Y138.131 E1.51063
G1 X93.913 Y138.013 E1.51693
G1 X93.557 Y137.801 E1.52382
G1 X92.418 Y136.931 E1.54766
G1 X91.655 Y136.54 E1.56192
G1 X91.495 Y136.448 E1.56498
G1 X91.087 Y136.183 E1.57308
G1 X91.088 Y136.181 E1.57311
G1 X90.803 Y135.967 E1.57904
G1 X90.595 Y135.737 E1.5842
G1 X90.165 Y135.167 E1.59607
G1 X89.953 Y135.06 E1.60002
G1 X89.635 Y134.854 E1.60632
G1 X89.367 Y134.586 E1.61262
G1 X89.258 Y134.417 E1.61597
G1 X87.827 Y134.417 E1.63977
G1 X87.45 Y134.377 E1.64607
G1 X87.09 Y134.259 E1.65237
G1 X86.763 Y134.069 E1.65866
G1 X86.557 Y133.892 E1.66318
G1 X86.296 Y133.632 E1.6693
G1 X86.057 Y133.338 E1.6756
G1 X85.93 Y133.108 E1.67997
G1 X85.881 Y133.001 E1.68193
G1 X82.85 Y131.404 E1.73891
G1 X82.488 Y131.153 E1.74623
G1 X81.438 Y130.21 E1.7697
G1 X81.352 Y130.238 E1.7712
G1 X80.975 Y130.276 E1.77751
G1 X80.598 Y130.234 E1.78381
G1 X80.239 Y130.115 E1.7901
G1 X79.79 Y129.824 E1.799
G1 X79.135 Y129.244 E1.81355
G1 X78.737 Y128.901 E1.82229
G1 X78.477 Y128.625 E1.82859
G1 X78.281 Y128.301 E1.83489
G1 X78.157 Y127.943 E1.84119
G1 X78.111 Y127.537 E1.84799
G1 X78.111 Y125.465 E1.88245
G1 X78.063 Y125.417 E1.88357
G1 X77.857 Y125.099 E1.88987
G1 X77.723 Y124.744 E1.89619
G1 X77.663 Y124.286 E1.90387
G1 X77.662 Y121.917 E1.94326
G1 X77.702 Y121.54 E1.94957
G1 X77.819 Y121.18 E1.95586
G1 X78.01 Y120.852 E1.96218
G1 X78.265 Y120.572 E1.96847
G1 X78.721 Y120.275 E1.97752
G1 X78.889 Y120.199 E1.98059
G1 X78.884 Y119.582 E1.99085
G1 X78.835 Y119.486 E1.99264
G1 X78.737 Y119.12 E1.99894
G1 X78.718 Y118.742 E2.00524
G1 X78.765 Y118.448 E2.01019
G1 X78.751 Y118.388 E2.01121
G1 X78.745 Y118.009 E2.01752
G1 X78.818 Y117.637 E2.02382
G1 X78.968 Y117.289 E2.03012
G1 X79.187 Y116.98 E2.03642
G1 X79.466 Y116.723 E2.04273
G0 X79.628 Y117.105
G1 X79.906 Y116.92 E2.04828
G1 X80.22 Y116.806 E2.05384
G1 X80.552 Y116.769 E2.05939
G1 X80.883 Y116.812 E2.06495
G1 X81.284 Y116.984 E2.0722
G1 X81.646 Y117.212 E2.07932
G1 X81.841 Y117.36 E2.08339
G1 X82.28 Y117.758 E2.09324
G1 X82.493 Y117.744 E2.09679
G1 X82.822 Y117.801 E2.10234
G1 X83.129 Y117.935 E2.10792
G1 X83.338 Y118.085 E2.11219
G1 X83.915 Y118.586 E2.1249
G1 X84.139 Y118.833 E2.13045
G1 X84.261 Y119.04 E2.13444
G1 X84.377 Y119.283 E2.13892
G1 X86.67 Y119.801 E2.17801
G1 X87.726 Y119.672 E2.19571
G1 X88.075 Y118.929 E2.20936
G1 X88.252 Y118.646 E2.21491
G1 X88.491 Y118.413 E2.22046
G1 X88.635 Y118.328 E2.22324
G1 X88.753 Y117.987 E2.22924
G1 X88.899 Y117.687 E2.23479
G1 X89.112 Y117.43 E2.24034
G1 X89.306 Y117.276 E2.24446
G1 X90.364 Y116.579 E2.26553
G1 X90.86 Y114.4 E2.30269
G1 X90.868 Y114.266 E2.30493
G1 X90.934 Y113.744 E2.31368
G1 X91.061 Y111.985 E2.343
G1 X91.092 Y111.774 E2.34655
G1 X91.429 Y110.297 E2.37174
G1 X91.398 Y110.202 E2.37341
G1 X91.375 Y109.801 E2.38009
G1 X91.397 Y109.547 E2.38433
G1 X91.427 Y109.358 E2.38751
G1 X91.506 Y109.014 E2.39338
G1 X91.826 Y107.809 E2.41411
G1 X91.921 Y107.554 E2.41864
G1 X91.941 Y107.513 E2.4194
G1 X92.092 Y107.268 E2.42418
G1 X92.413 Y106.359 E2.44021
G1 X92.421 Y106.337 E2.4406
G1 X92.753 Y105.447 E2.4564
G1 X92.767 Y105.375 E2.45762
G1 X92.826 Y105.167 E2.46121
G1 X93.019 Y104.643 E2.4705
G1 X93.047 Y104.54 E2.47228
G1 X93.172 Y104.23 E2.47783
G1 X93.264 Y104.102 E2.48046
G1 X93.393 Y103.845 E2.48524
G1 X93.61 Y103.591 E2.49079
G1 X93.799 Y103.444 E2.49478
G1 X94.074 Y103.266 E2.50022
G1 X94.374 Y103.119 E2.50578
G1 X94.579 Y103.065 E2.5093
G1 X94.681 Y103.046 E2.51103
G1 X95.014 Y103.024 E2.51658
G1 X95.255 Y103.059 E2.52063
G1 X95.559 Y103.13 E2.52582
G1 X95.99 Y103.31 E2.53359
G1 X96.211 Y103.45 E2.53794
G1 X96.47 Y103.661 E2.5435
G1 X96.672 Y103.928 E2.54906
G1 X96.78 Y104.16 E2.55332
G1 X96.807 Y104.237 E2.55468
G1 X96.878 Y104.372 E2.55721
G1 X97.619 Y106.436 E2.59368
G1 X97.627 Y106.462 E2.59413
G1 X97.806 Y106.968 E2.60306
G1 X97.893 Y107.235 E2.60773
G1 X97.97 Y107.352 E2.61006
G1 X98.086 Y107.566 E2.61411
G1 X98.175 Y107.803 E2.61832
G1 X98.243 Y108.051 E2.62259
G1 X98.246 Y108.063 E2.6228
G1 X98.512 Y109.068 E2.64009
G1 X98.511 Y109.068 E2.6401
G1 X98.533 Y109.143 E2.6414
G1 X98.6 Y109.446 E2.64657
G1 X98.633 Y109.775 E2.65206
G1 X98.63 Y109.929 E2.65463
G1 X98.583 Y110.26 E2.66019
G1 X98.571 Y110.292 E2.66075
G1 X98.903 Y111.728 E2.68526
G1 X98.935 Y111.931 E2.68868
G1 X99.103 Y114.037 E2.72382
G1 X99.138 Y114.219 E2.7269
G1 X99.152 Y114.423 E2.7303
G1 X99.198 Y114.618 E2.73363
G1 X99.235 Y114.95 E2.73919
G1 X99.218 Y115.085 E2.74145
G1 X99.298 Y115.841 E2.75409
G1 X100.368 Y117.454 E2.78628
G1 X100.944 Y118.242 E2.80251
G1 X102.159 Y119.531 E2.83197
G1 X102.536 Y119.719 E2.83898
G1 X103.369 Y119.818 E2.85293
G1 X105.633 Y119.288 E2.8916
G1 X105.795 Y118.962 E2.89765
G1 X105.979 Y118.682 E2.90322
G1 X106.258 Y118.43 E2.90947
G1 X106.405 Y118.329 E2.91244
G1 X106.693 Y118.086 E2.91871
G1 X106.972 Y117.902 E2.92426
G1 X107.287 Y117.79 E2.92982
G1 X107.619 Y117.755 E2.93538
G1 X107.734 Y117.771 E2.93731
G1 X108.178 Y117.361 E2.94736
G1 X108.383 Y117.204 E2.95165
G1 X108.621 Y117.055 E2.95632
G1 X108.786 Y116.918 E2.95989
G1 X109.087 Y116.772 E2.96545
G1 X109.413 Y116.702 E2.971
G1 X109.747 Y116.711 E2.97655
G1 X110.067 Y116.798 E2.98207
G1 X110.317 Y116.899 E2.98655
G1 X110.61 Y117.06 E2.99211
G1 X110.856 Y117.286 E2.99767
G1 X111.042 Y117.564 E3.00323
G1 X111.156 Y117.878 E3.00878
G1 X111.193 Y118.189 E3.01399
G1 X111.195 Y118.534 E3.01973
G1 X111.157 Y118.866 E3.02529
G1 X111.067 Y119.127 E3.02988
G1 X111.033 Y119.201 E3.03123
G1 X110.858 Y119.485 E3.03678
G1 X110.713 Y119.64 E3.04031
G1 X110.713 Y120.472 E3.05415
G1 X111.19 Y120.719 E3.06308
G1 X111.467 Y120.907 E3.06865
G1 X111.69 Y121.155 E3.07419
G1 X111.849 Y121.449 E3.07975
G1 X111.933 Y121.773 E3.08532
G1 X111.946 Y121.963 E3.08848
G1 X111.945 Y124.288 E3.12715
G1 X111.905 Y124.619 E3.13269
G1 X111.788 Y124.932 E3.13825
G1 X111.599 Y125.208 E3.14381
G1 X111.494 Y125.303 E3.14617
G1 X111.494 Y127.537 E3.18332
G1 X111.454 Y127.869 E3.18888
G1 X111.337 Y128.181 E3.19442
G1 X111.149 Y128.458 E3.19999
G1 X111.014 Y128.592 E3.20315
G1 X109.937 Y129.531 E3.22692
G1 X109.661 Y129.719 E3.23247
G1 X109.348 Y129.836 E3.23803
G1 X109.016 Y129.876 E3.24359
G1 X108.685 Y129.836 E3.24913
G1 X108.46 Y129.759 E3.25309
G1 X108.021 Y130.151 E3.26287
G1 X107.914 Y130.256 E3.26537
G1 X107.238 Y130.861 E3.28045
G1 X106.962 Y131.054 E3.28605
G1 X106.212 Y131.453 E3.30018
G1 X105.871 Y131.622 E3.30651
G1 X105.036 Y132.075 E3.32231
G1 X105.018 Y132.085 E3.32265
G1 X104.365 Y132.426 E3.3349
G1 X104.259 Y132.516 E3.33722
G1 X103.169 Y133.607 E3.36286
G1 X102.907 Y133.813 E3.3684
G1 X102.603 Y133.951 E3.37396
G1 X102.179 Y134.017 E3.38109
G1 X101.059 Y134.017 E3.39972
G1 X100.311 Y134.404 E3.41372
G1 X100.228 Y134.488 E3.41569
G1 X99.995 Y134.639 E3.42031
G1 X99.393 Y134.948 E3.43156
G1 X99.372 Y135.152 E3.43497
G1 X99.26 Y135.467 E3.44053
G1 X99.077 Y135.746 E3.44608
G1 X98.833 Y135.975 E3.45164
G1 X98.634 Y136.096 E3.45552
G1 X96.821 Y137.006 E3.48925
G1 X96.225 Y137.473 E3.50184
G1 X95.94 Y137.646 E3.50739
G1 X95.621 Y137.747 E3.51295
G1 X95.362 Y137.771 E3.51728
G1 X94.65 Y137.771 E3.52912
G1 X94.318 Y137.731 E3.53468
G1 X94.006 Y137.614 E3.54022
G1 X93.8 Y137.483 E3.54428
G1 X92.634 Y136.592 E3.56868
G1 X91.837 Y136.184 E3.58357
G1 X91.712 Y136.112 E3.58597
G1 X91.304 Y135.847 E3.59406
G1 X91.305 Y135.846 E3.59409
G1 X91.048 Y135.648 E3.59948
G1 X90.915 Y135.496 E3.60284
G1 X90.429 Y134.853 E3.61624
G1 X90.134 Y134.703 E3.62175
G1 X89.856 Y134.517 E3.62731
G1 X89.63 Y134.271 E3.63287
G1 X89.49 Y134.017 E3.63769
G1 X87.827 Y134.017 E3.66535
G1 X87.495 Y133.977 E3.67091
G1 X87.183 Y133.86 E3.67645
G1 X86.839 Y133.609 E3.68353
G1 X86.578 Y133.349 E3.68966
G1 X86.294 Y132.941 E3.69792
G1 X86.189 Y132.713 E3.7021
G1 X83.036 Y131.051 E3.76137
G1 X82.755 Y130.855 E3.76707
G1 X82.007 Y130.181 E3.78381
G1 X82.004 Y130.178 E3.78388
G1 X81.536 Y129.761 E3.79431
G1 X81.231 Y129.854 E3.79961
G1 X80.898 Y129.873 E3.80516
G1 X80.569 Y129.813 E3.81072
G1 X80.264 Y129.677 E3.81627
G1 X80.055 Y129.524 E3.82058
G1 X79.4 Y128.944 E3.83513
G1 X78.998 Y128.598 E3.84395
G1 X78.772 Y128.351 E3.84952
G1 X78.612 Y128.058 E3.85507
G1 X78.525 Y127.736 E3.86062
G1 X78.511 Y127.537 E3.86393
G1 X78.511 Y125.301 E3.90112
G1 X78.438 Y125.239 E3.90271
G1 X78.241 Y124.969 E3.90827
G1 X78.114 Y124.66 E3.91382
G1 X78.063 Y124.286 E3.9201
G1 X78.062 Y121.917 E3.9595
G1 X78.102 Y121.585 E3.96506
G1 X78.219 Y121.272 E3.97062
G1 X78.407 Y120.996 E3.97617
G1 X78.655 Y120.772 E3.98173
G1 X78.886 Y120.64 E3.98615
G1 X79.291 Y120.457 E3.99354
G1 X79.283 Y119.489 E4.00964
G1 X79.182 Y119.268 E4.01368
G1 X79.119 Y118.94 E4.01924
G1 X79.135 Y118.606 E4.0248
G1 X79.179 Y118.463 E4.02729
G1 X79.144 Y118.3 E4.03006
G1 X79.153 Y117.966 E4.03561
G1 X79.24 Y117.643 E4.04118
G1 X79.402 Y117.351 E4.04673
G1 X79.628 Y117.105 E4.05229
G0 X79.841 Y117.452
G1 X80.069 Y117.286 E4.05698
G1 X80.334 Y117.19 E4.06166
G1 X80.616 Y117.172 E4.06636
G1 X80.891 Y117.234 E4.07105
G1 X81.071 Y117.323 E4.07439
G1 X81.433 Y117.551 E4.0815
G1 X81.572 Y117.656 E4.0844
G1 X82.157 Y118.187 E4.09754
G1 X82.278 Y118.152 E4.09964
G1 X82.56 Y118.152 E4.10432
G1 X82.831 Y118.23 E4.10901
G1 X83.076 Y118.387 E4.11385
G1 X83.653 Y118.888 E4.12656
G1 X83.9 Y119.212 E4.13334
G1 X84.1 Y119.632 E4.14107
G1 X86.647 Y120.206 E4.18449
G1 X87.994 Y120.042 E4.20706
G1 X88.437 Y119.1 E4.22437
G1 X88.592 Y118.864 E4.22907
G1 X88.806 Y118.681 E4.23375
G1 X88.957 Y118.62 E4.23646
G1 X89.131 Y118.118 E4.24529
G1 X89.26 Y117.867 E4.24998
G1 X89.526 Y117.61 E4.25614
G1 X90.718 Y116.824 E4.27988
G1 X91.257 Y114.457 E4.32025
G1 X91.257 Y114.442 E4.3205
G1 X91.265 Y114.316 E4.3226
G1 X91.332 Y113.785 E4.3315
G1 X91.46 Y112.014 E4.36103
G1 X91.482 Y111.863 E4.36357
G1 X91.844 Y110.279 E4.39059
G1 X91.782 Y110.078 E4.39409
G1 X91.774 Y109.836 E4.39811
G1 X91.796 Y109.582 E4.40235
G1 X91.817 Y109.447 E4.40463
G1 X91.884 Y109.152 E4.40966
G1 X91.892 Y109.116 E4.41027
G1 X92.212 Y107.911 E4.431
