;FLAVOR:Marlin
;TIME:4612
;Filament used: 1.0044m
;Layer height: 0.1
;MINX:72.841
;MINY:95.236
;MINZ:0.1
;MAXX:117.097
;MAXY:145.726
;MAXZ:14.1
;Generated with Cura_SteamEngine 4.6.0
M140 S75
M105
M190 S75
M104 S195
M105
M109 S195
M82 ;absolute extrusion mode
G28 ;Home
G1 Z15.0 F6000 ;Move the platform
G92 E0
G1 F200 E3
G92 E0


G0 X0 Y15 F9000 ; Go to front
G0 Z0.15 ; Drop to bed
G92 E0 ; zero the extruded length
G1 X40 E25 F500 ; Extrude 25mm of filament in a 4cm line
G92 E0 ; zero the extruded length
G1 E-1 F500 ; Retract a little
G1 X80 F4000 ; Quickly wipe away from the filament line
G1 Z0.3 ; Raise and begin printing.
G92 E0
G92 E0
G1 F1500 E-6
;LAYER_COUNT:142
;LAYER:0
M107
M204 S1000
G0 F2400 X73.918 Y113.175 Z0.1
;TYPE:SKIRT
G1 F1500 E0
G1 F2400 X74.219 Y112.944 E0.00631
G1 X74.588 Y112.772 E0.01308
G1 X75.486 Y112.471 E0.02883
G1 X75.671 Y112.114 E0.03552
G1 X75.88 Y111.797 E0.04183
G1 X76.15 Y111.532 E0.04812
G1 X76.35 Y111.394 E0.05216
G1 X76.968 Y111.027 E0.06412
G1 X77.312 Y110.869 E0.07041
G1 X77.682 Y110.787 E0.07671
G1 X77.878 Y110.775 E0.07998
G1 X79.695 Y110.766 E0.1102
G1 X80.072 Y110.804 E0.1165
G1 X80.433 Y110.92 E0.1228
G1 X80.64 Y111.028 E0.12669
G1 X81.248 Y111.398 E0.13852
G1 X81.549 Y111.628 E0.14482
G1 X81.878 Y112.048 E0.1537
G1 X82.159 Y112.543 E0.16316
G1 X82.396 Y112.421 E0.16759
G1 X82.733 Y112.254 E0.17385
G1 X82.879 Y112.199 E0.17644
G1 X83.303 Y111.971 E0.18445
G1 X83.946 Y111.661 E0.19632
G1 X84.23 Y111.513 E0.20165
G1 X84.36 Y111.465 E0.20395
G1 X84.673 Y111.292 E0.2099
G1 X85.036 Y111.105 E0.21669
G1 X85.11 Y111.078 E0.218
G1 X85.323 Y110.969 E0.22198
G1 X85.532 Y110.878 E0.22577
G1 X85.771 Y110.792 E0.22999
G1 X88.55 Y109.365 E0.28194
G1 X88.639 Y109.33 E0.28354
G1 X89.077 Y109.086 E0.29187
G1 X89.153 Y108.853 E0.29595
G1 X89.343 Y108.526 E0.30224
G1 X89.598 Y108.245 E0.30855
G1 X89.907 Y108.025 E0.31486
G1 X90.254 Y107.873 E0.32116
G1 X90.327 Y107.858 E0.3224
G1 X90.322 Y107.841 E0.32269
G1 X90.3 Y107.577 E0.3271
G1 X90.295 Y107.039 E0.33604
G1 X90.331 Y106.662 E0.34234
G1 X90.446 Y106.3 E0.34866
G1 X90.494 Y106.215 E0.35028
G1 X90.21 Y106.016 E0.35605
G1 X89.952 Y105.738 E0.36236
G1 X89.758 Y105.413 E0.36865
G1 X89.636 Y105.054 E0.37496
G1 X89.592 Y104.677 E0.38127
G1 X89.607 Y104.424 E0.38548
G1 X89.662 Y104.005 E0.39251
G1 X88.913 Y103.137 E0.41158
G1 X88.697 Y102.826 E0.41787
G1 X88.551 Y102.476 E0.42418
G1 X88.482 Y102.104 E0.43047
G1 X88.502 Y101.66 E0.43786
G1 X88.864 Y99.536 E0.4737
G1 X88.966 Y99.171 E0.48
G1 X89.143 Y98.836 E0.4863
G1 X89.386 Y98.545 E0.4926
G1 X89.585 Y98.378 E0.49692
G1 X91.086 Y97.296 E0.52769
G1 X91.308 Y97.159 E0.53203
G1 X91.556 Y97.03 E0.53668
G1 X92.007 Y96.702 E0.54596
G1 X92.454 Y96.057 E0.55901
G1 X92.702 Y95.77 E0.56531
G1 X93.128 Y95.473 E0.57395
G1 X93.206 Y95.434 E0.5754
G1 X93.561 Y95.301 E0.5817
G1 X94.003 Y95.244 E0.58912
G1 X95.708 Y95.236 E0.61747
G1 X96.085 Y95.274 E0.62377
G1 X96.597 Y95.466 E0.63287
G1 X96.679 Y95.512 E0.63443
G1 X96.988 Y95.731 E0.64073
G1 X97.265 Y96.04 E0.64763
G1 X97.632 Y96.557 E0.65817
G1 X97.807 Y96.605 E0.66119
G1 X98.142 Y96.781 E0.66748
G1 X98.303 Y96.902 E0.67083
G1 X98.757 Y97.284 E0.6807
G1 X99.06 Y97.475 E0.68666
G1 X100.37 Y98.585 E0.71521
G1 X100.631 Y98.859 E0.7215
G1 X100.83 Y99.182 E0.72781
G1 X100.985 Y99.683 E0.73653
G1 X101.256 Y101.435 E0.76602
G1 X101.274 Y101.813 E0.77231
G1 X101.213 Y102.187 E0.77861
G1 X101.027 Y102.625 E0.78653
G1 X100.003 Y104.36 E0.82003
G1 X100.016 Y104.681 E0.82537
G1 X99.951 Y105.054 E0.83167
G1 X99.81 Y105.406 E0.83797
G1 X99.597 Y105.72 E0.84428
G1 X99.324 Y105.982 E0.85058
G1 X99.269 Y106.016 E0.85165
G1 X99.44 Y106.351 E0.85791
G1 X99.538 Y106.717 E0.86421
G1 X99.56 Y106.981 E0.86861
G1 X99.565 Y107.518 E0.87754
G1 X99.529 Y107.895 E0.88384
G1 X99.504 Y107.973 E0.8852
G1 X99.841 Y108.127 E0.89137
G1 X100.145 Y108.353 E0.89767
G1 X100.395 Y108.637 E0.90396
G1 X100.54 Y108.897 E0.90891
G1 X106.213 Y111.684 E1.01402
G1 X106.236 Y111.696 E1.01445
G1 X107.515 Y112.347 E1.03832
G1 X108.089 Y111.905 E1.05037
G1 X108.261 Y111.656 E1.0554
G1 X108.536 Y111.395 E1.0617
G1 X108.702 Y111.282 E1.06504
G1 X109.325 Y110.907 E1.07714
G1 X109.668 Y110.747 E1.08343
G1 X110.038 Y110.662 E1.08974
G1 X110.253 Y110.649 E1.09333
G1 X110.399 Y110.649 E1.09575
G1 X112.065 Y110.637 E1.12346
G1 X112.442 Y110.674 E1.12976
G1 X112.803 Y110.79 E1.13607
G1 X113.02 Y110.903 E1.14013
G1 X113.618 Y111.27 E1.1518
G1 X113.918 Y111.501 E1.1581
G1 X114.237 Y111.907 E1.16669
G1 X114.491 Y112.349 E1.17516
G1 X114.615 Y112.341 E1.17723
G1 X114.99 Y112.396 E1.18353
G1 X115.345 Y112.528 E1.18983
G1 X115.665 Y112.732 E1.19614
G1 X115.953 Y113.02 E1.20292
G1 X116.703 Y113.964 E1.22297
G1 X116.907 Y114.284 E1.22928
G1 X117.038 Y114.639 E1.23557
G1 X117.094 Y115.081 E1.24298
G1 X117.097 Y116.662 E1.26927
G1 X117.058 Y117.039 E1.27557
G1 X116.941 Y117.399 E1.28187
G1 X116.766 Y117.705 E1.28773
G1 X116.069 Y118.689 E1.30779
G1 X115.818 Y118.974 E1.3141
G1 X115.647 Y119.113 E1.31777
G1 X114.454 Y119.966 E1.34216
G1 X114.241 Y120.097 E1.34631
G1 X113.944 Y120.252 E1.35189
G1 X112.972 Y120.823 E1.37063
G1 X112.627 Y120.98 E1.37694
G1 X112.257 Y121.06 E1.38323
G1 X112.061 Y121.071 E1.3865
G1 X110.25 Y121.071 E1.41661
G1 X109.873 Y121.031 E1.42292
G1 X109.513 Y120.913 E1.42922
G1 X109.308 Y120.805 E1.43307
G1 X108.733 Y120.452 E1.44429
G1 X108.433 Y120.221 E1.45059
G1 X108.098 Y119.786 E1.45972
G1 X107.864 Y119.362 E1.46777
G1 X107.386 Y119.572 E1.47646
G1 X106.852 Y119.835 E1.48635
G1 X103.881 Y121.306 E1.54149
G1 X103.738 Y121.396 E1.5443
G1 X103.512 Y121.517 E1.54856
G1 X102.366 Y122.029 E1.56943
G1 X102.083 Y122.169 E1.57468
G1 X102.007 Y122.197 E1.57603
G1 X102.256 Y122.643 E1.58453
G1 X102.405 Y122.991 E1.59082
G1 X102.478 Y123.363 E1.59713
G1 X102.471 Y123.742 E1.60343
G1 X102.386 Y124.111 E1.60973
G1 X102.224 Y124.454 E1.61603
G1 X101.995 Y124.756 E1.62234
G1 X101.707 Y125.002 E1.62864
G1 X101.375 Y125.184 E1.63493
G1 X101.153 Y125.249 E1.63878
G1 X101.159 Y125.27 E1.63914
G1 X101.181 Y125.536 E1.64358
G1 X101.186 Y126.117 E1.65324
G1 X101.149 Y126.494 E1.65954
G1 X101.034 Y126.855 E1.66584
G1 X100.847 Y127.184 E1.67214
G1 X100.664 Y127.399 E1.67683
G1 X100.547 Y127.517 E1.6796
G1 X100.254 Y127.757 E1.68589
G1 X99.916 Y127.93 E1.69221
G1 X99.688 Y127.991 E1.69613
G1 X99.668 Y128.194 E1.69953
G1 X99.554 Y128.555 E1.70582
G1 X99.366 Y128.884 E1.71212
G1 X99.189 Y129.095 E1.7167
G1 X99.072 Y129.214 E1.71948
G1 X98.806 Y129.433 E1.72521
G1 X98.867 Y129.468 E1.72638
G1 X99.075 Y129.645 E1.73092
G1 X99.192 Y129.761 E1.73366
G1 X99.432 Y130.054 E1.73996
G1 X99.467 Y130.122 E1.74123
G1 X99.563 Y130.065 E1.74309
G1 X99.922 Y129.943 E1.74939
G1 X100.32 Y129.898 E1.75605
G1 X101.683 Y129.898 E1.77872
G1 X102.06 Y129.938 E1.78503
G1 X102.5 Y130.094 E1.79279
G1 X103.191 Y130.446 E1.80569
G1 X103.423 Y130.587 E1.8102
G1 X103.614 Y130.724 E1.81411
G1 X103.843 Y130.92 E1.81912
G1 X104.52 Y131.603 E1.83511
G1 X104.757 Y131.899 E1.84142
G1 X104.927 Y132.237 E1.84771
G1 X105.022 Y132.604 E1.85402
G1 X105.038 Y132.983 E1.86033
G1 X104.975 Y133.356 E1.86662
G1 X104.835 Y133.708 E1.87292
G1 X104.515 Y134.143 E1.8819
G1 X104.083 Y134.575 E1.89206
G1 X104.098 Y136.739 E1.92805
G1 X104.234 Y137.051 E1.93371
G1 X104.348 Y137.412 E1.94
G1 X104.385 Y137.761 E1.94584
G1 X104.396 Y139.361 E1.97245
G1 X105.056 Y141.367 E2.00757
G1 X105.136 Y141.737 E2.01386
G1 X105.136 Y142.116 E2.02016
G1 X105.057 Y142.487 E2.02647
G1 X104.903 Y142.833 E2.03277
G1 X104.679 Y143.138 E2.03906
G1 X104.47 Y143.324 E2.04372
G1 X104.484 Y143.372 E2.04455
G1 X104.51 Y143.75 E2.05085
G1 X104.455 Y144.125 E2.05715
G1 X104.324 Y144.481 E2.06346
G1 X104.121 Y144.8 E2.06975
G1 X103.855 Y145.071 E2.07606
G1 X103.539 Y145.279 E2.08235
G1 X103.186 Y145.417 E2.08866
G1 X102.713 Y145.481 E2.09659
G1 X102.419 Y145.481 E2.10148
G1 X102.178 Y145.592 E2.1059
G1 X101.808 Y145.675 E2.1122
G1 X101.595 Y145.687 E2.11575
G1 X98.583 Y145.677 E2.16584
G1 X98.206 Y145.636 E2.17215
G1 X97.847 Y145.517 E2.17844
G1 X97.803 Y145.489 E2.1793
G1 X97.426 Y145.489 E2.18557
G1 X97.049 Y145.45 E2.19188
G1 X96.689 Y145.332 E2.19818
G1 X96.361 Y145.142 E2.20448
G1 X96.081 Y144.887 E2.21078
G1 X95.859 Y144.579 E2.21709
G1 X95.708 Y144.232 E2.22339
G1 X95.632 Y143.861 E2.22968
G1 X95.633 Y143.719 E2.23204
G1 X94.357 Y143.719 E2.25326
G1 X94.259 Y144.066 E2.25926
G1 X94.118 Y144.418 E2.26557
G1 X93.906 Y144.732 E2.27187
G1 X93.634 Y144.995 E2.27816
G1 X93.312 Y145.196 E2.28447
G1 X93.033 Y145.296 E2.2894
G1 X92.836 Y145.451 E2.29357
G1 X92.495 Y145.617 E2.29988
G1 X92.128 Y145.709 E2.30617
G1 X91.877 Y145.726 E2.31035
G1 X88.693 Y145.723 E2.3633
G1 X88.316 Y145.683 E2.36961
G1 X87.956 Y145.565 E2.37591
G1 X87.629 Y145.375 E2.3822
G1 X87.529 Y145.293 E2.38435
G1 X87.218 Y145.115 E2.39031
G1 X86.936 Y144.862 E2.39661
G1 X86.712 Y144.556 E2.40291
G1 X86.678 Y144.479 E2.40431
G1 X86.558 Y144.341 E2.40735
G1 X86.334 Y143.904 E2.41552
G1 X86.221 Y143.58 E2.42123
G1 X85.967 Y143.43 E2.42613
G1 X85.688 Y143.173 E2.43244
G1 X85.469 Y142.864 E2.43874
G1 X85.32 Y142.515 E2.44505
G1 X85.247 Y142.144 E2.45134
G1 X85.254 Y141.765 E2.45764
G1 X85.323 Y141.445 E2.46309
G1 X85.877 Y139.683 E2.4938
G1 X85.877 Y137.823 E2.52473
G1 X85.917 Y137.446 E2.53104
G1 X86.042 Y137.069 E2.53764
G1 X86.143 Y136.85 E2.54166
G1 X86.153 Y136.829 E2.54204
G1 X86.133 Y134.905 E2.57404
G1 X86.026 Y134.855 E2.576
G1 X85.701 Y134.659 E2.58232
G1 X85.425 Y134.4 E2.58861
G1 X85.209 Y134.088 E2.59492
G1 X85.063 Y133.739 E2.60121
G1 X84.994 Y133.366 E2.60752
G1 X85.004 Y132.987 E2.61383
G1 X85.093 Y132.619 E2.62012
G1 X85.257 Y132.277 E2.62643
G1 X85.475 Y131.993 E2.63238
G1 X86.882 Y130.493 E2.66658
G1 X87.169 Y130.245 E2.67289
G1 X87.501 Y130.063 E2.67919
G1 X87.865 Y129.955 E2.6855
G1 X88.242 Y129.925 E2.69179
G1 X88.618 Y129.974 E2.6981
G1 X88.929 Y130.08 E2.70356
G1 X89.01 Y130.116 E2.70504
G1 X89.9 Y130.116 E2.71984
G1 X90.277 Y130.156 E2.72614
G1 X90.637 Y130.274 E2.73244
G1 X90.646 Y130.279 E2.73261
G1 X90.799 Y130.011 E2.73775
G1 X90.982 Y129.795 E2.74245
G1 X91.099 Y129.677 E2.74522
G1 X91.359 Y129.464 E2.75081
G1 X91.297 Y129.428 E2.752
G1 X91.09 Y129.252 E2.75652
G1 X90.973 Y129.136 E2.75926
G1 X90.733 Y128.843 E2.76556
G1 X90.56 Y128.505 E2.77187
G1 X90.462 Y128.139 E2.77817
G1 X90.453 Y128.033 E2.77994
G1 X90.128 Y127.928 E2.78562
G1 X89.8 Y127.738 E2.79192
G1 X89.592 Y127.561 E2.79647
G1 X89.475 Y127.445 E2.79921
G1 X89.235 Y127.152 E2.8055
G1 X89.062 Y126.814 E2.81182
G1 X88.964 Y126.448 E2.81812
G1 X88.942 Y126.182 E2.82256
G1 X88.937 Y125.601 E2.83222
G1 X88.943 Y125.536 E2.83331
G1 X88.919 Y125.535 E2.83371
G1 X88.552 Y125.441 E2.84001
G1 X88.213 Y125.273 E2.8463
G1 X87.916 Y125.037 E2.85261
G1 X87.676 Y124.744 E2.85891
G1 X87.502 Y124.407 E2.86521
G1 X87.402 Y124.042 E2.87151
G1 X87.381 Y123.663 E2.87782
G1 X87.44 Y123.289 E2.88412
G1 X87.512 Y123.076 E2.88785
G1 X87.861 Y122.218 E2.90326
G1 X87.338 Y121.898 E2.91345
G1 X87.028 Y121.759 E2.9191
G1 X84.245 Y120.376 E2.97079
G1 X83.88 Y120.232 E2.97731
G1 X83.39 Y120.013 E2.98624
G1 X83.35 Y119.997 E2.98695
G1 X82.862 Y119.768 E2.99592
G1 X82.459 Y119.564 E3.00343
G1 X82.327 Y119.522 E3.00573
G1 X82.253 Y119.487 E3.00709
G1 X81.969 Y120.001 E3.01686
G1 X81.752 Y120.311 E3.02315
G1 X81.337 Y120.663 E3.0322
G1 X80.73 Y121.037 E3.04406
G1 X80.388 Y121.201 E3.05037
G1 X80.02 Y121.29 E3.05666
G1 X79.784 Y121.305 E3.0606
G1 X77.943 Y121.303 E3.09121
G1 X77.566 Y121.263 E3.09752
G1 X77.206 Y121.144 E3.10382
G1 X77.026 Y121.051 E3.10719
G1 X75.852 Y120.354 E3.1299
G1 X75.548 Y120.127 E3.13621
G1 X75.299 Y119.842 E3.1425
G1 X75.115 Y119.511 E3.1488
G1 X75.102 Y119.47 E3.14951
G1 X74.611 Y119.303 E3.15814
G1 X74.267 Y119.144 E3.16444
G1 X73.964 Y118.917 E3.17074
G1 X73.749 Y118.678 E3.17608
G1 X73.207 Y117.955 E3.19111
G1 X73.013 Y117.629 E3.19742
G1 X72.891 Y117.27 E3.20372
G1 X72.847 Y116.882 E3.21022
G1 X72.841 Y115.244 E3.23746
G1 X72.88 Y114.867 E3.24376
G1 X72.996 Y114.506 E3.25007
G1 X73.155 Y114.221 E3.25549
G1 X73.673 Y113.463 E3.27076
G1 X73.918 Y113.175 E3.27705
G0 X74.223 Y113.438
G1 X74.496 Y113.246 E3.2826
G1 X74.715 Y113.151 E3.28657
G1 X75.766 Y112.799 E3.305
G1 X76.026 Y112.298 E3.31439
G1 X76.214 Y112.022 E3.31994
G1 X76.554 Y111.738 E3.32731
G1 X77.172 Y111.371 E3.33926
G1 X77.478 Y111.236 E3.34482
G1 X77.88 Y111.175 E3.35159
G1 X79.697 Y111.166 E3.3818
G1 X80.029 Y111.204 E3.38736
G1 X80.432 Y111.37 E3.39461
G1 X81.04 Y111.74 E3.40645
G1 X81.302 Y111.947 E3.412
G1 X81.53 Y112.245 E3.41824
G1 X82.001 Y113.075 E3.43411
G1 X82.58 Y112.777 E3.44494
G1 X82.6 Y112.766 E3.44532
G1 X82.911 Y112.612 E3.45109
G1 X83.059 Y112.556 E3.45372
G1 X83.479 Y112.33 E3.46165
G1 X83.946 Y112.1 E3.47031
G1 X84.13 Y112.017 E3.47367
G1 X84.415 Y111.868 E3.47901
G1 X84.543 Y111.821 E3.48128
G1 X84.816 Y111.669 E3.48648
G1 X84.856 Y111.647 E3.48724
G1 X85.219 Y111.46 E3.49403
G1 X85.299 Y111.431 E3.49544
G1 X85.506 Y111.325 E3.49931
G1 X85.668 Y111.254 E3.50225
G1 X85.934 Y111.158 E3.50695
G1 X88.733 Y109.721 E3.55928
G1 X88.828 Y109.683 E3.56098
G1 X89.424 Y109.351 E3.57233
G1 X89.435 Y109.258 E3.57388
G1 X89.552 Y108.946 E3.57942
G1 X89.74 Y108.669 E3.58499
G1 X89.988 Y108.446 E3.59054
G1 X90.282 Y108.287 E3.5961
G1 X90.606 Y108.203 E3.60166
G1 X90.864 Y108.198 E3.60595
G1 X90.767 Y107.989 E3.60979
G1 X90.7 Y107.573 E3.61679
G1 X90.695 Y107.035 E3.62574
G1 X90.732 Y106.703 E3.6313
G1 X90.846 Y106.389 E3.63685
G1 X91.097 Y106.04 E3.644
G1 X91.114 Y106.022 E3.64441
G1 X90.874 Y105.958 E3.64854
G1 X90.58 Y105.799 E3.6541
G1 X90.333 Y105.574 E3.65966
G1 X90.146 Y105.297 E3.66522
G1 X90.03 Y104.984 E3.67077
G1 X89.992 Y104.652 E3.67632
G1 X90.004 Y104.476 E3.67926
G1 X90.082 Y103.88 E3.68925
G1 X89.216 Y102.876 E3.7113
G1 X89.029 Y102.599 E3.71686
G1 X88.914 Y102.286 E3.72241
G1 X88.876 Y101.954 E3.72796
G1 X88.896 Y101.727 E3.73175
G1 X89.258 Y99.603 E3.76759
G1 X89.353 Y99.283 E3.77314
G1 X89.521 Y98.994 E3.7787
G1 X89.819 Y98.702 E3.78563
G1 X91.32 Y97.62 E3.8164
G1 X91.493 Y97.514 E3.81978
G1 X91.766 Y97.372 E3.8249
G1 X92.297 Y96.985 E3.83582
G1 X92.783 Y96.285 E3.85
G1 X93.005 Y96.035 E3.85556
G1 X93.307 Y95.831 E3.86162
G1 X93.385 Y95.792 E3.86307
G1 X93.699 Y95.679 E3.86862
G1 X94.004 Y95.644 E3.87372
G1 X95.709 Y95.636 E3.90208
G1 X96.041 Y95.674 E3.90763
G1 X96.401 Y95.815 E3.91406
G1 X96.483 Y95.861 E3.91563
G1 X96.753 Y96.058 E3.92118
G1 X96.939 Y96.271 E3.92589
G1 X97.393 Y96.91 E3.93892
G1 X97.492 Y96.923 E3.94058
G1 X97.803 Y97.044 E3.94613
G1 X98.046 Y97.208 E3.95101
G1 X98.5 Y97.59 E3.96088
G1 X98.54 Y97.605 E3.96159
G1 X98.801 Y97.78 E3.96681
G1 X100.111 Y98.89 E3.99537
G1 X100.338 Y99.135 E4.00092
G1 X100.501 Y99.426 E4.00647
G1 X100.59 Y99.744 E4.01196
G1 X100.861 Y101.496 E4.04144
G1 X100.872 Y101.83 E4.047
G1 X100.804 Y102.157 E4.05255
G1 X100.683 Y102.421 E4.05738
G1 X99.592 Y104.27 E4.09309
G1 X99.605 Y104.36 E4.0946
G1 X99.614 Y104.694 E4.10015
G1 X99.543 Y105.02 E4.1057
G1 X99.396 Y105.32 E4.11126
G1 X99.183 Y105.577 E4.11681
G1 X98.915 Y105.777 E4.12237
G1 X98.635 Y105.894 E4.12742
G1 X98.746 Y106.004 E4.13002
G1 X98.953 Y106.266 E4.13557
G1 X99.093 Y106.569 E4.14112
G1 X99.16 Y106.985 E4.14813
G1 X99.165 Y107.522 E4.15706
G1 X99.128 Y107.854 E4.16261
G1 X99.014 Y108.168 E4.16817
G1 X98.932 Y108.282 E4.1705
G1 X99.199 Y108.303 E4.17496
G1 X99.516 Y108.407 E4.18051
G1 X99.8 Y108.583 E4.18606
G1 X100.034 Y108.822 E4.19162
G1 X100.205 Y109.109 E4.19718
G1 X100.23 Y109.19 E4.19859
G1 X106.036 Y112.043 E4.30617
G1 X106.054 Y112.053 E4.30651
G1 X107.558 Y112.819 E4.33458
G1 X108.385 Y112.183 E4.35193
G1 X108.398 Y112.158 E4.3524
G1 X108.591 Y111.886 E4.35795
G1 X108.908 Y111.625 E4.36478
G1 X109.531 Y111.25 E4.37687
G1 X109.836 Y111.113 E4.38243
G1 X110.253 Y111.049 E4.38944
G1 X110.402 Y111.049 E4.39192
G1 X112.068 Y111.037 E4.41963
G1 X112.4 Y111.075 E4.42519
G1 X112.81 Y111.244 E4.43256
G1 X113.408 Y111.611 E4.44423
G1 X113.67 Y111.818 E4.44978
G1 X113.89 Y112.107 E4.45582
G1 X114.269 Y112.767 E4.46848
G1 X114.305 Y112.761 E4.46909
