;FLAVOR:Marlin
;TIME:1731
;Filament used: 0.201514m
;Layer height: 0.1
;MINX:86.371
;MINY:110.978
;MINZ:0.1
;MAXX:103.547
;MAXY:127.014
;MAXZ:16.9
;Generated with Cura_SteamEngine 4.6.0
M140 S75
M105
M190 S75
M104 S195
M105
M109 S195
M82 ;absolute extrusion mode
G28 ;Home
G1 Z15.0 F6000 ;Move the platform
G92 E0
G1 F200 E3
G92 E0


G0 X0 Y15 F9000 ; Go to front
G0 Z0.15 ; Drop to bed
G92 E0 ; zero the extruded length
G1 X40 E25 F500 ; Extrude 25mm of filament in a 4cm line
G92 E0 ; zero the extruded length
G1 E-1 F500 ; Retract a little
G1 X80 F4000 ; Quickly wipe away from the filament line
G1 Z0.3 ; Raise and begin printing.
G92 E0
G92 E0
G1 F1500 E-6
;LAYER_COUNT:170
;LAYER:0
M107
M204 S1000
G0 F2400 X87.925 Y115.987 Z0.1
;TYPE:SKIRT
G1 F1500 E0
G1 F2400 X88.211 Y115.739 E0.0063
G1 X88.542 Y115.556 E0.01259
G1 X88.905 Y115.446 E0.01889
G1 X89.106 Y115.419 E0.02227
G1 X90.041 Y115.348 E0.03786
G1 X90.419 Y115.359 E0.04415
G1 X90.788 Y115.45 E0.05047
G1 X91.137 Y115.623 E0.05695
G1 X91.465 Y115.459 E0.06304
G1 X91.832 Y115.364 E0.06935
G1 X92.227 Y115.349 E0.07592
G1 X93.163 Y115.417 E0.09153
G1 X93.536 Y115.484 E0.09783
G1 X93.887 Y115.628 E0.10414
G1 X94.2 Y115.841 E0.11044
G1 X94.35 Y115.985 E0.1139
G1 X94.458 Y116.101 E0.11653
G1 X94.686 Y116.404 E0.12284
G1 X94.845 Y116.748 E0.12914
G1 X94.929 Y117.118 E0.13545
G1 X94.941 Y117.326 E0.13891
G1 X94.942 Y118.153 E0.15267
G1 X94.949 Y118.154 E0.15278
G1 X94.949 Y117.33 E0.16649
G1 X94.989 Y116.953 E0.17279
G1 X95.107 Y116.593 E0.17909
G1 X95.297 Y116.266 E0.18538
G1 X95.426 Y116.109 E0.18876
G1 X95.534 Y115.992 E0.19141
G1 X95.819 Y115.742 E0.19771
G1 X96.15 Y115.558 E0.20401
G1 X96.265 Y115.522 E0.20602
G1 X96.158 Y115.262 E0.21069
G1 X96.084 Y114.751 E0.21928
G1 X96.086 Y112.776 E0.25212
G1 X96.126 Y112.399 E0.25843
G1 X96.245 Y112.039 E0.26473
G1 X96.436 Y111.712 E0.27103
G1 X96.691 Y111.432 E0.27733
G1 X96.999 Y111.212 E0.28362
G1 X97.347 Y111.061 E0.28993
G1 X97.886 Y110.978 E0.299
G1 X100.756 Y110.978 E0.34673
G1 X101.133 Y111.018 E0.35303
G1 X101.493 Y111.136 E0.35933
G1 X101.82 Y111.326 E0.36562
G1 X102.101 Y111.581 E0.37193
G1 X102.321 Y111.89 E0.37824
G1 X102.473 Y112.237 E0.38454
G1 X102.556 Y112.736 E0.39295
G1 X102.604 Y114.775 E0.42687
G1 X102.572 Y115.152 E0.43316
G1 X102.463 Y115.515 E0.43947
G1 X102.28 Y115.847 E0.44577
G1 X102.066 Y116.094 E0.45121
G1 X102.073 Y116.101 E0.45137
G1 X102.301 Y116.404 E0.45768
G1 X102.46 Y116.748 E0.46398
G1 X102.544 Y117.118 E0.47029
G1 X102.556 Y117.326 E0.47375
G1 X102.557 Y118.381 E0.4913
G1 X102.517 Y118.758 E0.4976
G1 X102.4 Y119.118 E0.5039
G1 X102.213 Y119.441 E0.51011
G1 X102.268 Y119.479 E0.51122
G1 X102.528 Y119.755 E0.51752
G1 X102.724 Y120.079 E0.52382
G1 X102.848 Y120.437 E0.53012
G1 X102.895 Y120.845 E0.53695
G1 X102.895 Y121.452 E0.54705
G1 X103.038 Y121.571 E0.55014
G1 X103.273 Y121.868 E0.55644
G1 X103.44 Y122.208 E0.56274
G1 X103.533 Y122.575 E0.56903
G1 X103.547 Y122.954 E0.57534
G1 X103.423 Y123.496 E0.58459
G1 X102.62 Y125.507 E0.6206
G1 X102.443 Y125.843 E0.62691
G1 X102.2 Y126.133 E0.6332
G1 X101.901 Y126.367 E0.63952
G1 X101.561 Y126.533 E0.64581
G1 X101.193 Y126.623 E0.65211
G1 X100.892 Y126.64 E0.65712
G1 X100.551 Y126.815 E0.6635
G1 X100.197 Y126.951 E0.66981
G1 X99.73 Y127.013 E0.67764
G1 X98.417 Y127.014 E0.69948
G1 X98.04 Y126.974 E0.70578
G1 X97.68 Y126.857 E0.71207
G1 X97.362 Y126.671 E0.7182
G1 X97.141 Y126.793 E0.7224
G1 X96.778 Y126.903 E0.72871
G1 X96.401 Y126.935 E0.735
G1 X96.025 Y126.886 E0.74131
G1 X95.771 Y126.806 E0.74573
G1 X94.779 Y126.409 E0.7635
G1 X94.491 Y126.651 E0.76976
G1 X94.157 Y126.829 E0.77605
G1 X93.792 Y126.932 E0.78236
G1 X93.484 Y126.959 E0.7875
G1 X93.426 Y126.959 E0.78847
G1 X93.049 Y126.919 E0.79477
G1 X92.689 Y126.801 E0.80107
G1 X92.362 Y126.611 E0.80736
G1 X92.312 Y126.564 E0.8085
G1 X92.307 Y126.567 E0.8086
G1 X91.961 Y126.722 E0.8149
G1 X91.59 Y126.801 E0.82121
G1 X91.211 Y126.801 E0.82751
G1 X90.841 Y126.722 E0.83381
G1 X90.784 Y126.697 E0.83484
G1 X89.593 Y126.7 E0.85465
G1 X89.405 Y126.694 E0.85778
G1 X89.198 Y126.694 E0.86122
G1 X88.821 Y126.654 E0.86752
G1 X88.461 Y126.536 E0.87382
G1 X88.134 Y126.346 E0.88011
G1 X87.925 Y126.167 E0.88469
G1 X87.807 Y126.049 E0.88746
G1 X87.569 Y125.754 E0.89377
G1 X87.398 Y125.416 E0.90007
G1 X87.301 Y125.05 E0.90636
G1 X87.28 Y124.776 E0.91093
G1 X87.28 Y124.398 E0.91722
G1 X86.9 Y124.019 E0.92614
G1 X86.662 Y123.724 E0.93245
G1 X86.49 Y123.386 E0.93875
G1 X86.393 Y123.02 E0.94505
G1 X86.372 Y122.746 E0.94962
G1 X86.371 Y120.635 E0.98473
G1 X86.411 Y120.258 E0.99103
G1 X86.528 Y119.898 E0.99733
G1 X86.719 Y119.57 E1.00364
G1 X86.974 Y119.29 E1.00994
G1 X87.282 Y119.069 E1.01624
G1 X87.445 Y118.998 E1.0192
G1 X87.355 Y118.659 E1.02503
G1 X87.334 Y118.385 E1.0296
G1 X87.334 Y117.33 E1.04715
G1 X87.374 Y116.953 E1.05345
G1 X87.492 Y116.593 E1.05975
G1 X87.682 Y116.266 E1.06604
G1 X87.817 Y116.103 E1.06956
G1 X87.925 Y115.987 E1.0722
G0 X88.217 Y116.26
G1 X88.473 Y116.044 E1.07777
G1 X88.772 Y115.895 E1.08332
G1 X89.136 Y115.818 E1.08951
G1 X90.071 Y115.747 E1.1051
G1 X90.405 Y115.762 E1.11066
G1 X90.726 Y115.855 E1.11622
G1 X90.937 Y115.967 E1.12019
G1 X91.05 Y116.04 E1.12243
G1 X91.135 Y116.111 E1.12427
G1 X91.228 Y116.038 E1.12624
G1 X91.342 Y115.965 E1.12849
G1 X91.643 Y115.82 E1.13405
G1 X91.97 Y115.75 E1.13961
G1 X92.198 Y115.748 E1.1434
G1 X93.134 Y115.816 E1.15901
G1 X93.462 Y115.879 E1.16456
G1 X93.766 Y116.019 E1.17013
G1 X94.058 Y116.258 E1.1764
G1 X94.166 Y116.374 E1.17904
G1 X94.362 Y116.644 E1.18459
G1 X94.49 Y116.953 E1.19015
G1 X94.541 Y117.327 E1.19642
G1 X94.542 Y118.382 E1.21397
G1 X94.512 Y118.628 E1.21809
G1 X94.755 Y118.565 E1.22227
G1 X95.089 Y118.56 E1.22782
G1 X95.386 Y118.627 E1.23288
G1 X95.349 Y118.385 E1.23696
G1 X95.349 Y117.33 E1.2545
G1 X95.389 Y116.998 E1.26006
G1 X95.506 Y116.686 E1.2656
G1 X95.72 Y116.38 E1.27181
G1 X95.828 Y116.263 E1.27446
G1 X96.083 Y116.047 E1.28002
G1 X96.381 Y115.896 E1.28557
G1 X96.753 Y115.817 E1.2919
G1 X96.959 Y115.802 E1.29533
G1 X96.944 Y115.791 E1.29564
G1 X96.725 Y115.538 E1.30121
G1 X96.572 Y115.242 E1.30675
G1 X96.484 Y114.752 E1.31503
G1 X96.486 Y112.777 E1.34787
G1 X96.526 Y112.445 E1.35343
G1 X96.644 Y112.132 E1.359
G1 X96.832 Y111.856 E1.36455
G1 X97.081 Y111.633 E1.37011
G1 X97.375 Y111.475 E1.37566
G1 X97.698 Y111.391 E1.38121
G1 X97.886 Y111.378 E1.38434
G1 X100.756 Y111.378 E1.43207
G1 X101.088 Y111.418 E1.43763
G1 X101.4 Y111.535 E1.44317
G1 X101.677 Y111.723 E1.44874
G1 X101.9 Y111.971 E1.45429
G1 X102.059 Y112.265 E1.45985
G1 X102.156 Y112.745 E1.46799
G1 X102.204 Y114.784 E1.50191
G1 X102.172 Y115.117 E1.50747
G1 X102.062 Y115.432 E1.51302
G1 X101.88 Y115.712 E1.51857
G1 X101.637 Y115.942 E1.52414
G1 X101.43 Y116.06 E1.5281
G1 X101.673 Y116.258 E1.53331
G1 X101.781 Y116.374 E1.53595
G1 X101.977 Y116.644 E1.5415
G1 X102.105 Y116.953 E1.54706
G1 X102.156 Y117.327 E1.55334
G1 X102.157 Y118.382 E1.57088
G1 X102.117 Y118.713 E1.57643
G1 X102 Y119.026 E1.58198
G1 X101.764 Y119.356 E1.58873
G1 X101.651 Y119.473 E1.59143
G1 X101.578 Y119.532 E1.59299
G1 X101.866 Y119.677 E1.59836
G1 X102.121 Y119.893 E1.60391
G1 X102.317 Y120.163 E1.60946
G1 X102.444 Y120.472 E1.61502
G1 X102.495 Y120.845 E1.62128
G1 X102.495 Y121.653 E1.63472
G1 X102.59 Y121.708 E1.63654
G1 X102.831 Y121.939 E1.64209
G1 X103.012 Y122.22 E1.64765
G1 X103.12 Y122.536 E1.65321
G1 X103.15 Y122.869 E1.65877
G1 X103.051 Y123.348 E1.6669
G1 X102.248 Y125.359 E1.70291
G1 X102.088 Y125.652 E1.70846
G1 X101.863 Y125.899 E1.71402
G1 X101.586 Y126.086 E1.71958
G1 X101.273 Y126.202 E1.72513
G1 X100.948 Y126.24 E1.73057
G1 X100.795 Y126.24 E1.73311
G1 X100.368 Y126.459 E1.74109
G1 X100.055 Y126.575 E1.74665
G1 X99.73 Y126.613 E1.75209
G1 X98.417 Y126.614 E1.77392
G1 X98.085 Y126.574 E1.77948
G1 X97.772 Y126.457 E1.78504
G1 X97.418 Y126.196 E1.79236
G1 X97.382 Y126.16 E1.7932
G1 X97.211 Y126.305 E1.79693
G1 X96.912 Y126.454 E1.80249
G1 X96.586 Y126.527 E1.80804
G1 X96.252 Y126.522 E1.8136
G1 X95.92 Y126.435 E1.8193
G1 X94.654 Y125.928 E1.84198
G1 X94.653 Y125.93 E1.84202
G1 X94.437 Y126.185 E1.84758
G1 X94.166 Y126.381 E1.85314
G1 X93.857 Y126.508 E1.8587
G1 X93.484 Y126.559 E1.86496
G1 X93.426 Y126.559 E1.86592
G1 X93.094 Y126.519 E1.87148
G1 X92.782 Y126.402 E1.87702
G1 X92.505 Y126.214 E1.88259
G1 X92.365 Y126.072 E1.88591
G1 X92.364 Y126.07 E1.88594
G1 X92.105 Y126.221 E1.89093
G1 X91.799 Y126.353 E1.89647
G1 X91.469 Y126.409 E1.90204
G1 X91.136 Y126.386 E1.90759
G1 X90.893 Y126.296 E1.9119
G1 X89.606 Y126.3 E1.9333
G1 X89.418 Y126.294 E1.93643
G1 X89.198 Y126.294 E1.94009
G1 X88.866 Y126.254 E1.94565
G1 X88.554 Y126.137 E1.95119
G1 X88.208 Y125.884 E1.95832
G1 X88.09 Y125.766 E1.96109
G1 X87.884 Y125.503 E1.96665
G1 X87.745 Y125.199 E1.97221
G1 X87.68 Y124.776 E1.97933
G1 X87.68 Y124.232 E1.98837
G1 X87.183 Y123.736 E2.00005
G1 X86.976 Y123.473 E2.00562
G1 X86.838 Y123.169 E2.01117
G1 X86.772 Y122.746 E2.01829
G1 X86.771 Y120.635 E2.05339
G1 X86.811 Y120.303 E2.05895
G1 X86.928 Y119.99 E2.06451
G1 X87.116 Y119.714 E2.07007
G1 X87.364 Y119.49 E2.07562
G1 X87.658 Y119.331 E2.08118
G1 X87.981 Y119.247 E2.08673
G1 X88.043 Y119.246 E2.08776
G1 X87.938 Y119.112 E2.09059
G1 X87.799 Y118.808 E2.09615
G1 X87.734 Y118.385 E2.10327
G1 X87.734 Y117.33 E2.12081
G1 X87.774 Y116.998 E2.12638
G1 X87.891 Y116.686 E2.13192
G1 X88.109 Y116.376 E2.13822
G1 X88.217 Y116.26 E2.14085
G0 X88.51 Y116.533
G1 X88.73 Y116.355 E2.14556
G1 X88.99 Y116.246 E2.15025
G1 X89.166 Y116.217 E2.15322
G1 X90.101 Y116.146 E2.16881
G1 X90.383 Y116.164 E2.17351
G1 X90.72 Y116.303 E2.17957
G1 X90.833 Y116.376 E2.18181
G1 X91.046 Y116.561 E2.1865
G1 X91.132 Y116.708 E2.18933
G1 X91.173 Y116.631 E2.19078
G1 X91.444 Y116.375 E2.19698
G1 X91.558 Y116.302 E2.19923
G1 X91.814 Y116.185 E2.20391
G1 X92.169 Y116.147 E2.20985
G1 X93.105 Y116.215 E2.22546
G1 X93.381 Y116.275 E2.23016
G1 X93.629 Y116.409 E2.23484
G1 X93.765 Y116.531 E2.23788
G1 X93.873 Y116.647 E2.24052
G1 X94.034 Y116.878 E2.2452
G1 X94.124 Y117.145 E2.24989
G1 X94.141 Y117.327 E2.25293
G1 X94.142 Y118.382 E2.27047
G1 X94.102 Y118.661 E2.27516
G1 X93.986 Y118.919 E2.27986
G1 X93.861 Y119.078 E2.28323
G1 X93.748 Y119.195 E2.28593
G1 X93.526 Y119.368 E2.29061
G1 X93.263 Y119.472 E2.29531
G1 X93.051 Y119.5 E2.29887
G1 X92.784 Y119.506 E2.30331
G1 X91.702 Y119.507 E2.32131
G1 X91.423 Y119.467 E2.32599
G1 X91.165 Y119.351 E2.3307
G1 X91.136 Y119.324 E2.33136
G1 X90.958 Y119.43 E2.3348
G1 X90.57 Y119.507 E2.34138
G1 X89.247 Y119.502 E2.36338
G1 X88.968 Y119.461 E2.36807
G1 X88.711 Y119.344 E2.37277
G1 X88.544 Y119.209 E2.37634
G1 X88.427 Y119.092 E2.37909
G1 X88.258 Y118.866 E2.38378
G1 X88.158 Y118.602 E2.38848
G1 X88.134 Y118.385 E2.39211
G1 X88.134 Y117.33 E2.40965
G1 X88.174 Y117.051 E2.41434
G1 X88.29 Y116.794 E2.41903
G1 X88.402 Y116.649 E2.42208
G1 X88.51 Y116.533 E2.42471
G0 X88.803 Y116.805
G1 X88.978 Y116.675 E2.42834
G1 X89.197 Y116.616 E2.43211
G1 X90.132 Y116.545 E2.4477
G1 X90.348 Y116.568 E2.45132
G1 X90.503 Y116.639 E2.45415
G1 X90.616 Y116.712 E2.45639
G1 X90.774 Y116.862 E2.46001
G1 X90.855 Y117.013 E2.46286
G1 X91.138 Y117.799 E2.47675
G1 X91.418 Y117.015 E2.4906
G1 X91.528 Y116.826 E2.49423
G1 X91.659 Y116.712 E2.49712
G1 X91.773 Y116.639 E2.49937
G1 X91.976 Y116.556 E2.50302
G1 X92.14 Y116.546 E2.50575
G1 X93.076 Y116.614 E2.52136
G1 X93.288 Y116.669 E2.525
G1 X93.472 Y116.803 E2.52879
G1 X93.58 Y116.919 E2.53142
G1 X93.697 Y117.103 E2.53505
G1 X93.741 Y117.327 E2.53885
G1 X93.742 Y118.382 E2.55639
G1 X93.703 Y118.597 E2.56002
G1 X93.574 Y118.8 E2.56402
G1 X93.461 Y118.917 E2.56673
G1 X93.283 Y119.044 E2.57037
G1 X93.042 Y119.1 E2.57448
G1 X92.775 Y119.106 E2.57892
G1 X91.702 Y119.107 E2.59677
G1 X91.487 Y119.068 E2.6004
G1 X91.301 Y118.954 E2.60403
G1 X91.21 Y118.852 E2.6063
G1 X91.137 Y118.749 E2.6084
G1 X91.066 Y118.851 E2.61047
G1 X90.91 Y119.004 E2.6141
G1 X90.71 Y119.091 E2.61773
G1 X90.572 Y119.107 E2.62004
G1 X89.249 Y119.102 E2.64204
G1 X89.034 Y119.062 E2.64568
G1 X88.827 Y118.926 E2.6498
G1 X88.71 Y118.809 E2.65255
G1 X88.586 Y118.63 E2.65617
G1 X88.534 Y118.385 E2.66033
G1 X88.534 Y117.33 E2.67788
G1 X88.574 Y117.115 E2.68152
G1 X88.695 Y116.921 E2.68532
G1 X88.803 Y116.805 E2.68795
G0 X89.096 Y117.078
G1 X89.227 Y117.015 E2.69037
G1 X90.162 Y116.944 E2.70596
G1 X90.286 Y116.975 E2.70809
G1 X90.399 Y117.048 E2.71033
G1 X90.478 Y117.148 E2.71245
G1 X90.881 Y118.269 E2.73226
G1 X90.885 Y118.394 E2.73434
G1 X90.857 Y118.452 E2.73541
G1 X90.738 Y118.622 E2.73886
G1 X90.638 Y118.697 E2.74094
G1 X90.573 Y118.707 E2.74203
G1 X89.25 Y118.702 E2.76403
G1 X89.11 Y118.643 E2.76656
G1 X88.993 Y118.526 E2.76931
G1 X88.934 Y118.385 E2.77185
G1 X88.934 Y117.33 E2.7894
G1 X88.988 Y117.194 E2.79183
G1 X89.096 Y117.078 E2.79447
G1 F1500 E-3.20553
G0 F2400 X91.795 Y117.15
G1 F1500 E2.79447
G1 F2400 X91.875 Y117.049 E2.79661
G1 X91.989 Y116.976 E2.79886
G1 X92.111 Y116.945 E2.80095
G1 X93.047 Y117.013 E2.81656
G1 X93.179 Y117.076 E2.81899
G1 X93.287 Y117.192 E2.82163
G1 X93.341 Y117.328 E2.82406
G1 X93.342 Y118.383 E2.84161
G1 X93.286 Y118.522 E2.8441
G1 X93.173 Y118.639 E2.8468
G1 X93.033 Y118.7 E2.84934
G1 X92.766 Y118.706 E2.85379
G1 X91.701 Y118.707 E2.8715
G1 X91.582 Y118.668 E2.87358
G1 X91.537 Y118.622 E2.87465
G1 X91.418 Y118.453 E2.87809
G1 X91.382 Y118.334 E2.88015
G1 X91.394 Y118.271 E2.88122
G1 X91.795 Y117.15 E2.90102
G1 F1500 E-3.09898
G0 F2400 X91.924 Y116.468
G0 X93.071 Y116.549
G0 X95.789 Y117.051
G1 F1500 E2.90102
G1 F2400 X95.905 Y116.794 E2.90571
G1 X96.014 Y116.652 E2.90869
G1 X96.122 Y116.535 E2.91133
G1 X96.341 Y116.356 E2.91604
G1 X96.601 Y116.246 E2.92073
G1 X96.782 Y116.216 E2.92378
G1 X97.718 Y116.146 E2.93939
G1 X98 Y116.165 E2.94409
G1 X98.336 Y116.303 E2.95013
G1 X98.449 Y116.376 E2.95237
G1 X98.662 Y116.561 E2.95706
G1 X98.747 Y116.707 E2.95987
G1 X98.788 Y116.631 E2.96131
G1 X99.059 Y116.375 E2.96751
G1 X99.173 Y116.302 E2.96976
G1 X99.429 Y116.185 E2.97444
G1 X99.784 Y116.147 E2.98038
G1 X100.72 Y116.215 E2.99598
G1 X100.996 Y116.275 E3.00068
G1 X101.244 Y116.409 E3.00537
G1 X101.38 Y116.531 E3.00841
G1 X101.488 Y116.647 E3.01104
G1 X101.649 Y116.878 E3.01573
G1 X101.739 Y117.145 E3.02041
G1 X101.756 Y117.327 E3.02345
G1 X101.757 Y118.382 E3.041
G1 X101.717 Y118.661 E3.04568
G1 X101.601 Y118.919 E3.05039
G1 X101.476 Y119.078 E3.05375
G1 X101.363 Y119.195 E3.05646
G1 X101.141 Y119.368 E3.06114
G1 X100.878 Y119.472 E3.06584
G1 X100.666 Y119.5 E3.0694
G1 X100.399 Y119.506 E3.07384
G1 X99.317 Y119.507 E3.09183
G1 X99.038 Y119.467 E3.09652
G1 X98.78 Y119.351 E3.10122
G1 X98.752 Y119.324 E3.10187
G1 X98.574 Y119.43 E3.10531
G1 X98.186 Y119.507 E3.11189
G1 X96.862 Y119.502 E3.13391
G1 X96.583 Y119.461 E3.1386
G1 X96.326 Y119.344 E3.1433
G1 X96.159 Y119.209 E3.14687
G1 X96.042 Y119.092 E3.14962
G1 X95.873 Y118.866 E3.15431
G1 X95.773 Y118.602 E3.15901
G1 X95.749 Y118.385 E3.16264
G1 X95.749 Y117.33 E3.18018
G1 X95.789 Y117.051 E3.18487
G0 X96.149 Y117.33
G1 X96.189 Y117.115 E3.18851
G1 X96.308 Y116.923 E3.19226
G1 X96.416 Y116.806 E3.19491
G1 X96.591 Y116.675 E3.19855
G1 X96.812 Y116.615 E3.20236
G1 X97.748 Y116.545 E3.21796
G1 X97.965 Y116.568 E3.22159
G1 X98.119 Y116.639 E3.22441
G1 X98.232 Y116.712 E3.22665
G1 X98.39 Y116.862 E3.23027
G1 X98.471 Y117.013 E3.23312
G1 X98.753 Y117.798 E3.24699
G1 X99.033 Y117.015 E3.26082
G1 X99.143 Y116.826 E3.26446
G1 X99.274 Y116.712 E3.26735
G1 X99.388 Y116.639 E3.2696
G1 X99.591 Y116.556 E3.27325
G1 X99.755 Y116.546 E3.27598
G1 X100.691 Y116.614 E3.29159
G1 X100.903 Y116.669 E3.29523
G1 X101.087 Y116.803 E3.29901
G1 X101.195 Y116.919 E3.30165
G1 X101.312 Y117.103 E3.30528
G1 X101.356 Y117.327 E3.30907
G1 X101.357 Y118.382 E3.32662
G1 X101.318 Y118.597 E3.33025
G1 X101.189 Y118.8 E3.33425
G1 X101.076 Y118.917 E3.33696
G1 X100.898 Y119.044 E3.34059
G1 X100.657 Y119.1 E3.34471
G1 X100.39 Y119.106 E3.34915
G1 X99.317 Y119.107 E3.36699
G1 X99.102 Y119.068 E3.37063
G1 X98.916 Y118.954 E3.37425
G1 X98.825 Y118.852 E3.37653
G1 X98.753 Y118.75 E3.3786
G1 X98.682 Y118.851 E3.38066
