;FLAVOR:Marlin
;TIME:592
;Filament used: 0.136941m
;Layer height: 0.1
;MINX:85.328
;MINY:99.293
;MINZ:0.1
;MAXX:101.86
;MAXY:115.779
;MAXZ:9.9
;Generated with Cura_SteamEngine 4.6.0
M140 S75
M105
M190 S75
M104 S195
M105
M109 S195
M82 ;absolute extrusion mode
G28 ;Home
G1 Z15.0 F6000 ;Move the platform
G92 E0
G1 F200 E3
G92 E0


G0 X0 Y15 F9000 ; Go to front
G0 Z0.15 ; Drop to bed
G92 E0 ; zero the extruded length
G1 X40 E25 F500 ; Extrude 25mm of filament in a 4cm line
G92 E0 ; zero the extruded length
G1 E-1 F500 ; Retract a little
G1 X80 F4000 ; Quickly wipe away from the filament line
G1 Z0.3 ; Raise and begin printing.
G92 E0
G92 E0
G1 F1500 E-6
;LAYER_COUNT:99
;LAYER:0
M107
M204 S1000
G0 F2400 X85.931 Y104.543 Z0.1
;TYPE:SKIRT
G1 F1500 E0
G1 F2400 X86.24 Y104.323 E0.00631
G1 X86.587 Y104.171 E0.01261
G1 X87.128 Y104.088 E0.02171
G1 X87.565 Y104.088 E0.02898
G1 X87.717 Y104.003 E0.03187
G1 X88.08 Y103.892 E0.03819
G1 X88.423 Y103.859 E0.04392
G1 X88.814 Y103.859 E0.05042
G1 X89.988 Y102.686 E0.07802
G1 X89.988 Y102.375 E0.08319
G1 X90.028 Y101.998 E0.08949
G1 X90.146 Y101.638 E0.09579
G1 X90.212 Y101.518 E0.09807
G1 X90.212 Y101.093 E0.10514
G1 X90.252 Y100.716 E0.11144
G1 X90.37 Y100.356 E0.11775
G1 X90.56 Y100.029 E0.12403
G1 X90.815 Y99.748 E0.13034
G1 X91.124 Y99.528 E0.13665
G1 X91.471 Y99.376 E0.14295
G1 X92.012 Y99.293 E0.15206
G1 X95.287 Y99.293 E0.20652
G1 X95.664 Y99.333 E0.21282
G1 X96.024 Y99.451 E0.21912
G1 X96.351 Y99.641 E0.22541
G1 X96.632 Y99.896 E0.23172
G1 X96.852 Y100.205 E0.23803
G1 X97.004 Y100.552 E0.24433
G1 X97.079 Y100.923 E0.25063
G1 X97.075 Y101.305 E0.25698
G1 X97.072 Y101.327 E0.25735
G1 X97.154 Y101.562 E0.26149
G1 X97.201 Y101.97 E0.26832
G1 X97.201 Y102.825 E0.28254
G1 X98.237 Y103.861 E0.3069
G1 X98.747 Y103.861 E0.31538
G1 X99.124 Y103.901 E0.32169
G1 X99.484 Y104.019 E0.32799
G1 X99.606 Y104.087 E0.33031
G1 X100.06 Y104.087 E0.33786
G1 X100.437 Y104.127 E0.34416
G1 X100.797 Y104.245 E0.35047
G1 X101.124 Y104.435 E0.35675
G1 X101.405 Y104.69 E0.36306
G1 X101.625 Y104.999 E0.36937
G1 X101.777 Y105.346 E0.37567
G1 X101.86 Y105.887 E0.38477
G1 X101.86 Y109.138 E0.43884
G1 X101.82 Y109.515 E0.44514
G1 X101.702 Y109.875 E0.45144
G1 X101.512 Y110.202 E0.45773
G1 X101.257 Y110.483 E0.46404
G1 X100.948 Y110.703 E0.47035
G1 X100.601 Y110.855 E0.47665
G1 X100.06 Y110.938 E0.48575
G1 X99.602 Y110.938 E0.49337
G1 X99.446 Y111.024 E0.49633
G1 X99.083 Y111.134 E0.50264
G1 X98.746 Y111.166 E0.50827
G1 X98.235 Y111.166 E0.51677
G1 X97.247 Y112.154 E0.54
G1 X97.247 Y112.665 E0.5485
G1 X97.207 Y113.042 E0.55481
G1 X97.089 Y113.402 E0.56111
G1 X97.022 Y113.522 E0.56339
G1 X97.022 Y113.979 E0.57099
G1 X96.982 Y114.356 E0.5773
G1 X96.864 Y114.716 E0.5836
G1 X96.674 Y115.043 E0.58989
G1 X96.419 Y115.324 E0.5962
G1 X96.11 Y115.544 E0.60251
G1 X95.763 Y115.696 E0.60881
G1 X95.222 Y115.779 E0.61791
G1 X92.644 Y115.779 E0.66078
G1 X92.267 Y115.739 E0.66709
G1 X91.907 Y115.621 E0.67339
G1 X91.58 Y115.431 E0.67967
G1 X91.371 Y115.252 E0.68425
G1 X90.467 Y114.348 E0.70551
G1 X90.229 Y114.053 E0.71181
G1 X90.058 Y113.715 E0.71811
G1 X89.961 Y113.349 E0.72441
G1 X89.94 Y113.075 E0.72898
G1 X89.94 Y112.155 E0.74428
G1 X88.951 Y111.166 E0.76754
G1 X88.439 Y111.166 E0.77606
G1 X88.062 Y111.126 E0.78236
G1 X87.702 Y111.008 E0.78866
G1 X87.58 Y110.939 E0.79099
G1 X87.128 Y110.939 E0.79851
G1 X86.751 Y110.899 E0.80481
G1 X86.391 Y110.781 E0.81111
G1 X86.064 Y110.591 E0.8174
G1 X85.783 Y110.336 E0.82371
G1 X85.563 Y110.027 E0.83002
G1 X85.411 Y109.68 E0.83632
G1 X85.328 Y109.139 E0.84542
G1 X85.328 Y105.888 E0.89949
G1 X85.368 Y105.511 E0.90579
G1 X85.486 Y105.151 E0.91209
G1 X85.676 Y104.824 E0.91838
G1 X85.931 Y104.543 E0.92469
G0 X86.321 Y104.744
G1 X86.615 Y104.585 E0.93025
G1 X86.939 Y104.501 E0.93582
G1 X87.128 Y104.488 E0.93897
G1 X87.667 Y104.488 E0.94793
G1 X87.911 Y104.356 E0.95254
G1 X88.234 Y104.272 E0.95809
G1 X88.423 Y104.259 E0.96124
G1 X88.98 Y104.259 E0.97051
G1 X90.388 Y102.852 E1.00361
G1 X90.388 Y102.375 E1.01154
G1 X90.428 Y102.043 E1.0171
G1 X90.612 Y101.626 E1.02468
G1 X90.612 Y101.093 E1.03355
G1 X90.652 Y100.761 E1.03911
G1 X90.769 Y100.449 E1.04465
G1 X90.957 Y100.172 E1.05022
G1 X91.205 Y99.949 E1.05576
G1 X91.499 Y99.79 E1.06132
G1 X91.823 Y99.706 E1.06689
G1 X92.012 Y99.693 E1.07004
G1 X95.287 Y99.693 E1.1245
G1 X95.619 Y99.733 E1.13006
G1 X95.931 Y99.85 E1.1356
G1 X96.208 Y100.038 E1.14117
G1 X96.431 Y100.286 E1.14672
G1 X96.59 Y100.58 E1.15228
G1 X96.674 Y100.904 E1.15784
G1 X96.677 Y101.258 E1.16373
G1 X96.664 Y101.366 E1.16554
G1 X96.668 Y101.374 E1.16569
G1 X96.773 Y101.691 E1.17124
G1 X96.801 Y101.97 E1.1759
G1 X96.801 Y102.991 E1.19288
G1 X98.071 Y104.261 E1.22275
G1 X98.747 Y104.261 E1.23399
G1 X99.079 Y104.301 E1.23956
G1 X99.497 Y104.487 E1.24716
G1 X100.06 Y104.487 E1.25653
G1 X100.392 Y104.527 E1.26209
G1 X100.704 Y104.644 E1.26763
G1 X100.981 Y104.832 E1.2732
G1 X101.204 Y105.08 E1.27874
G1 X101.363 Y105.374 E1.2843
G1 X101.447 Y105.698 E1.28987
G1 X101.46 Y105.887 E1.29302
G1 X101.46 Y109.138 E1.34708
G1 X101.42 Y109.47 E1.35264
G1 X101.303 Y109.782 E1.35818
G1 X101.115 Y110.059 E1.36375
G1 X100.867 Y110.282 E1.3693
G1 X100.573 Y110.441 E1.37486
G1 X100.249 Y110.525 E1.38042
G1 X100.06 Y110.538 E1.38357
G1 X99.501 Y110.538 E1.39287
G1 X99.254 Y110.671 E1.39754
G1 X98.93 Y110.754 E1.4031
G1 X98.746 Y110.766 E1.40616
G1 X98.069 Y110.766 E1.41742
G1 X96.847 Y111.988 E1.44616
G1 X96.847 Y112.665 E1.45742
G1 X96.807 Y112.997 E1.46298
G1 X96.622 Y113.414 E1.47057
G1 X96.622 Y113.979 E1.47996
G1 X96.582 Y114.311 E1.48553
G1 X96.465 Y114.623 E1.49107
G1 X96.277 Y114.9 E1.49663
G1 X96.029 Y115.123 E1.50218
G1 X95.735 Y115.282 E1.50774
G1 X95.411 Y115.366 E1.5133
G1 X95.222 Y115.379 E1.51646
G1 X92.644 Y115.379 E1.55933
G1 X92.312 Y115.339 E1.56489
G1 X92 Y115.222 E1.57043
G1 X91.654 Y114.969 E1.57756
G1 X90.75 Y114.065 E1.59882
G1 X90.544 Y113.802 E1.60437
G1 X90.405 Y113.498 E1.60993
G1 X90.34 Y113.075 E1.61705
G1 X90.34 Y111.989 E1.63511
G1 X89.117 Y110.766 E1.66387
G1 X88.439 Y110.766 E1.67515
G1 X88.107 Y110.726 E1.68071
G1 X87.795 Y110.609 E1.68625
G1 X87.679 Y110.539 E1.68851
G1 X87.128 Y110.539 E1.69767
G1 X86.796 Y110.499 E1.70323
G1 X86.484 Y110.382 E1.70877
G1 X86.207 Y110.194 E1.71434
G1 X85.984 Y109.946 E1.71988
G1 X85.825 Y109.652 E1.72544
G1 X85.741 Y109.328 E1.73101
G1 X85.728 Y109.139 E1.73416
G1 X85.728 Y105.888 E1.78822
G1 X85.768 Y105.556 E1.79379
G1 X85.885 Y105.244 E1.79933
G1 X86.073 Y104.967 E1.80489
G1 X86.321 Y104.744 E1.81044
G0 X86.467 Y105.137
G1 X86.703 Y104.983 E1.81513
G1 X86.973 Y104.9 E1.81982
G1 X87.128 Y104.888 E1.82241
G1 X87.782 Y104.888 E1.83329
G1 X87.847 Y104.842 E1.83461
G1 X88.098 Y104.713 E1.8393
G1 X88.423 Y104.659 E1.84478
G1 X89.146 Y104.659 E1.85681
G1 X90.788 Y103.018 E1.89541
G1 X90.788 Y102.375 E1.9061
G1 X90.828 Y102.096 E1.91079
G1 X90.958 Y101.817 E1.91591
G1 X91.012 Y101.737 E1.91752
G1 X91.012 Y101.093 E1.92822
G1 X91.052 Y100.814 E1.93291
G1 X91.168 Y100.557 E1.9376
G1 X91.351 Y100.342 E1.9423
G1 X91.587 Y100.188 E1.94698
G1 X91.857 Y100.105 E1.95168
G1 X92.012 Y100.093 E1.95427
G1 X95.287 Y100.093 E2.00873
G1 X95.566 Y100.133 E2.01342
G1 X95.823 Y100.249 E2.01811
G1 X96.038 Y100.432 E2.0228
G1 X96.192 Y100.668 E2.02749
G1 X96.275 Y100.938 E2.03218
G1 X96.28 Y101.211 E2.03673
G1 X96.254 Y101.433 E2.04044
G1 X96.306 Y101.544 E2.04248
G1 X96.389 Y101.814 E2.04718
G1 X96.401 Y101.97 E2.04978
G1 X96.401 Y103.157 E2.06952
G1 X97.905 Y104.661 E2.10489
G1 X98.747 Y104.661 E2.11889
G1 X99.026 Y104.701 E2.12358
G1 X99.31 Y104.834 E2.1288
G1 X99.388 Y104.887 E2.13037
G1 X100.06 Y104.887 E2.14154
G1 X100.339 Y104.927 E2.14623
G1 X100.596 Y105.043 E2.15092
G1 X100.811 Y105.226 E2.15561
G1 X100.965 Y105.462 E2.1603
G1 X101.048 Y105.732 E2.165
G1 X101.06 Y105.887 E2.16758
G1 X101.06 Y109.138 E2.22165
G1 X101.02 Y109.417 E2.22633
G1 X100.904 Y109.674 E2.23102
G1 X100.721 Y109.889 E2.23572
G1 X100.485 Y110.043 E2.2404
G1 X100.215 Y110.126 E2.2451
G1 X100.06 Y110.138 E2.24769
G1 X99.386 Y110.138 E2.2589
G1 X99.319 Y110.185 E2.26026
G1 X99.067 Y110.313 E2.26496
G1 X98.746 Y110.366 E2.27037
G1 X97.903 Y110.366 E2.28439
G1 X96.447 Y111.822 E2.31863
G1 X96.447 Y112.665 E2.33265
G1 X96.407 Y112.944 E2.33734
G1 X96.275 Y113.226 E2.34251
G1 X96.222 Y113.304 E2.34408
G1 X96.222 Y113.979 E2.35531
G1 X96.182 Y114.258 E2.35999
G1 X96.066 Y114.515 E2.36468
G1 X95.883 Y114.73 E2.36938
G1 X95.647 Y114.884 E2.37407
G1 X95.377 Y114.967 E2.37876
G1 X95.222 Y114.979 E2.38135
G1 X92.644 Y114.979 E2.42422
G1 X92.365 Y114.939 E2.42891
G1 X92.108 Y114.823 E2.4336
G1 X91.937 Y114.686 E2.43724
G1 X91.033 Y113.782 E2.4585
G1 X90.864 Y113.556 E2.46319
G1 X90.764 Y113.292 E2.46789
G1 X90.74 Y113.075 E2.47152
G1 X90.74 Y111.823 E2.49234
G1 X89.283 Y110.366 E2.52661
G1 X88.439 Y110.366 E2.54064
G1 X88.16 Y110.326 E2.54533
G1 X87.869 Y110.187 E2.55069
G1 X87.8 Y110.139 E2.55209
G1 X87.128 Y110.139 E2.56327
G1 X86.849 Y110.099 E2.56795
G1 X86.592 Y109.983 E2.57264
G1 X86.377 Y109.8 E2.57734
G1 X86.223 Y109.564 E2.58202
G1 X86.14 Y109.294 E2.58672
G1 X86.128 Y109.139 E2.58931
G1 X86.128 Y105.888 E2.64337
G1 X86.168 Y105.609 E2.64806
G1 X86.284 Y105.352 E2.65275
G1 X86.467 Y105.137 E2.65744
G0 X86.681 Y105.487
G1 X86.854 Y105.354 E2.66107
G1 X87.128 Y105.288 E2.66576
G1 X87.908 Y105.288 E2.67873
G1 X88.077 Y105.169 E2.68217
G1 X88.276 Y105.077 E2.68581
G1 X88.423 Y105.059 E2.68828
G1 X89.312 Y105.059 E2.70306
G1 X91.188 Y103.184 E2.74717
G1 X91.188 Y102.375 E2.76062
G1 X91.228 Y102.16 E2.76426
G1 X91.29 Y102.04 E2.76651
G1 X91.412 Y101.859 E2.77014
G1 X91.412 Y101.093 E2.78288
G1 X91.452 Y100.878 E2.78651
G1 X91.565 Y100.692 E2.79013
G1 X91.738 Y100.559 E2.79376
G1 X92.012 Y100.493 E2.79845
G1 X95.287 Y100.493 E2.85291
G1 X95.502 Y100.533 E2.85655
G1 X95.688 Y100.646 E2.86017
G1 X95.821 Y100.819 E2.8638
G1 X95.883 Y101.028 E2.86742
G1 X95.883 Y101.164 E2.86968
G1 X95.843 Y101.501 E2.87533
G1 X95.944 Y101.715 E2.87926
G1 X96.001 Y101.97 E2.88361
G1 X96.001 Y103.323 E2.90611
G1 X97.739 Y105.061 E2.94698
G1 X98.747 Y105.061 E2.96375
G1 X98.962 Y105.101 E2.96738
G1 X99.085 Y105.165 E2.96969
G1 X99.264 Y105.287 E2.97329
G1 X100.06 Y105.287 E2.98653
G1 X100.275 Y105.327 E2.99017
G1 X100.461 Y105.44 E2.99378
G1 X100.594 Y105.613 E2.99741
G1 X100.66 Y105.887 E3.0021
G1 X100.66 Y109.138 E3.05616
G1 X100.62 Y109.353 E3.0598
G1 X100.507 Y109.539 E3.06342
G1 X100.334 Y109.672 E3.06705
G1 X100.06 Y109.738 E3.07174
G1 X99.262 Y109.738 E3.08501
G1 X99.09 Y109.858 E3.0885
G1 X98.891 Y109.948 E3.09213
G1 X98.746 Y109.966 E3.09456
G1 X97.737 Y109.966 E3.11134
G1 X96.047 Y111.656 E3.15108
G1 X96.047 Y112.665 E3.16786
G1 X96.007 Y112.88 E3.1715
G1 X95.944 Y113.002 E3.17378
G1 X95.822 Y113.182 E3.1774
G1 X95.822 Y113.979 E3.19065
G1 X95.782 Y114.194 E3.19429
G1 X95.669 Y114.38 E3.19791
G1 X95.496 Y114.513 E3.20154
G1 X95.222 Y114.579 E3.20623
G1 X92.644 Y114.579 E3.2491
G1 X92.429 Y114.539 E3.25273
G1 X92.22 Y114.403 E3.25688
G1 X91.316 Y113.499 E3.27814
G1 X91.192 Y113.32 E3.28176
G1 X91.14 Y113.075 E3.28593
G1 X91.14 Y111.657 E3.30951
G1 X89.449 Y109.966 E3.34928
G1 X88.439 Y109.966 E3.36608
G1 X88.224 Y109.926 E3.36971
G1 X88.097 Y109.859 E3.3721
G1 X87.924 Y109.739 E3.3756
G1 X87.128 Y109.739 E3.38884
G1 X86.913 Y109.699 E3.39248
G1 X86.727 Y109.586 E3.3961
G1 X86.594 Y109.413 E3.39972
G1 X86.528 Y109.139 E3.40441
G1 X86.528 Y105.888 E3.45848
G1 X86.568 Y105.673 E3.46211
G1 X86.681 Y105.487 E3.46573
G0 X86.967 Y105.769
G1 X87.128 Y105.688 E3.46873
G1 X88.036 Y105.688 E3.48383
G1 X88.308 Y105.496 E3.48937
G1 X88.423 Y105.459 E3.49138
G1 X89.478 Y105.459 E3.50892
G1 X91.588 Y103.35 E3.55853
G1 X91.588 Y102.375 E3.57475
G1 X91.622 Y102.263 E3.57669
G1 X91.812 Y101.981 E3.58235
G1 X91.812 Y101.093 E3.59712
G1 X91.851 Y100.974 E3.5992
G1 X92.012 Y100.893 E3.6022
G1 X95.287 Y100.893 E3.65666
G1 X95.406 Y100.932 E3.65874
G1 X95.478 Y101.034 E3.66082
G1 X95.486 Y101.117 E3.6622
G1 X95.433 Y101.567 E3.66974
G1 X95.582 Y101.885 E3.67558
G1 X95.601 Y101.97 E3.67703
G1 X95.601 Y103.489 E3.70229
G1 X97.573 Y105.461 E3.74867
G1 X98.747 Y105.461 E3.76819
G1 X98.86 Y105.496 E3.77016
G1 X99.141 Y105.687 E3.77581
G1 X100.06 Y105.687 E3.79109
G1 X100.179 Y105.726 E3.79317
G1 X100.26 Y105.887 E3.79617
G1 X100.26 Y109.138 E3.85024
G1 X100.221 Y109.257 E3.85232
G1 X100.06 Y109.338 E3.85532
G1 X99.136 Y109.338 E3.87068
G1 X98.861 Y109.53 E3.87626
G1 X98.746 Y109.566 E3.87826
G1 X97.571 Y109.566 E3.8978
G1 X95.647 Y111.49 E3.94305
G1 X95.647 Y112.665 E3.96259
G1 X95.613 Y112.777 E3.96454
G1 X95.422 Y113.059 E3.9702
G1 X95.422 Y113.979 E3.9855
G1 X95.383 Y114.098 E3.98759
G1 X95.222 Y114.179 E3.99058
G1 X92.644 Y114.179 E4.03346
G1 X92.503 Y114.12 E4.036
G1 X91.599 Y113.216 E4.05726
G1 X91.54 Y113.075 E4.0598
G1 X91.54 Y111.491 E4.08614
G1 X89.615 Y109.566 E4.13142
G1 X88.439 Y109.566 E4.15097
G1 X88.325 Y109.53 E4.15296
G1 X88.05 Y109.339 E4.15853
G1 X87.128 Y109.339 E4.17386
G1 X87.009 Y109.3 E4.17594
G1 X86.928 Y109.139 E4.17894
G1 X86.928 Y105.888 E4.23301
G1 X86.967 Y105.769 E4.23509
G0 X87.328 Y106.088
G1 X88.097 Y106.088 E4.24788
G1 X88.212 Y106.052 E4.24988
G1 X88.488 Y105.859 E4.25548
G1 X89.56 Y105.859 E4.27331
G1 X89.701 Y105.801 E4.27584
G1 X91.929 Y103.574 E4.32823
G1 X91.988 Y103.432 E4.33079
G1 X91.988 Y102.436 E4.34735
G1 X92.178 Y102.155 E4.35299
G1 X92.212 Y102.043 E4.35494
G1 X92.212 Y101.293 E4.36741
G1 X95.061 Y101.293 E4.41479
G1 X95.028 Y101.576 E4.41953
G1 X95.046 Y101.685 E4.42137
G1 X95.201 Y102.015 E4.42743
G1 X95.201 Y103.571 E4.45331
G1 X95.26 Y103.712 E4.45585
G1 X97.35 Y105.802 E4.505
G1 X97.491 Y105.861 E4.50754
G1 X98.686 Y105.861 E4.52742
G1 X98.965 Y106.052 E4.53304
G1 X99.078 Y106.087 E4.53501
G1 X99.86 Y106.087 E4.54801
G1 X99.86 Y108.938 E4.59542
G1 X99.073 Y108.938 E4.60851
G1 X98.959 Y108.974 E4.6105
G1 X98.683 Y109.166 E4.61609
G1 X97.489 Y109.166 E4.63595
G1 X97.348 Y109.225 E4.63849
G1 X95.306 Y111.267 E4.68651
G1 X95.247 Y111.408 E4.68906
G1 X95.247 Y112.604 E4.70895
G1 X95.057 Y112.883 E4.71456
G1 X95.022 Y112.996 E4.71653
G1 X95.022 Y113.779 E4.72955
G1 X92.726 Y113.779 E4.76773
G1 X91.94 Y112.993 E4.78622
G1 X91.94 Y111.409 E4.81256
G1 X91.881 Y111.268 E4.8151
G1 X89.838 Y109.225 E4.86315
G1 X89.697 Y109.166 E4.86569
G1 X88.503 Y109.166 E4.88555
G1 X88.225 Y108.974 E4.89116
G1 X88.111 Y108.939 E4.89315
G1 X87.328 Y108.939 E4.90617
G1 X87.328 Y106.088 E4.95358
G0 X87.728 Y106.488
G1 X88.097 Y106.488 E4.95972
G1 X88.312 Y106.448 E4.96335
G1 X88.441 Y106.379 E4.96579
G1 X88.612 Y106.259 E4.96926
G1 X89.56 Y106.259 E4.98503
G1 X89.775 Y106.219 E4.98866
G1 X89.984 Y106.084 E4.9928
G1 X90.462 Y105.607 E5.00403
G1 X90.421 Y105.669 E5.00527
G1 X90.315 Y105.866 E5.00899
G1 X90.267 Y105.966 E5.01083
G1 X90.249 Y106.005 E5.01155
G1 X90.099 Y106.391 E5.01843
G1 X90.076 Y106.472 E5.01983
G1 X90.074 Y106.477 E5.01992
G1 X90.046 Y106.577 E5.02165
G1 X90.038 Y106.609 E5.0222
G1 X89.97 Y106.929 E5.02764
G1 X89.947 Y107.1 E5.03051
G1 X89.936 Y107.22 E5.03251
G1 X89.934 Y107.249 E5.033
G1 X89.923 Y107.538 E5.03781
G1 X89.929 Y107.707 E5.04062
G1 X89.937 Y107.827 E5.04262
G1 X89.941 Y107.866 E5.04327
G1 X89.993 Y108.225 E5.0493
G1 X90.036 Y108.41 E5.05246
G1 X90.069 Y108.53 E5.05453
G1 X90.151 Y108.782 E5.05894
G1 X90.294 Y109.115 E5.06496
G1 X90.121 Y108.942 E5.06903
G1 X89.942 Y108.818 E5.07265
G1 X89.697 Y108.766 E5.07682
G1 X88.627 Y108.766 E5.09461
G1 X88.452 Y108.645 E5.09815
G1 X88.253 Y108.556 E5.10178
G1 X88.111 Y108.539 E5.10416
G1 X87.728 Y108.539 E5.11053
G1 X87.728 Y106.488 E5.14463
G0 X88.128 Y106.884
G1 X88.376 Y106.848 E5.1488
G1 X88.671 Y106.707 E5.15424
G1 X88.74 Y106.659 E5.15564
G1 X89.56 Y106.659 E5.16927
G1 X89.619 Y106.65 E5.17027
G1 X89.592 Y106.774 E5.17238
G1 X89.551 Y107.047 E5.17697
G1 X89.537 Y107.183 E5.17924
G1 X89.523 Y107.517 E5.1848
G1 X89.53 Y107.721 E5.18819
G1 X89.545 Y107.92 E5.19151
G1 X89.608 Y108.336 E5.19851
G1 X89.615 Y108.366 E5.19902
G1 X88.751 Y108.366 E5.21339
G1 X88.679 Y108.316 E5.21485
G1 X88.426 Y108.19 E5.21955
