;FLAVOR:Marlin
;TIME:2877
;Filament used: 0.802168m
;Layer height: 0.1
;MINX:68.739
;MINY:102.688
;MINZ:0.1
;MAXX:121.261
;MAXY:135.749
;MAXZ:8.4
;Generated with Cura_SteamEngine 4.6.0
M140 S75
M105
M190 S75
M104 S195
M105
M109 S195
M82 ;absolute extrusion mode
G28 ;Home
G1 Z15.0 F6000 ;Move the platform
G92 E0
G1 F200 E3
G92 E0


G0 X0 Y15 F9000 ; Go to front
G0 Z0.15 ; Drop to bed
G92 E0 ; zero the extruded length
G1 X40 E25 F500 ; Extrude 25mm of filament in a 4cm line
G92 E0 ; zero the extruded length
G1 E-1 F500 ; Retract a little
G1 X80 F4000 ; Quickly wipe away from the filament line
G1 Z0.3 ; Raise and begin printing.
G92 E0
G92 E0
G1 F1500 E-6
;LAYER_COUNT:85
;LAYER:0
M107
M204 S1000
G0 F2400 X71.043 Y103.305 Z0.1
;TYPE:SKIRT
G1 F1500 E0
G1 F2400 X71.321 Y103.048 E0.0063
G1 X71.646 Y102.853 E0.0126
G1 X72.005 Y102.732 E0.0189
G1 X72.381 Y102.688 E0.02519
G1 X72.759 Y102.724 E0.03151
G1 X73.009 Y102.796 E0.03584
G1 X73.239 Y102.73 E0.03982
G1 X73.618 Y102.704 E0.04613
G1 X73.993 Y102.759 E0.05244
G1 X74.348 Y102.89 E0.05873
G1 X74.668 Y103.093 E0.06503
G1 X74.938 Y103.359 E0.07133
G1 X75.119 Y103.623 E0.07666
G1 X75.119 Y103.624 E0.07667
G1 X75.707 Y104.118 E0.08944
G1 X75.969 Y104.392 E0.09575
G1 X76.097 Y104.58 E0.09953
G1 X76.946 Y106.016 E0.12727
G1 X77.104 Y106.361 E0.13358
G1 X77.186 Y106.731 E0.13989
G1 X77.188 Y107.11 E0.14619
G1 X77.111 Y107.481 E0.15249
G1 X77.08 Y107.553 E0.15379
G1 X77.017 Y108.409 E0.16807
G1 X77.09 Y108.979 E0.17763
G1 X77.099 Y109.346 E0.18373
G1 X77.077 Y109.635 E0.18855
G1 X77.177 Y111.526 E0.22004
G1 X77.174 Y111.717 E0.22322
G1 X77.069 Y113.686 E0.25601
G1 X77.09 Y113.961 E0.2606
G1 X77.082 Y114.319 E0.26655
G1 X76.975 Y115.193 E0.28119
G1 X76.913 Y115.489 E0.28622
G1 X76.88 Y115.6 E0.28815
G1 X77.508 Y115.718 E0.29878
G1 X79.308 Y115.42 E0.32912
G1 X79.887 Y115.141 E0.33981
G1 X79.927 Y114.875 E0.34428
G1 X80.136 Y114.386 E0.35312
G1 X81.166 Y112.713 E0.3858
G1 X81.308 Y112.435 E0.39099
G1 X81.698 Y111.599 E0.40633
G1 X81.831 Y111.362 E0.41085
G1 X81.975 Y111.146 E0.41516
G1 X82.145 Y110.929 E0.41975
G1 X82.961 Y110.03 E0.43994
G1 X83.554 Y109.203 E0.45686
G1 X83.753 Y108.971 E0.46195
G1 X83.974 Y108.753 E0.46711
G1 X84.178 Y108.579 E0.47157
G1 X84.987 Y107.99 E0.48821
G1 X85.048 Y107.938 E0.48954
G1 X85.181 Y107.833 E0.49236
G1 X85.895 Y107.163 E0.50864
G1 X86.16 Y106.957 E0.51422
G1 X86.41 Y106.798 E0.51915
G1 X86.622 Y106.682 E0.52317
G1 X87.468 Y106.292 E0.53866
G1 X88.929 Y105.478 E0.56648
G1 X89.387 Y105.299 E0.57465
G1 X90.199 Y105.105 E0.58854
G1 X90.537 Y105.012 E0.59437
G1 X91.505 Y104.659 E0.6115
G1 X91.856 Y104.57 E0.61752
G1 X92.096 Y104.534 E0.62156
G1 X92.242 Y104.518 E0.624
G1 X93.54 Y104.431 E0.64564
G1 X94.546 Y104.271 E0.66258
G1 X94.84 Y104.249 E0.66748
G1 X95.133 Y104.251 E0.67235
G1 X95.392 Y104.272 E0.67667
G1 X96.511 Y104.443 E0.6955
G1 X96.608 Y104.452 E0.69712
G1 X97.591 Y104.482 E0.71347
G1 X97.893 Y104.517 E0.71853
G1 X98.223 Y104.584 E0.72413
G1 X98.492 Y104.661 E0.72878
G1 X99.352 Y104.981 E0.74404
G1 X100.797 Y105.386 E0.769
G1 X101.181 Y105.543 E0.7759
G1 X103.864 Y107.024 E0.82686
G1 X104.216 Y107.278 E0.83408
G1 X104.869 Y107.881 E0.84886
G1 X104.947 Y107.946 E0.85055
G1 X105.813 Y108.568 E0.86828
G1 X106.054 Y108.775 E0.87357
G1 X106.262 Y108.989 E0.87853
G1 X106.424 Y109.182 E0.88272
G1 X107.016 Y109.992 E0.8994
G1 X107.157 Y110.167 E0.90314
G1 X107.851 Y110.917 E0.92013
G1 X108.042 Y111.162 E0.9253
G1 X108.192 Y111.394 E0.92989
G1 X108.317 Y111.621 E0.9342
G1 X108.754 Y112.576 E0.95167
G1 X108.828 Y112.709 E0.9542
G1 X109.793 Y114.253 E0.98448
G1 X109.959 Y114.594 E0.99079
G1 X110.064 Y115.099 E0.99936
G1 X110.064 Y115.105 E0.99946
G1 X110.71 Y115.422 E1.01143
G1 X110.867 Y115.446 E1.01407
G1 X111.163 Y115.501 E1.01908
G1 X112.629 Y115.69 E1.04366
G1 X113.118 Y115.598 E1.05194
G1 X113.073 Y115.415 E1.05507
G1 X113.036 Y115.215 E1.05845
G1 X112.921 Y114.319 E1.07347
G1 X112.908 Y113.995 E1.07887
G1 X112.926 Y113.653 E1.08456
G1 X112.823 Y111.582 E1.11905
G1 X112.826 Y111.484 E1.12068
G1 X112.927 Y109.64 E1.15139
G1 X112.902 Y109.363 E1.15601
G1 X112.913 Y108.952 E1.16285
G1 X112.978 Y108.438 E1.17147
G1 X112.927 Y107.538 E1.18646
G1 X112.831 Y107.205 E1.19222
G1 X112.805 Y106.827 E1.19852
G1 X112.859 Y106.452 E1.20482
G1 X113.072 Y105.948 E1.21392
G1 X113.954 Y104.518 E1.24186
G1 X114.186 Y104.218 E1.24817
G1 X114.376 Y104.046 E1.25243
G1 X114.898 Y103.637 E1.26346
G1 X114.938 Y103.57 E1.26476
G1 X115.165 Y103.266 E1.27107
G1 X115.45 Y103.017 E1.27736
G1 X115.781 Y102.833 E1.28366
G1 X116.144 Y102.722 E1.28997
G1 X116.521 Y102.689 E1.29626
G1 X116.897 Y102.737 E1.30257
G1 X117.03 Y102.78 E1.30489
G1 X117.27 Y102.715 E1.30903
G1 X117.648 Y102.693 E1.31532
G1 X118.023 Y102.751 E1.32164
G1 X118.377 Y102.886 E1.32794
G1 X118.695 Y103.092 E1.33424
G1 X118.962 Y103.36 E1.34053
G1 X119.122 Y103.593 E1.34523
G1 X119.195 Y103.72 E1.34766
G1 X119.732 Y104.201 E1.35965
G1 X120.085 Y104.633 E1.36893
G1 X120.911 Y106.046 E1.39615
G1 X121.067 Y106.391 E1.40245
G1 X121.147 Y106.761 E1.40874
G1 X121.147 Y107.14 E1.41504
G1 X121.069 Y107.511 E1.42135
G1 X120.914 Y107.857 E1.42765
G1 X120.812 Y107.997 E1.43053
G1 X120.894 Y108.739 E1.44295
G1 X120.904 Y108.998 E1.44726
G1 X120.893 Y109.33 E1.45278
G1 X120.919 Y109.798 E1.46058
G1 X120.898 Y110.191 E1.46712
G1 X120.865 Y110.392 E1.47051
G1 X120.937 Y111.746 E1.49306
G1 X120.937 Y111.78 E1.49363
G1 X120.99 Y113.55 E1.52307
G1 X120.962 Y113.928 E1.52938
G1 X120.917 Y114.114 E1.53256
G1 X120.872 Y114.267 E1.53521
G1 X120.897 Y115.345 E1.55314
G1 X120.942 Y116.155 E1.56664
G1 X120.923 Y116.534 E1.57295
G1 X120.825 Y116.9 E1.57925
G1 X120.653 Y117.238 E1.58555
G1 X120.414 Y117.531 E1.59184
G1 X120.119 Y117.769 E1.59815
G1 X119.78 Y117.939 E1.60445
G1 X119.414 Y118.035 E1.61074
G1 X119.269 Y118.041 E1.61316
G1 X119.329 Y118.384 E1.61895
G1 X119.331 Y118.442 E1.61991
G1 X119.328 Y118.468 E1.62035
G1 X119.478 Y118.456 E1.62285
G1 X119.853 Y118.505 E1.62914
G1 X120.211 Y118.631 E1.63545
G1 X120.533 Y118.83 E1.64175
G1 X120.807 Y119.091 E1.64804
G1 X121.02 Y119.405 E1.65435
G1 X121.163 Y119.756 E1.66065
G1 X121.228 Y120.103 E1.66652
G1 X121.26 Y120.481 E1.67283
G1 X121.261 Y120.781 E1.67782
G1 X121.242 Y120.969 E1.68096
G1 X121.063 Y122.138 E1.70063
G1 X120.967 Y122.505 E1.70694
G1 X120.796 Y122.843 E1.71324
G1 X120.667 Y123.018 E1.71686
G1 X120.268 Y123.497 E1.72722
G1 X120.019 Y123.743 E1.73304
G1 X119.982 Y123.773 E1.73384
G1 X119.835 Y123.88 E1.73686
G1 X119.716 Y123.958 E1.73923
G1 X119.645 Y124.954 E1.75583
G1 X119.614 Y125.194 E1.75986
G1 X119.576 Y125.399 E1.76332
G1 X119.51 Y125.633 E1.76737
G1 X119.432 Y125.85 E1.7712
G1 X119.159 Y126.346 E1.78062
G1 X119.124 Y126.391 E1.78156
G1 X118.861 Y126.664 E1.78787
G1 X118.689 Y126.792 E1.79143
G1 X118.469 Y126.936 E1.79581
G1 X118.045 Y127.14 E1.80363
G1 X117.576 Y127.294 E1.81184
G1 X117.205 Y127.374 E1.81815
G1 X116.826 Y127.374 E1.82445
G1 X116.465 Y127.298 E1.83059
G1 X116.025 Y127.157 E1.83827
G1 X115.733 Y127.036 E1.84353
G1 X115.509 Y126.905 E1.84785
G1 X115.3 Y126.762 E1.85206
G1 X114.913 Y126.404 E1.86082
G1 X114.876 Y126.358 E1.86181
G1 X114.671 Y126.04 E1.8681
G1 X114.585 Y125.839 E1.87173
G1 X114.507 Y125.622 E1.87557
G1 X114.418 Y125.258 E1.8818
G1 X114.364 Y124.837 E1.88886
G1 X114.339 Y124.477 E1.89486
G1 X113.628 Y124.297 E1.90706
G1 X113.305 Y124.269 E1.91245
G1 X111.077 Y124.514 E1.94972
G1 X110.691 Y124.578 E1.95623
G1 X110.083 Y124.875 E1.96748
G1 X110.079 Y124.902 E1.96794
G1 X109.907 Y125.344 E1.97582
G1 X107.945 Y128.905 E2.04344
G1 X107.691 Y129.257 E2.05066
G1 X107.118 Y129.878 E2.06471
G1 X107.087 Y129.915 E2.06551
G1 X106.435 Y130.801 E2.08381
G1 X106.244 Y131.021 E2.08865
G1 X106.017 Y131.243 E2.09393
G1 X105.808 Y131.418 E2.09846
G1 X104.87 Y132.092 E2.11767
G1 X104.181 Y132.736 E2.13336
G1 X103.804 Y133.007 E2.14108
G1 X102.284 Y133.824 E2.16977
G1 X101.406 Y134.374 E2.187
G1 X101.1 Y134.527 E2.19269
G1 X100.849 Y134.624 E2.19717
G1 X100.624 Y134.694 E2.20109
G1 X99.621 Y134.937 E2.21825
G1 X99.432 Y134.992 E2.22152
G1 X98.472 Y135.341 E2.23851
G1 X98.116 Y135.431 E2.24462
G1 X97.931 Y135.458 E2.24773
G1 X97.792 Y135.473 E2.25005
G1 X96.449 Y135.563 E2.27244
G1 X95.445 Y135.726 E2.28935
G1 X95.151 Y135.749 E2.29426
G1 X94.865 Y135.748 E2.29901
G1 X94.599 Y135.727 E2.30345
G1 X93.531 Y135.564 E2.32142
G1 X92.365 Y135.515 E2.34082
G1 X92.085 Y135.482 E2.34551
G1 X91.782 Y135.421 E2.35065
G1 X91.517 Y135.346 E2.35523
G1 X90.609 Y135.013 E2.37132
G1 X89.167 Y134.609 E2.39622
G1 X88.774 Y134.447 E2.40329
G1 X86.17 Y132.991 E2.4529
G1 X85.821 Y132.737 E2.46008
G1 X85.2 Y132.159 E2.47419
G1 X85.019 Y132.005 E2.47814
G1 X84.202 Y131.424 E2.49481
G1 X83.963 Y131.22 E2.50004
G1 X83.764 Y131.018 E2.50475
G1 X83.602 Y130.83 E2.50888
G1 X82.883 Y129.873 E2.52879
G1 X82.171 Y129.104 E2.54622
G1 X81.998 Y128.885 E2.55086
G1 X81.822 Y128.623 E2.55611
G1 X81.683 Y128.375 E2.56083
G1 X81.244 Y127.426 E2.57822
G1 X81.175 Y127.291 E2.58074
G1 X80.194 Y125.716 E2.6116
G1 X80.029 Y125.376 E2.61789
G1 X79.927 Y124.882 E2.62628
G1 X79.295 Y124.574 E2.63797
G1 X77.081 Y124.297 E2.67507
G1 X75.911 Y124.408 E2.69462
G1 X75.652 Y124.47 E2.69905
G1 X75.623 Y124.827 E2.705
G1 X75.6 Y125.003 E2.70795
G1 X75.533 Y125.37 E2.71416
G1 X75.345 Y125.904 E2.72357
G1 X75.24 Y126.098 E2.72724
G1 X74.962 Y126.481 E2.73511
G1 X74.924 Y126.521 E2.73603
G1 X74.564 Y126.813 E2.74374
G1 X74.308 Y126.971 E2.74874
G1 X73.967 Y127.135 E2.75503
G1 X73.598 Y127.224 E2.76135
G1 X73.368 Y127.239 E2.76518
G1 X72.627 Y127.241 E2.7775
G1 X72.25 Y127.202 E2.78381
G1 X72.053 Y127.149 E2.7872
G1 X72.041 Y127.145 E2.78741
G1 X71.639 Y126.953 E2.79482
G1 X71.383 Y126.789 E2.79987
G1 X71.087 Y126.552 E2.80618
G1 X70.807 Y126.194 E2.81374
G1 X70.673 Y125.969 E2.81809
G1 X70.47 Y125.469 E2.82707
G1 X70.422 Y125.253 E2.83075
G1 X70.351 Y124.817 E2.83809
G1 X70.265 Y123.946 E2.85265
G1 X70.142 Y123.865 E2.8551
G1 X69.77 Y123.54 E2.86331
G1 X69.37 Y123.08 E2.87345
G1 X69.153 Y122.77 E2.87974
G1 X69.005 Y122.42 E2.88606
G1 X68.95 Y122.179 E2.89017
G1 X68.741 Y120.824 E2.91297
G1 X68.739 Y120.8 E2.91337
G1 X68.763 Y120.323 E2.92132
G1 X68.825 Y119.988 E2.92698
G1 X68.933 Y119.625 E2.93328
G1 X69.114 Y119.292 E2.93958
G1 X69.361 Y119.005 E2.94588
G1 X69.663 Y118.776 E2.95218
G1 X70.006 Y118.615 E2.95848
G1 X70.375 Y118.529 E2.96478
G1 X70.677 Y118.524 E2.96981
G1 X70.669 Y118.445 E2.97113
G1 X70.671 Y118.385 E2.97213
G1 X70.729 Y118.059 E2.97763
G1 X70.408 Y118.011 E2.98303
G1 X70.053 Y117.879 E2.98933
G1 X69.733 Y117.675 E2.99564
G1 X69.464 Y117.409 E3.00193
G1 X69.256 Y117.092 E3.00824
G1 X69.119 Y116.739 E3.01453
G1 X69.056 Y116.268 E3.02244
G1 X69.071 Y115.943 E3.02785
G1 X69.11 Y114.212 E3.05664
G1 X69.073 Y114.076 E3.05898
G1 X69.01 Y113.548 E3.06783
G1 X69.066 Y111.648 E3.09944
G1 X69.143 Y110.418 E3.11993
G1 X69.109 Y110.242 E3.12291
G1 X69.081 Y109.788 E3.13048
G1 X69.11 Y109.338 E3.13798
G1 X69.095 Y109.017 E3.14332
G1 X69.103 Y108.747 E3.14781
G1 X69.172 Y108.093 E3.15875
G1 X68.991 Y107.827 E3.1641
G1 X68.849 Y107.476 E3.1704
G1 X68.783 Y107.103 E3.1767
G1 X68.797 Y106.724 E3.183
G1 X68.89 Y106.357 E3.1893
G1 X69.05 Y106.029 E3.19537
G1 X69.976 Y104.539 E3.22454
G1 X70.209 Y104.24 E3.23085
G1 X70.365 Y104.096 E3.23438
G1 X70.72 Y103.805 E3.24201
G1 X70.825 Y103.616 E3.24561
G1 X71.043 Y103.305 E3.25192
G0 X71.371 Y103.539
G1 X71.625 Y103.322 E3.25748
G1 X71.923 Y103.172 E3.26303
G1 X72.249 Y103.096 E3.26859
G1 X72.583 Y103.1 E3.27415
G1 X72.893 Y103.178 E3.27946
G1 X72.996 Y103.217 E3.2813
G1 X73.025 Y103.205 E3.28182
G1 X73.347 Y103.118 E3.28737
G1 X73.681 Y103.109 E3.29292
G1 X74.008 Y103.18 E3.29849
G1 X74.308 Y103.327 E3.30404
G1 X74.565 Y103.54 E3.30959
G1 X74.77 Y103.818 E3.31534
G1 X74.808 Y103.886 E3.31663
G1 X75.449 Y104.425 E3.33056
G1 X75.753 Y104.783 E3.33837
G1 X76.602 Y106.219 E3.36611
G1 X76.737 Y106.525 E3.37168
G1 X76.795 Y106.854 E3.37723
G1 X76.773 Y107.188 E3.3828
G1 X76.684 Y107.473 E3.38776
G1 X76.615 Y108.421 E3.40357
G1 X76.693 Y109.03 E3.41378
G1 X76.7 Y109.315 E3.41852
G1 X76.676 Y109.625 E3.42369
G1 X76.777 Y111.526 E3.45535
G1 X76.775 Y111.696 E3.45818
G1 X76.668 Y113.696 E3.49149
G1 X76.691 Y113.992 E3.49642
G1 X76.685 Y114.27 E3.50105
G1 X76.578 Y115.144 E3.51569
G1 X76.53 Y115.374 E3.5196
G1 X76.37 Y115.91 E3.5289
G1 X77.505 Y116.124 E3.54811
G1 X79.429 Y115.806 E3.58054
G1 X80.264 Y115.403 E3.59596
G1 X80.27 Y115.267 E3.59822
G1 X80.325 Y114.938 E3.60377
G1 X80.477 Y114.596 E3.60999
G1 X81.511 Y112.917 E3.64278
G1 X81.663 Y112.619 E3.64835
G1 X82.06 Y111.768 E3.66396
G1 X82.164 Y111.583 E3.66749
G1 X82.308 Y111.367 E3.67181
G1 X82.44 Y111.199 E3.67536
G1 X83.186 Y110.383 E3.69375
G1 X83.281 Y110.27 E3.6962
G1 X83.879 Y109.436 E3.71327
G1 X84.034 Y109.255 E3.71723
G1 X84.255 Y109.037 E3.7224
G1 X84.414 Y108.902 E3.72586
G1 X85.224 Y108.312 E3.74253
G1 X85.295 Y108.252 E3.74408
G1 X85.442 Y108.136 E3.74719
G1 X86.168 Y107.455 E3.76374
G1 X86.375 Y107.295 E3.76809
G1 X86.625 Y107.136 E3.77302
G1 X86.79 Y107.046 E3.77615
G1 X87.637 Y106.656 E3.79165
G1 X89.124 Y105.827 E3.81997
G1 X89.48 Y105.688 E3.82632
G1 X90.309 Y105.49 E3.8405
G1 X90.662 Y105.393 E3.84658
G1 X91.643 Y105.035 E3.86395
G1 X91.915 Y104.965 E3.86862
G1 X92.155 Y104.929 E3.87266
G1 X92.269 Y104.917 E3.87456
G1 X93.586 Y104.828 E3.89652
G1 X94.609 Y104.666 E3.91374
G1 X94.838 Y104.649 E3.91756
G1 X95.131 Y104.651 E3.92243
G1 X95.332 Y104.667 E3.92578
G1 X96.466 Y104.84 E3.94486
G1 X96.591 Y104.851 E3.94695
G1 X97.578 Y104.882 E3.96337
G1 X97.814 Y104.909 E3.96732
G1 X98.144 Y104.976 E3.97292
G1 X98.353 Y105.036 E3.97654
G1 X99.227 Y105.361 E3.99204
G1 X100.689 Y105.771 E4.01729
G1 X100.988 Y105.893 E4.02266
G1 X103.671 Y107.374 E4.07363
G1 X103.944 Y107.572 E4.07924
G1 X104.607 Y108.185 E4.09425
G1 X104.688 Y108.252 E4.096
G1 X105.58 Y108.893 E4.11427
G1 X105.767 Y109.054 E4.11837
G1 X105.975 Y109.268 E4.12334
G1 X106.101 Y109.418 E4.12659
G1 X106.695 Y110.231 E4.14334
G1 X106.842 Y110.414 E4.14724
G1 X107.558 Y111.188 E4.16478
G1 X107.706 Y111.379 E4.16879
G1 X107.856 Y111.611 E4.17339
G1 X107.953 Y111.788 E4.17675
G1 X108.389 Y112.74 E4.19416
G1 X108.493 Y112.929 E4.19775
G1 X109.454 Y114.466 E4.22789
G1 X109.596 Y114.768 E4.23344
G1 X109.664 Y115.123 E4.23945
G1 X109.679 Y115.361 E4.24342
G1 X110.591 Y115.809 E4.26032
G1 X110.794 Y115.839 E4.26373
G1 X111.113 Y115.898 E4.26912
G1 X112.639 Y116.095 E4.29471
G1 X113.607 Y115.913 E4.31109
G1 X113.461 Y115.319 E4.32126
G1 X113.432 Y115.164 E4.32389
G1 X113.317 Y114.268 E4.33891
G1 X113.308 Y114.016 E4.3431
G1 X113.327 Y113.653 E4.34915
G1 X113.223 Y111.582 E4.38363
G1 X113.225 Y111.506 E4.3849
G1 X113.328 Y109.627 E4.41619
G1 X113.301 Y109.328 E4.42118
G1 X113.309 Y109.008 E4.42651
G1 X113.318 Y108.944 E4.42758
G1 X113.379 Y108.454 E4.43579
G1 X113.321 Y107.432 E4.45282
G1 X113.279 Y107.345 E4.45442
G1 X113.21 Y107.018 E4.45998
G1 X113.22 Y106.684 E4.46554
G1 X113.308 Y106.362 E4.47109
G1 X113.412 Y106.158 E4.4749
G1 X114.294 Y104.728 E4.50284
G1 X114.623 Y104.361 E4.51103
G1 X115.203 Y103.907 E4.52328
G1 X115.282 Y103.774 E4.52586
G1 X115.486 Y103.509 E4.53142
G1 X115.746 Y103.3 E4.53696
G1 X116.049 Y103.159 E4.54252
G1 X116.377 Y103.093 E4.54809
G1 X116.71 Y103.107 E4.55363
G1 X117.025 Y103.198 E4.55908
G1 X117.051 Y103.188 E4.55955
G1 X117.374 Y103.104 E4.5651
G1 X117.708 Y103.099 E4.57065
G1 X118.034 Y103.173 E4.57621
G1 X118.332 Y103.322 E4.58175
G1 X118.587 Y103.538 E4.58731
G1 X118.775 Y103.792 E4.59256
G1 X118.88 Y103.975 E4.59607
G1 X119.465 Y104.499 E4.60913
G1 X119.74 Y104.834 E4.61634
G1 X120.566 Y106.247 E4.64356
G1 X120.699 Y106.554 E4.64912
G1 X120.755 Y106.883 E4.65467
G1 X120.732 Y107.216 E4.66022
G1 X120.631 Y107.535 E4.66579
G1 X120.457 Y107.82 E4.67134
G1 X120.396 Y107.883 E4.6728
G1 X120.496 Y108.783 E4.68786
G1 X120.504 Y108.985 E4.69122
G1 X120.492 Y109.328 E4.69693
G1 X120.52 Y109.82 E4.70512
G1 X120.503 Y110.126 E4.71022
G1 X120.463 Y110.367 E4.71428
G1 X120.537 Y111.801 E4.73816
