;FLAVOR:Marlin
;TIME:6786
;Filament used: 1.82982m
;Layer height: 0.1
;MINX:64.965
;MINY:102.812
;MINZ:0.1
;MAXX:132.911
;MAXY:142.51
;MAXZ:13.6
;Generated with Cura_SteamEngine 4.6.0
M140 S75
M105
M190 S75
M104 S195
M105
M109 S195
M82 ;absolute extrusion mode
G28 ;Home
G1 Z15.0 F6000 ;Move the platform
G92 E0
G1 F200 E3
G92 E0


G0 X0 Y15 F9000 ; Go to front
G0 Z0.15 ; Drop to bed
G92 E0 ; zero the extruded length
G1 X40 E25 F500 ; Extrude 25mm of filament in a 4cm line
G92 E0 ; zero the extruded length
G1 E-1 F500 ; Retract a little
G1 X80 F4000 ; Quickly wipe away from the filament line
G1 Z0.3 ; Raise and begin printing.
G92 E0
G92 E0
G1 F1500 E-6
;LAYER_COUNT:137
;LAYER:0
M107
M204 S1000
G0 F2400 X90.727 Y113.344 Z0.1
;TYPE:SKIRT
G1 F1500 E0
G1 F2400 X90.844 Y113.227 E0.00275
G1 X91.139 Y112.989 E0.00906
G1 X91.477 Y112.818 E0.01535
G1 X91.843 Y112.721 E0.02165
G1 X92.117 Y112.7 E0.02622
G1 X97.884 Y112.7 E0.12213
G1 X98.261 Y112.74 E0.12843
G1 X98.621 Y112.858 E0.13473
G1 X98.948 Y113.048 E0.14102
G1 X99.157 Y113.227 E0.1456
G1 X99.274 Y113.344 E0.14835
G1 X99.512 Y113.639 E0.15465
G1 X99.683 Y113.977 E0.16095
G1 X99.78 Y114.343 E0.16725
G1 X99.801 Y114.617 E0.17182
G1 X99.8 Y124.085 E0.32927
G1 X99.76 Y124.462 E0.33558
G1 X99.662 Y124.777 E0.34106
G1 X99.632 Y124.849 E0.34236
G1 X99.45 Y125.182 E0.34867
G1 X99.243 Y125.43 E0.35404
G1 X96.929 Y127.743 E0.40845
G1 X96.634 Y127.981 E0.41476
G1 X96.348 Y128.132 E0.42013
G1 X96.276 Y128.162 E0.42143
G1 X95.913 Y128.27 E0.42773
G1 X95.584 Y128.3 E0.43322
G1 X92.116 Y128.3 E0.4909
G1 X91.739 Y128.26 E0.4972
G1 X91.379 Y128.142 E0.5035
G1 X91.052 Y127.952 E0.50979
G1 X90.843 Y127.773 E0.51437
G1 X90.726 Y127.656 E0.51712
G1 X90.488 Y127.361 E0.52342
G1 X90.317 Y127.023 E0.52972
G1 X90.22 Y126.657 E0.53602
G1 X90.199 Y126.383 E0.54059
G1 X90.2 Y114.617 E0.73626
G1 X90.24 Y114.24 E0.74256
G1 X90.358 Y113.88 E0.74886
G1 X90.549 Y113.552 E0.75518
G1 X90.727 Y113.344 E0.75973
G0 X91.01 Y113.627
G1 X91.127 Y113.51 E0.76248
G1 X91.39 Y113.304 E0.76804
G1 X91.694 Y113.165 E0.77359
G1 X92.117 Y113.1 E0.78071
G1 X97.884 Y113.1 E0.87662
G1 X98.216 Y113.14 E0.88218
G1 X98.528 Y113.257 E0.88772
G1 X98.874 Y113.51 E0.89485
G1 X98.991 Y113.627 E0.8976
G1 X99.197 Y113.89 E0.90316
G1 X99.336 Y114.194 E0.90871
G1 X99.401 Y114.617 E0.91583
G1 X99.4 Y124.085 E1.07328
G1 X99.36 Y124.417 E1.07885
G1 X99.292 Y124.623 E1.08245
G1 X99.262 Y124.695 E1.08375
G1 X99.098 Y124.986 E1.08931
G1 X98.96 Y125.147 E1.09283
G1 X96.646 Y127.46 E1.14724
G1 X96.383 Y127.666 E1.1528
G1 X96.194 Y127.762 E1.15632
G1 X96.122 Y127.792 E1.15762
G1 X95.801 Y127.883 E1.16317
G1 X95.584 Y127.9 E1.16679
G1 X92.116 Y127.9 E1.22446
G1 X91.784 Y127.86 E1.23002
G1 X91.472 Y127.743 E1.23556
G1 X91.126 Y127.49 E1.24269
G1 X91.009 Y127.373 E1.24544
G1 X90.803 Y127.11 E1.251
G1 X90.664 Y126.806 E1.25656
G1 X90.599 Y126.383 E1.26368
G1 X90.6 Y114.617 E1.45934
G1 X90.64 Y114.285 E1.46491
G1 X90.757 Y113.972 E1.47046
G1 X91.01 Y113.627 E1.47758
G0 X91.293 Y113.91
G1 X91.41 Y113.793 E1.48033
G1 X91.636 Y113.624 E1.48502
G1 X91.9 Y113.524 E1.48972
G1 X92.117 Y113.5 E1.49335
G1 X97.884 Y113.5 E1.58925
G1 X98.163 Y113.54 E1.59394
G1 X98.42 Y113.656 E1.59863
G1 X98.591 Y113.793 E1.60227
G1 X98.708 Y113.91 E1.60503
G1 X98.877 Y114.136 E1.60972
G1 X98.977 Y114.4 E1.61441
G1 X99.001 Y114.617 E1.61804
G1 X99 Y124.085 E1.7755
G1 X98.923 Y124.47 E1.78203
G1 X98.893 Y124.542 E1.78332
G1 X98.677 Y124.864 E1.78977
G1 X96.363 Y127.177 E1.84418
G1 X96.041 Y127.393 E1.85063
G1 X95.969 Y127.423 E1.85193
G1 X95.584 Y127.5 E1.85846
G1 X92.116 Y127.5 E1.91613
G1 X91.837 Y127.46 E1.92082
G1 X91.58 Y127.344 E1.92551
G1 X91.409 Y127.207 E1.92915
G1 X91.292 Y127.09 E1.9319
G1 X91.123 Y126.864 E1.93659
G1 X91.023 Y126.6 E1.94129
G1 X90.999 Y126.383 E1.94492
G1 X91 Y114.617 E2.14059
G1 X91.04 Y114.338 E2.14528
G1 X91.156 Y114.081 E2.14997
G1 X91.293 Y113.91 E2.15361
G0 X91.576 Y114.193
G1 X91.693 Y114.076 E2.15636
G1 X91.872 Y113.952 E2.15998
G1 X92.117 Y113.9 E2.16415
G1 X97.884 Y113.9 E2.26005
G1 X98.099 Y113.94 E2.26369
G1 X98.308 Y114.076 E2.26784
G1 X98.425 Y114.193 E2.27059
G1 X98.549 Y114.372 E2.27421
G1 X98.601 Y114.617 E2.27837
G1 X98.6 Y124.085 E2.43583
G1 X98.554 Y124.316 E2.43975
G1 X98.524 Y124.388 E2.44104
G1 X98.394 Y124.581 E2.44491
G1 X96.08 Y126.894 E2.49932
G1 X95.887 Y127.024 E2.50319
G1 X95.815 Y127.054 E2.50449
G1 X95.584 Y127.1 E2.50841
G1 X92.116 Y127.1 E2.56608
G1 X91.901 Y127.06 E2.56972
G1 X91.692 Y126.924 E2.57386
G1 X91.575 Y126.807 E2.57661
G1 X91.451 Y126.628 E2.58024
G1 X91.399 Y126.383 E2.5844
G1 X91.4 Y114.617 E2.78007
G1 X91.44 Y114.402 E2.78371
G1 X91.576 Y114.193 E2.78785
G0 X91.859 Y114.476
G1 X91.976 Y114.359 E2.79061
G1 X92.117 Y114.3 E2.79315
G1 X97.884 Y114.3 E2.88905
G1 X98.025 Y114.359 E2.89159
G1 X98.142 Y114.476 E2.89435
G1 X98.201 Y114.617 E2.89689
G1 X98.2 Y124.085 E3.05434
G1 X98.185 Y124.162 E3.05565
G1 X98.155 Y124.234 E3.05694
G1 X98.111 Y124.298 E3.05823
G1 X95.797 Y126.611 E3.11264
G1 X95.733 Y126.655 E3.11394
G1 X95.661 Y126.685 E3.11523
G1 X95.584 Y126.7 E3.11654
G1 X92.116 Y126.7 E3.17421
G1 X91.975 Y126.641 E3.17675
G1 X91.858 Y126.524 E3.1795
G1 X91.799 Y126.383 E3.18205
G1 X91.8 Y114.617 E3.37772
G1 X91.859 Y114.476 E3.38026
G1 F1500 E-2.61974
G0 F2400 X91.53 Y114.147
G0 X86.999 Y112.949
G1 F1500 E3.38026
G1 F2400 X86.959 Y113.326 E3.38656
G1 X86.841 Y113.686 E3.39286
G1 X86.664 Y113.995 E3.39878
G1 X86.602 Y114.082 E3.40056
G1 X86.596 Y114.099 E3.40086
G1 X86.4 Y114.423 E3.40716
G1 X86.14 Y114.699 E3.41346
G1 X85.879 Y114.88 E3.41875
G1 X85.977 Y115.073 E3.42235
G1 X86.074 Y115.439 E3.42864
G1 X86.095 Y115.713 E3.43321
G1 X86.095 Y116.275 E3.44256
G1 X86.069 Y116.517 E3.44661
G1 X86.074 Y116.536 E3.44693
G1 X86.095 Y116.81 E3.4515
G1 X86.095 Y117.373 E3.46087
G1 X86.069 Y117.615 E3.46491
G1 X86.074 Y117.633 E3.46522
G1 X86.095 Y117.907 E3.46979
G1 X86.095 Y118.47 E3.47916
G1 X86.073 Y118.681 E3.48269
G1 X86.154 Y118.645 E3.48416
G1 X86.525 Y118.57 E3.49045
G1 X86.904 Y118.574 E3.49676
G1 X87.274 Y118.658 E3.50307
G1 X87.618 Y118.817 E3.50937
G1 X87.976 Y119.098 E3.51694
G1 X88.125 Y119.249 E3.52047
G1 X88.362 Y119.545 E3.52677
G1 X88.536 Y119.9 E3.53335
G1 X88.81 Y120.656 E3.54672
G1 X88.901 Y121.024 E3.55302
G1 X88.913 Y121.402 E3.55931
G1 X88.845 Y121.775 E3.56562
G1 X88.606 Y122.281 E3.57492
G1 X88.177 Y122.916 E3.58767
G1 X87.934 Y123.207 E3.59397
G1 X87.636 Y123.44 E3.60026
G1 X87.295 Y123.606 E3.60657
G1 X86.927 Y123.696 E3.61287
G1 X86.548 Y123.708 E3.61918
G1 X86.175 Y123.64 E3.62548
G1 X86.095 Y123.607 E3.62692
G1 X86.095 Y123.957 E3.63274
G1 X86.069 Y124.199 E3.63679
G1 X86.074 Y124.217 E3.6371
G1 X86.095 Y124.491 E3.64167
G1 X86.095 Y125.054 E3.65103
G1 X86.069 Y125.296 E3.65508
G1 X86.074 Y125.315 E3.65541
G1 X86.095 Y125.589 E3.65998
G1 X86.095 Y126.151 E3.66932
G1 X86.069 Y126.393 E3.67337
G1 X86.074 Y126.412 E3.6737
G1 X86.095 Y126.686 E3.67827
G1 X86.095 Y127.248 E3.68761
G1 X86.069 Y127.491 E3.69168
G1 X86.074 Y127.509 E3.69199
G1 X86.095 Y127.783 E3.69656
G1 X86.095 Y128.346 E3.70592
G1 X86.069 Y128.588 E3.70997
G1 X86.074 Y128.607 E3.7103
G1 X86.088 Y128.792 E3.71338
G1 X86.183 Y128.753 E3.71509
G1 X86.556 Y128.683 E3.7214
G1 X86.935 Y128.694 E3.72771
G1 X87.303 Y128.783 E3.734
G1 X87.644 Y128.948 E3.7403
G1 X87.943 Y129.18 E3.74659
G1 X88.187 Y129.47 E3.7529
G1 X88.34 Y129.745 E3.75813
G1 X88.55 Y130.216 E3.76671
G1 X88.729 Y130.583 E3.7735
G1 X88.859 Y130.939 E3.7798
G1 X88.911 Y131.314 E3.7861
G1 X88.883 Y131.692 E3.7924
G1 X88.767 Y132.082 E3.79917
G1 X88.351 Y133.053 E3.81673
G1 X88.165 Y133.384 E3.82305
G1 X87.915 Y133.668 E3.82934
G1 X87.611 Y133.894 E3.83564
G1 X87.266 Y134.051 E3.84194
G1 X86.896 Y134.133 E3.84825
G1 X86.517 Y134.135 E3.85455
G1 X86.146 Y134.058 E3.86085
G1 X86.074 Y134.026 E3.86216
G1 X86.074 Y134.093 E3.86327
G1 X86.095 Y134.367 E3.86784
G1 X86.095 Y134.93 E3.87721
G1 X86.069 Y135.173 E3.88127
G1 X86.074 Y135.191 E3.88158
G1 X86.095 Y135.465 E3.88615
G1 X86.095 Y136.027 E3.8955
G1 X86.055 Y136.404 E3.9018
G1 X85.959 Y136.698 E3.90695
G1 X86.126 Y136.776 E3.91001
G1 X86.428 Y137.005 E3.91631
G1 X86.659 Y137.271 E3.92217
G1 X86.711 Y137.344 E3.92366
G1 X86.897 Y137.674 E3.92996
G1 X87.01 Y138.035 E3.93625
G1 X87.045 Y138.388 E3.94215
G1 X87.045 Y140.709 E3.98075
G1 X87.005 Y141.086 E3.98706
G1 X86.887 Y141.446 E3.99336
G1 X86.697 Y141.773 E3.99965
G1 X86.442 Y142.054 E4.00596
G1 X86.133 Y142.274 E4.01226
G1 X85.786 Y142.426 E4.01856
G1 X85.245 Y142.509 E4.02767
G1 X81.466 Y142.509 E4.09051
G1 X81.089 Y142.469 E4.09682
G1 X80.729 Y142.351 E4.10312
G1 X80.402 Y142.161 E4.1094
G1 X80.121 Y141.906 E4.11572
G1 X79.901 Y141.597 E4.12202
G1 X79.749 Y141.25 E4.12832
G1 X79.666 Y140.709 E4.13743
G1 X79.666 Y140.263 E4.14484
G1 X74.334 Y140.264 E4.23351
G1 X74.334 Y140.709 E4.24091
G1 X74.294 Y141.086 E4.24722
G1 X74.176 Y141.446 E4.25352
G1 X73.986 Y141.773 E4.25981
G1 X73.731 Y142.054 E4.26612
G1 X73.422 Y142.274 E4.27243
G1 X73.075 Y142.426 E4.27873
G1 X72.534 Y142.509 E4.28783
G1 X68.755 Y142.51 E4.35067
G1 X68.379 Y142.47 E4.35696
G1 X68.018 Y142.352 E4.36328
G1 X67.691 Y142.162 E4.36957
G1 X67.411 Y141.907 E4.37587
G1 X67.19 Y141.599 E4.38217
G1 X67.038 Y141.251 E4.38849
G1 X66.955 Y140.71 E4.39759
G1 X66.955 Y138.388 E4.4362
G1 X66.995 Y138.011 E4.44251
G1 X67.113 Y137.651 E4.44881
G1 X67.269 Y137.372 E4.45412
G1 X67.323 Y137.293 E4.45571
G1 X67.569 Y137.005 E4.46201
G1 X67.869 Y136.774 E4.46831
G1 X68.037 Y136.694 E4.4714
G1 X68.023 Y136.667 E4.47191
G1 X67.926 Y136.301 E4.47821
G1 X67.905 Y136.027 E4.48278
G1 X67.905 Y135.465 E4.49212
G1 X67.931 Y135.222 E4.49619
G1 X67.926 Y135.204 E4.4965
G1 X67.905 Y134.93 E4.50107
G1 X67.905 Y134.367 E4.51043
G1 X67.931 Y134.124 E4.51449
G1 X67.926 Y134.106 E4.51481
G1 X67.906 Y133.846 E4.51914
G1 X67.686 Y133.919 E4.523
G1 X67.309 Y133.959 E4.5293
G1 X66.932 Y133.92 E4.5356
G1 X66.572 Y133.802 E4.5419
G1 X66.244 Y133.612 E4.54821
G1 X66.025 Y133.423 E4.55302
G1 X65.878 Y133.274 E4.5565
G1 X65.641 Y132.978 E4.56281
G1 X65.507 Y132.724 E4.56758
G1 X65.472 Y132.643 E4.56905
G1 X65.359 Y132.281 E4.57536
G1 X65.324 Y131.929 E4.58124
G1 X65.324 Y130.906 E4.59825
G1 X65.364 Y130.529 E4.60456
G1 X65.462 Y130.216 E4.61001
G1 X65.489 Y130.151 E4.61118
G1 X65.67 Y129.818 E4.61748
G1 X65.874 Y129.572 E4.6228
G1 X66.044 Y129.401 E4.62681
G1 X66.338 Y129.162 E4.63311
G1 X66.676 Y128.99 E4.63942
G1 X67.042 Y128.892 E4.64572
G1 X67.421 Y128.873 E4.65203
G1 X67.795 Y128.933 E4.65833
G1 X67.905 Y128.976 E4.66029
G1 X67.905 Y128.881 E4.66187
G1 X67.931 Y128.638 E4.66594
G1 X67.926 Y128.62 E4.66625
G1 X67.905 Y128.346 E4.67082
G1 X67.905 Y127.783 E4.68018
G1 X67.931 Y127.54 E4.68424
G1 X67.926 Y127.522 E4.68455
G1 X67.905 Y127.248 E4.68912
G1 X67.905 Y126.686 E4.69847
G1 X67.931 Y126.443 E4.70253
G1 X67.926 Y126.425 E4.70284
G1 X67.905 Y126.151 E4.70741
G1 X67.905 Y125.589 E4.71676
G1 X67.931 Y125.346 E4.72082
G1 X67.926 Y125.328 E4.72114
G1 X67.905 Y125.054 E4.72571
G1 X67.905 Y124.491 E4.73507
G1 X67.931 Y124.249 E4.73912
G1 X67.926 Y124.231 E4.73943
G1 X67.905 Y123.957 E4.744
G1 X67.905 Y123.741 E4.74759
G1 X67.705 Y123.806 E4.75109
G1 X67.329 Y123.846 E4.75737
G1 X66.952 Y123.806 E4.76368
G1 X66.592 Y123.688 E4.76998
G1 X66.264 Y123.498 E4.77628
G1 X65.984 Y123.243 E4.78258
G1 X65.721 Y122.857 E4.79035
G1 X65.156 Y121.737 E4.81121
G1 X65.022 Y121.382 E4.81752
G1 X64.965 Y121.008 E4.82381
G1 X64.988 Y120.629 E4.83013
G1 X65.089 Y120.264 E4.83642
G1 X65.265 Y119.928 E4.84273
G1 X65.481 Y119.663 E4.84842
G1 X66.023 Y119.113 E4.86126
G1 X66.316 Y118.872 E4.86757
G1 X66.653 Y118.698 E4.87388
G1 X67.018 Y118.599 E4.88016
G1 X67.397 Y118.578 E4.88648
G1 X67.771 Y118.637 E4.89277
G1 X67.922 Y118.695 E4.89546
G1 X67.905 Y118.47 E4.89922
G1 X67.905 Y117.907 E4.90858
G1 X67.931 Y117.664 E4.91264
G1 X67.926 Y117.647 E4.91294
G1 X67.905 Y117.373 E4.91751
G1 X67.905 Y116.81 E4.92687
G1 X67.931 Y116.567 E4.93093
G1 X67.926 Y116.549 E4.93125
G1 X67.905 Y116.275 E4.93582
G1 X67.905 Y115.713 E4.94516
G1 X67.945 Y115.336 E4.95147
G1 X68.063 Y114.976 E4.95777
G1 X68.115 Y114.887 E4.95948
G1 X67.839 Y114.69 E4.96512
G1 X67.583 Y114.411 E4.97142
G1 X67.391 Y114.084 E4.97772
G1 X67.384 Y114.064 E4.97807
G1 X67.329 Y113.985 E4.97968
G1 X67.145 Y113.653 E4.98599
G1 X67.034 Y113.291 E4.99228
G1 X67.001 Y112.949 E4.998
G1 X67.001 Y110.613 E5.03685
G1 X67.041 Y110.236 E5.04315
G1 X67.159 Y109.876 E5.04945
G1 X67.349 Y109.549 E5.05574
G1 X67.604 Y109.268 E5.06205
G1 X67.913 Y109.048 E5.06836
G1 X68.26 Y108.896 E5.07466
G1 X68.801 Y108.813 E5.08376
G1 X72.488 Y108.812 E5.14508
G1 X72.864 Y108.852 E5.15136
G1 X73.225 Y108.97 E5.15768
G1 X73.552 Y109.16 E5.16397
G1 X73.832 Y109.415 E5.17027
G1 X74.053 Y109.723 E5.17657
G1 X74.205 Y110.07 E5.18287
G1 X74.288 Y110.612 E5.19199
G1 X74.288 Y110.84 E5.19578
G1 X79.712 Y110.839 E5.28598
G1 X79.712 Y110.613 E5.28974
G1 X79.752 Y110.236 E5.29605
G1 X79.87 Y109.876 E5.30235
G1 X80.06 Y109.549 E5.30864
G1 X80.315 Y109.268 E5.31495
G1 X80.624 Y109.048 E5.32126
G1 X80.971 Y108.896 E5.32756
G1 X81.512 Y108.813 E5.33666
G1 X85.199 Y108.813 E5.39797
G1 X85.576 Y108.853 E5.40428
G1 X85.936 Y108.971 E5.41058
G1 X86.263 Y109.161 E5.41687
G1 X86.544 Y109.416 E5.42318
G1 X86.764 Y109.725 E5.42949
G1 X86.916 Y110.072 E5.43579
G1 X86.999 Y110.613 E5.44489
G1 X86.999 Y112.949 E5.48374
G0 X86.599 Y112.949
G1 X86.559 Y113.281 E5.4893
G1 X86.442 Y113.593 E5.49484
G1 X86.338 Y113.762 E5.49814
G1 X86.235 Y113.906 E5.50108
G1 X86.198 Y114 E5.50276
G1 X86.006 Y114.273 E5.50831
G1 X85.754 Y114.492 E5.51386
G1 X85.457 Y114.646 E5.51943
G1 X85.257 Y114.695 E5.52285
G1 X85.285 Y114.723 E5.52351
G1 X85.491 Y114.986 E5.52907
G1 X85.63 Y115.29 E5.53463
G1 X85.695 Y115.713 E5.54174
G1 X85.695 Y116.275 E5.55109
G1 X85.659 Y116.575 E5.55611
G1 X85.695 Y116.81 E5.56007
G1 X85.695 Y117.373 E5.56943
G1 X85.659 Y117.672 E5.57444
G1 X85.695 Y117.907 E5.57839
G1 X85.695 Y118.47 E5.58775
G1 X85.659 Y118.77 E5.59278
G1 X85.695 Y119.005 E5.59673
G1 X85.695 Y119.392 E5.60317
G1 X85.888 Y119.218 E5.60749
G1 X86.182 Y119.059 E5.61305
G1 X86.506 Y118.975 E5.61862
G1 X86.84 Y118.969 E5.62417
G1 X87.165 Y119.043 E5.62971
G1 X87.464 Y119.192 E5.63527
G1 X87.692 Y119.379 E5.64017
G1 X87.841 Y119.53 E5.6437
G1 X88.045 Y119.794 E5.64925
G1 X88.16 Y120.036 E5.6537
G1 X88.434 Y120.792 E5.66708
G1 X88.51 Y121.117 E5.67263
G1 X88.506 Y121.451 E5.67818
G1 X88.423 Y121.775 E5.68375
G1 X88.276 Y122.056 E5.68902
G1 X87.845 Y122.693 E5.70181
G1 X87.627 Y122.947 E5.70738
G1 X87.356 Y123.141 E5.71292
G1 X87.045 Y123.265 E5.71849
G1 X86.715 Y123.313 E5.72403
G1 X86.382 Y123.28 E5.7296
G1 X86.067 Y123.17 E5.73515
G1 X85.787 Y122.988 E5.7407
G1 X85.692 Y122.887 E5.743
G1 X85.659 Y123.159 E5.74756
G1 X85.695 Y123.394 E5.75152
G1 X85.695 Y123.957 E5.76088
G1 X85.659 Y124.256 E5.76589
G1 X85.695 Y124.491 E5.76984
G1 X85.695 Y125.054 E5.7792
G1 X85.659 Y125.354 E5.78423
G1 X85.695 Y125.589 E5.78818
G1 X85.695 Y126.151 E5.79753
G1 X85.659 Y126.451 E5.80255
G1 X85.695 Y126.686 E5.80651
G1 X85.695 Y127.248 E5.81585
G1 X85.659 Y127.548 E5.82088
G1 X85.695 Y127.783 E5.82483
G1 X85.695 Y128.346 E5.83419
G1 X85.659 Y128.646 E5.83922
G1 X85.695 Y128.881 E5.84317
G1 X85.695 Y129.443 E5.85252
G1 X85.687 Y129.513 E5.85369
G1 X85.908 Y129.321 E5.85856
G1 X86.205 Y129.167 E5.86412
G1 X86.529 Y129.088 E5.86967
G1 X86.863 Y129.088 E5.87522
G1 X87.188 Y129.167 E5.88078
G1 X87.485 Y129.321 E5.88635
G1 X87.736 Y129.541 E5.8919
G1 X87.975 Y129.908 E5.89918
G1 X88.186 Y130.382 E5.90781
G1 X88.37 Y130.758 E5.91477
G1 X88.48 Y131.074 E5.92034
G1 X88.512 Y131.406 E5.92588
G1 X88.464 Y131.737 E5.93144
G1 X88.399 Y131.924 E5.93474
G1 X87.983 Y132.895 E5.9523
G1 X87.816 Y133.185 E5.95787
G1 X87.585 Y133.426 E5.96342
G1 X87.303 Y133.606 E5.96898
G1 X86.987 Y133.713 E5.97453
G1 X86.654 Y133.743 E5.98009
G1 X86.324 Y133.694 E5.98564
G1 X86.015 Y133.567 E5.9912
G1 X85.744 Y133.371 E5.99676
G1 X85.695 Y133.313 E5.99802
G1 X85.695 Y133.832 E6.00665
G1 X85.659 Y134.132 E6.01168
